mini_run_pipeline/luts/bleach_bypass.cube
TITLE "Bleach Bypass Silver Retention Emulation"
LUT_3D_SIZE 9
DOMAIN_MIN 0.0 0.0 0.0
DOMAIN_MAX 1.0 1.0 1.0
0.000000 0.000000 0.000000
0.026120 0.006727 0.006727
0.054013 0.013911 0.013911
0.084388 0.021733 0.021733
0.117809 0.030340 0.030340
0.154776 0.039861 0.039861
0.195747 0.050413 0.050413
0.241139 0.062103 0.062103
0.301511 0.075030 0.075030
0.024769 0.045995 0.024769
0.055953 0.055953 0.033694
0.090418 0.066998 0.043577
0.128639 0.079234 0.054531
0.171047 0.092758 0.066661
0.218037 0.107657 0.080061
0.269963 0.124008 0.094817
0.329422 0.141879 0.111002
0.431890 0.161323 0.128679
0.058806 0.109201 0.058806
0.098018 0.124649 0.071388
0.141603 0.141603 0.085272
0.189924 0.160130 0.100540
0.243306 0.180284 0.117262
0.302025 0.202107 0.135495
0.366314 0.225628 0.155284
0.462056 0.250859 0.176661
0.555766 0.277798 0.199642
0.106456 0.197686 0.106456
0.155878 0.220190 0.123722
0.210473 0.244450 0.142518
0.270482 0.270482 0.162882
0.336097 0.298283 0.184842
0.407457 0.327837 0.208408
0.496584 0.359110 0.233576
0.584942 0.392051 0.260326
0.667866 0.426593 0.288622
0.170691 0.316968 0.170691
0.231771 0.347377 0.193235
0.298479 0.379572 0.217386
0.370913 0.413506 0.243133
0.449110 0.449110 0.270451
0.534365 0.486302 0.299298
0.616704 0.524385 0.329619
0.693366 0.561137 0.361341
0.764319 0.596276 0.394378
0.252898 0.472185 0.252898
0.326202 0.510616 0.280779
0.405194 0.547705 0.310170
0.489811 0.583346 0.341010
0.574121 0.617442 0.373221
0.649917 0.649917 0.406713
0.719948 0.680708 0.441381
0.784282 0.709768 0.477109
0.843045 0.737069 0.513770
0.352583 0.640584 0.352583
0.437702 0.672027 0.385272
0.528157 0.701848 0.419204
0.614464 0.730002 0.454272
0.683365 0.756459 0.490355
0.746569 0.781206 0.527322
0.804244 0.804244 0.565031
0.856607 0.825591 0.603334
0.903928 0.845279 0.642074
0.467298 0.777624 0.467298
0.562873 0.801512 0.503718
0.653964 0.823747 0.540972
0.715803 0.844345 0.578915
0.772167 0.863339 0.617396
0.823314 0.880774 0.656255
0.869546 0.896706 0.695324
0.911348 0.911348 0.731546
0.950160 0.925832 0.755907
0.592871 0.882935 0.592871
0.691209 0.899640 0.631508
0.746007 0.914892 0.670463
0.795693 0.928761 0.709567
0.841064 0.941791 0.740452
0.883419 0.954997 0.764700
0.923199 0.968507 0.788667
0.960856 0.982431 0.812394
0.996888 0.996888 0.835909
0.002248 0.002248 0.021335
0.028699 0.009105 0.028699
0.057121 0.016488 0.036804
0.088169 0.024562 0.045764
0.122392 0.033465 0.055697
0.160276 0.043323 0.066714
0.202268 0.054250 0.078920
0.248778 0.066350 0.092411
0.314794 0.079718 0.107275
0.027700 0.049262 0.049262
0.059576 0.059576 0.059576
0.094857 0.071015 0.071015
0.134005 0.083678 0.083678
0.177442 0.097659 0.097659
0.225550 0.113043 0.113043
0.278673 0.129904 0.129904
0.343091 0.148303 0.148303
0.444788 0.168292 0.168292
0.062938 0.114283 0.088611
0.103093 0.130234 0.103093
0.147715 0.147715 0.119007
0.197158 0.166789 0.136421
0.251731 0.187506 0.155394
0.311700 0.209903 0.175971
0.377435 0.234004 0.198185
0.474994 0.259817 0.222051
0.567694 0.287333 0.247573
0.112152 0.205133 0.143145
0.162698 0.228231 0.162698
0.218480 0.253092 0.183868
0.279725 0.279725 0.206682
0.346611 0.308125 0.231151
0.419261 0.338267 0.257273
0.509375 0.370113 0.285027
0.596609 0.403606 0.314378
0.678362 0.438674 0.345275
0.178167 0.327092 0.215398
0.240471 0.358112 0.240471
0.308428 0.390905 0.267190
0.382119 0.425414 0.295530
0.461567 0.461567 0.325451
0.546815 0.499276 0.356894
0.627943 0.537041 0.389788
0.703372 0.573255 0.424045
0.773088 0.607828 0.459564
0.262194 0.485379 0.306243
0.336725 0.523368 0.336725
0.416928 0.559977 0.368706
0.502723 0.595102 0.402107
0.586036 0.628656 0.436836
0.660565 0.660565 0.472787
0.729334 0.690772 0.509841
0.792428 0.719238 0.547867
0.849986 0.745938 0.586725
0.363538 0.651440 0.414602
0.449789 0.682339 0.449789
0.541319 0.711598 0.486156
0.625659 0.739179 0.523579
0.693272 0.765055 0.561925
0.755219 0.789221 0.601050
0.811682 0.811682 0.640801
0.862894 0.832461 0.680299
0.909135 0.851596 0.707749
0.479565 0.785922 0.537440
0.576087 0.809248 0.576087
0.664273 0.830924 0.615458
0.724837 0.850974 0.655397
0.779982 0.869432 0.690532
0.829977 0.886350 0.717232
0.875138 0.901788 0.741888
0.916255 0.916255 0.765070
0.954671 0.930781 0.788001
0.605946 0.888775 0.670047
0.700490 0.904979 0.700490
0.754060 0.919753 0.726444
0.802608 0.933186 0.750381
0.847368 0.946249 0.773441
0.889236 0.959546 0.796305
0.928638 0.973183 0.819023
0.966036 0.987274 0.841641
1.000000 1.000000 0.864195
0.004530 0.004530 0.042987
0.031363 0.011544 0.051182
0.060345 0.019145 0.060345
0.092096 0.027486 0.070559
0.127145 0.036700 0.081922
0.165968 0.046909 0.094532
0.209003 0.058222 0.108483
0.256648 0.070743 0.123859
0.328067 0.084561 0.140737
0.030733 0.052645 0.074558
0.063330 0.063330 0.086364
0.099451 0.075173 0.099451
0.139549 0.088274 0.113911
0.184033 0.102722 0.129826
0.233276 0.118600 0.147269
0.287610 0.135977 0.166303
0.356714 0.154911 0.186980
0.457612 0.175449 0.209335
0.067214 0.119533 0.119533
0.108334 0.135996 0.135996
0.154012 0.154012 0.154012
0.204590 0.173638 0.173638
0.260367 0.194923 0.194923
0.321594 0.217896 0.217896
0.391218 0.242578 0.242578
0.487825 0.268971 0.268971
0.579496 0.297062 0.297062
0.118019 0.212780 0.181193
0.169704 0.236475 0.203090
0.226684 0.261938 0.226684
0.289173 0.289173 0.251989
0.357332 0.318167 0.279003
0.431270 0.348893 0.307705
0.522029 0.381306 0.338062
0.608123 0.415343 0.370022
0.688695 0.450927 0.403517
0.185828 0.337425 0.261627
0.249361 0.369052 0.289258
0.318568 0.402435 0.318568
0.393513 0.437511 0.349515
0.474204 0.474204 0.382042
0.559098 0.512269 0.416077
0.639005 0.549519 0.451531
0.713197 0.585184 0.488301
0.781674 0.619182 0.526271
0.271668 0.498428 0.361178
0.347422 0.535960 0.394263
0.428825 0.572077 0.428825
0.515785 0.606678 0.464771
0.597758 0.639680 0.501992
0.671017 0.671017 0.540367
0.738524 0.700636 0.579764
0.800382 0.728504 0.620039
0.856745 0.754602 0.652460
0.374645 0.662114 0.478180
0.462013 0.692462 0.515836
0.554599 0.721155 0.554599
0.636641 0.748158 0.594333
0.702968 0.773454 0.632482
0.763664 0.797039 0.663539
0.818925 0.818925 0.692617
0.868999 0.839142 0.719710
0.914179 0.857729 0.744829
0.491938 0.794029 0.609011
0.589384 0.816793 0.644016
0.674355 0.837914 0.674355
0.733652 0.857419 0.702710
0.787589 0.875347 0.729083
0.836448 0.891755 0.753487
0.880567 0.906718 0.775965
0.921174 0.921174 0.797632
0.959217 0.935751 0.819215
0.619071 0.894443 0.712541
0.709534 0.910154 0.738194
0.761888 0.924458 0.761888
0.809454 0.937602 0.783866
0.853648 0.950733 0.805496
0.895051 0.964134 0.827062
0.934099 0.977912 0.848620
0.971265 0.992185 0.870226
1.000000 1.000000 0.891920
0.006857 0.006857 0.065069
0.034117 0.014051 0.074248
0.063691 0.021887 0.084593
0.096171 0.030511 0.096171
0.132071 0.040050 0.109065
0.171856 0.050622 0.123362
0.215953 0.062334 0.139144
0.264751 0.075286 0.156485
0.341324 0.089564 0.175453
0.033871 0.056150 0.100709
0.067217 0.067217 0.114104
0.104204 0.079476 0.128932
0.145273 0.093025 0.145273
0.190824 0.107951 0.163199
0.241218 0.124330 0.182774
0.296775 0.142230 0.204048
0.370284 0.161704 0.227060
0.470357 0.182794 0.251834
0.071637 0.124954 0.151612
0.113742 0.141937 0.170132
0.160494 0.160494 0.190320
0.212223 0.180679 0.212223
0.269215 0.202534 0.235874
0.331709 0.226087 0.261294
0.404911 0.251350 0.288485
0.500546 0.278322 0.317437
0.591167 0.306983 0.348122
0.124062 0.220630 0.220630
0.176899 0.244924 0.244924
0.235086 0.270988 0.270988
0.298823 0.298823 0.298823
0.368258 0.328410 0.328410
0.444179 0.359714 0.359714
0.534540 0.392686 0.392686
0.619481 0.427258 0.427258
0.698861 0.463347 0.463347
0.193675 0.347966 0.309393
0.258440 0.380195 0.339610
0.328896 0.414161 0.371528
0.405091 0.449795 0.405091
0.487016 0.487016 0.440226
0.571211 0.525091 0.476843
0.649888 0.561813 0.514839
0.722837 0.596921 0.554095
0.790076 0.630336 0.590401
0.281318 0.511326 0.417705
0.358288 0.548390 0.453391
0.440883 0.584002 0.490522
0.528991 0.618069 0.528991
0.609285 0.650512 0.568059
0.681270 0.681270 0.602865
0.747518 0.710298 0.635858
0.808145 0.737566 0.666987
0.863322 0.763062 0.696222
0.385899 0.672603 0.543305
0.474368 0.702394 0.580937
0.567992 0.730516 0.615090
0.647408 0.756941 0.647408
0.712452 0.781655 0.677851
0.771905 0.804661 0.706392
0.825976 0.825976 0.733024
0.874927 0.845634 0.757755
0.919063 0.863680 0.780605
0.504412 0.801945 0.658710
0.602758 0.824149 0.688463
0.684207 0.844717 0.716309
0.742247 0.863682 0.742247
0.794989 0.881087 0.766290
0.842728 0.896992 0.788464
0.885955 0.911619 0.809000
0.926106 0.926106 0.829271
0.963802 0.940745 0.849591
0.632238 0.899940 0.751218
0.718341 0.915166 0.774577
0.769495 0.929009 0.796080
0.816258 0.942037 0.816379
0.859906 0.955249 0.836660
0.900867 0.968765 0.857014
0.939586 0.982697 0.877506
0.976550 0.997166 0.898199
1.000000 1.000000 0.919140
0.009238 0.009238 0.087663
0.036964 0.016633 0.097959
0.067162 0.024721 0.109604
0.100398 0.033641 0.122650
0.137173 0.043519 0.137173
0.177941 0.054466 0.153246
0.223120 0.066589 0.170943
0.273087 0.079982 0.190328
0.354558 0.094730 0.211457
0.037120 0.059781 0.127763
0.071241 0.071241 0.142841
0.109118 0.083928 0.159497
0.151180 0.097935 0.177802
0.197816 0.113346 0.197816
0.249376 0.130235 0.219591
0.306170 0.148664 0.243168
0.383796 0.168683 0.268571
0.483018 0.190329 0.295812
0.076210 0.130549 0.184887
0.119321 0.148059 0.205537
0.167164 0.167164 0.227964
0.220058 0.187912 0.252203
0.278275 0.210341 0.278275
0.342041 0.234474 0.306185
0.418510 0.260319 0.335924
0.513149 0.287867 0.367464
0.602704 0.317095 0.400762
0.130281 0.228682 0.261482
0.184282 0.253576 0.288224
0.243685 0.280243 0.316802
0.308676 0.308676 0.347200
0.379386 0.338851 0.379386
0.457662 0.370728 0.413310
0.546904 0.404251 0.448905
0.630678 0.439349 0.486088
0.708858 0.475931 0.524173
0.201707 0.358713 0.358713
0.267708 0.391538 0.391538
0.339412 0.426079 0.426079
0.416851 0.462263 0.462263
0.500000 0.500000 0.500000
0.583149 0.537737 0.537737
0.660588 0.573921 0.573921
0.732292 0.608462 0.608462
0.798293 0.641287 0.641287
0.291142 0.524069 0.475827
0.369322 0.560651 0.513912
0.453096 0.595749 0.551095
0.542338 0.629272 0.586690
0.620614 0.661149 0.620614
0.691324 0.691324 0.652800
0.756315 0.719757 0.683198
0.815718 0.746424 0.711776
0.869719 0.771318 0.738518
0.397296 0.682905 0.599238
0.486851 0.712133 0.632536
0.581490 0.739681 0.664076
0.657959 0.765526 0.693815
0.721725 0.789659 0.721725
0.779942 0.812088 0.747797
0.832836 0.832836 0.772036
0.880679 0.851941 0.794463
0.923790 0.869451 0.815113
0.516982 0.809671 0.704188
0.616204 0.831317 0.731429
0.693830 0.851336 0.756832
0.750624 0.869765 0.780409
0.802184 0.886654 0.802184
0.848820 0.902065 0.822198
0.891338 0.916528 0.841073
0.931056 0.931056 0.860030
0.968430 0.945769 0.879175
0.645442 0.905270 0.788543
0.726913 0.920018 0.809672
0.776900 0.933431 0.829082
0.823022 0.946496 0.847957
0.866145 0.959799 0.866975
0.906687 0.973444 0.886206
0.945103 0.987545 0.905728
0.981894 1.000000 0.925613
1.000000 1.000000 0.945916
0.011681 0.011681 0.110842
0.039911 0.019294 0.122377
0.070762 0.027651 0.135429
0.104780 0.036883 0.150046
0.142454 0.047111 0.166289
0.184226 0.058447 0.184226
0.230505 0.070991 0.203920
0.281659 0.084834 0.225423
0.367762 0.100060 0.248782
0.040485 0.063541 0.155767
0.075407 0.075407 0.172620
0.114197 0.088533 0.191190
0.157272 0.103008 0.211536
0.205011 0.118913 0.233710
0.257753 0.136318 0.257753
0.315793 0.155283 0.283691
0.397242 0.175851 0.311537
0.495588 0.198055 0.341290
0.080937 0.136320 0.219395
0.125073 0.154366 0.242245
0.174024 0.174024 0.266976
0.228095 0.195339 0.293608
0.287548 0.218345 0.322149
0.352592 0.243059 0.352592
0.432008 0.269484 0.384910
0.525632 0.297606 0.419063
0.614101 0.327397 0.456695
0.136678 0.236938 0.303778
0.191855 0.262434 0.333013
0.252482 0.289702 0.364142
0.318730 0.318730 0.397135
0.390715 0.349488 0.431941
0.471009 0.381931 0.471009
0.559117 0.415998 0.509478
0.641712 0.451610 0.546609
0.718682 0.488674 0.582295
0.209924 0.369664 0.409599
0.277163 0.403079 0.445905
0.350112 0.438187 0.485161
0.428789 0.474909 0.523157
0.512984 0.512984 0.559774
0.594909 0.550205 0.594909
0.671104 0.585839 0.628472
0.741560 0.619805 0.660390
0.806325 0.652034 0.690607
0.301139 0.536653 0.536653
0.380519 0.572742 0.572742
0.465460 0.607314 0.607314
0.555821 0.640286 0.640286
0.631742 0.671590 0.671590
0.701177 0.701177 0.701177
0.764914 0.729012 0.729012
0.823101 0.755076 0.755076
0.875938 0.779370 0.779370
0.408833 0.693017 0.651878
0.499454 0.721678 0.682563
0.595089 0.748650 0.711515
0.668291 0.773913 0.738706
0.730785 0.797466 0.764126
0.787777 0.819321 0.787777
0.839506 0.839506 0.809680
0.886258 0.858063 0.829868
0.928363 0.875046 0.848388
0.529643 0.817206 0.748166
0.629716 0.838296 0.772940
0.703225 0.857770 0.795952
0.758782 0.875670 0.817226
0.809176 0.892049 0.836801
0.854742 0.906989 0.854745
0.896719 0.921447 0.872222
0.936027 0.936027 0.889951
0.973105 0.950826 0.908012
0.658676 0.910436 0.824547
0.735249 0.924714 0.843515
0.784229 0.937847 0.861083
0.829748 0.950982 0.878643
0.872368 0.964389 0.896483
0.912515 0.978176 0.914687
0.950655 0.992459 0.933339
0.987302 1.000000 0.952525
1.000000 1.000000 0.972310
0.014192 0.014192 0.134670
0.042961 0.022042 0.147557
0.074495 0.030681 0.162121
0.109321 0.040239 0.178404
0.147916 0.050831 0.196459
0.190714 0.062566 0.216344
0.238112 0.075542 0.238112
0.290466 0.089846 0.261806
0.380929 0.105557 0.287459
0.043969 0.067436 0.184769
0.079719 0.079719 0.203484
0.119444 0.093293 0.224048
0.163552 0.108245 0.246513
0.212411 0.124653 0.270917
0.266348 0.142581 0.297290
0.325645 0.162086 0.325645
0.410616 0.183207 0.355984
0.508062 0.205971 0.390989
0.085821 0.142271 0.255171
0.131001 0.160858 0.280290
0.181075 0.181075 0.307383
0.236336 0.202961 0.336461
0.297032 0.226546 0.367518
0.363359 0.251842 0.405667
0.445401 0.278845 0.445401
0.537987 0.307538 0.484164
0.625355 0.337886 0.521820
0.143255 0.245398 0.347540
0.199618 0.271496 0.379961
0.261476 0.299364 0.420236
0.328983 0.328983 0.459633
0.402242 0.360320 0.498008
0.484215 0.393322 0.535229
0.571175 0.427923 0.571175
0.652578 0.464040 0.605737
0.728332 0.501572 0.638822
0.218326 0.380818 0.473729
0.286803 0.414816 0.511699
0.360995 0.450481 0.548469
0.440902 0.487731 0.583923
0.525796 0.525796 0.617958
0.606487 0.562489 0.650485
0.681432 0.597565 0.681432
0.750639 0.630948 0.710742
0.814172 0.662575 0.738373
0.311305 0.549073 0.596483
0.391877 0.584657 0.629978
0.477971 0.618694 0.661938
0.568730 0.651107 0.692295
0.642668 0.681833 0.720997
0.710827 0.710827 0.748011
0.773316 0.738062 0.773316
0.830296 0.763525 0.796910
0.881981 0.787220 0.818807
0.420504 0.702938 0.702938
0.512175 0.731029 0.731029
0.608782 0.757422 0.757422
0.678406 0.782104 0.782104
0.739633 0.805077 0.805077
0.795410 0.826362 0.826362
0.845988 0.845988 0.845988
0.891666 0.864004 0.864004
0.932796 0.880477 0.880480
0.542388 0.824551 0.790665
0.643286 0.845089 0.813020
0.712390 0.864023 0.833697
0.766724 0.881400 0.852731
0.815967 0.897278 0.870174
0.860616 0.911891 0.886294
0.902101 0.926380 0.902489
0.941023 0.941023 0.919077
0.977833 0.955920 0.936149
0.671933 0.915439 0.859263
0.743352 0.929257 0.876141
0.791503 0.942284 0.892150
0.836440 0.955500 0.908478
0.878578 0.969023 0.925231
0.918354 0.982964 0.942503
0.956244 0.997445 0.960391
0.992778 1.000000 0.978994
1.000000 1.000000 0.998395
0.016778 0.016778 0.159207
0.046120 0.024881 0.173552
0.078364 0.033818 0.189729
0.114024 0.043714 0.207770
0.153564 0.054683 0.227724
0.197407 0.066829 0.249639
0.245940 0.080247 0.273556
0.299510 0.095021 0.299510
0.394054 0.111225 0.329953
0.047578 0.071468 0.214811
0.084179 0.084179 0.235473
0.124862 0.098212 0.258112
0.170023 0.113650 0.282768
0.220018 0.130568 0.309468
0.275163 0.149026 0.344603
0.335727 0.169076 0.384542
0.423913 0.190752 0.423913
0.520435 0.214078 0.462560
0.090865 0.148404 0.292251
0.137106 0.167539 0.319701
0.188318 0.188318 0.359199
0.244781 0.210779 0.398950
0.306728 0.234945 0.438075
0.374341 0.260821 0.476421
0.458681 0.288402 0.513844
0.550211 0.317661 0.550211
0.636462 0.348560 0.585398
0.150014 0.254062 0.413275
0.207572 0.280762 0.452133
0.270666 0.309228 0.490159
0.339435 0.339435 0.527213
0.413964 0.371344 0.563164
0.497277 0.404898 0.597893
0.583072 0.440023 0.631294
0.663275 0.476632 0.663275
0.737806 0.514621 0.693757
0.226912 0.392172 0.540436
0.296628 0.426745 0.575955
0.372057 0.462959 0.610212
0.453185 0.500724 0.643106
0.538433 0.538433 0.674549
0.617881 0.574586 0.704470
0.691572 0.609095 0.732810
0.759529 0.641888 0.759529
0.821833 0.672908 0.784602
0.321638 0.561326 0.654725
0.403391 0.596394 0.685622
0.490625 0.629887 0.714973
0.580739 0.661733 0.742727
0.653389 0.691875 0.768849
0.720275 0.720275 0.793318
0.781520 0.746908 0.816132
0.837302 0.771769 0.837302
0.887848 0.794867 0.856855
0.432306 0.712667 0.752427
0.525006 0.740183 0.777949
0.622565 0.765996 0.801815
0.688300 0.790097 0.824029
0.748269 0.812494 0.844606
0.802842 0.833211 0.863579
0.852285 0.852285 0.880993
0.896907 0.869766 0.896907
0.937210 0.885865 0.911575
0.555212 0.831708 0.831708
0.656909 0.851697 0.851697
0.721327 0.870096 0.870096
0.774450 0.886957 0.886957
0.822558 0.902341 0.902341
0.866472 0.916800 0.916919
0.907488 0.931330 0.931917
0.946049 0.946049 0.947455
0.982617 0.961056 0.963635
0.685206 0.920282 0.892725
0.751246 0.933675 0.907620
0.798725 0.946744 0.922323
0.843100 0.960052 0.937506
0.884778 0.973705 0.953266
0.924207 0.987815 0.969707
0.961875 1.000000 0.986941
0.998328 1.000000 1.000000
1.000000 1.000000 1.000000
0.019444 0.019444 0.184507
0.049391 0.027816 0.200414
0.082374 0.037065 0.218298
0.118892 0.047314 0.238189
0.159399 0.058671 0.260126
0.204307 0.071239 0.290433
0.253993 0.085108 0.329537
0.308791 0.100360 0.368492
0.407129 0.117065 0.407129
0.051315 0.075642 0.245937
0.088792 0.088792 0.268629
0.130454 0.103294 0.304676
0.176686 0.119226 0.343745
0.227833 0.136661 0.382604
0.284197 0.155655 0.421085
0.346036 0.176253 0.459028
0.437127 0.198488 0.496282
0.532702 0.222376 0.532702
0.096072 0.154721 0.357926
0.143393 0.174409 0.396666
0.195756 0.195756 0.434969
0.253431 0.218794 0.472678
0.316635 0.243541 0.509645
0.385536 0.269998 0.545728
0.471843 0.298152 0.580796
0.562298 0.327973 0.614728
0.647417 0.359416 0.647417
0.156955 0.262931 0.486230
0.215718 0.290232 0.522891
0.280052 0.319292 0.558619
0.350083 0.350083 0.593287
0.425879 0.382558 0.626779
0.510189 0.416654 0.658990
0.594806 0.452295 0.689830
0.673798 0.489384 0.719221
0.747102 0.527815 0.747102
0.235681 0.403724 0.605622
0.306634 0.438863 0.638659
0.383296 0.475615 0.670381
0.465635 0.513698 0.700702
0.550890 0.550890 0.729549
0.629087 0.586494 0.756867
0.701521 0.620428 0.782614
0.768229 0.652623 0.806765
0.829309 0.683032 0.829309
0.332134 0.573407 0.711378
0.415058 0.607949 0.739674
0.503416 0.640890 0.766424
0.592543 0.672163 0.791592
0.663903 0.701717 0.815158
0.729518 0.729518 0.837118
0.789527 0.755550 0.857482
0.844122 0.779810 0.876278
0.893544 0.802314 0.893544
0.444234 0.722202 0.800358
0.537944 0.749141 0.823339
0.633686 0.774372 0.844716
0.697975 0.797893 0.864505
0.756694 0.819716 0.882738
0.810076 0.839870 0.899460
0.858397 0.858397 0.914728
0.901982 0.875351 0.928612
0.941643 0.891248 0.941756
0.568110 0.838677 0.871321
0.670578 0.858121 0.888998
0.730037 0.875992 0.905183
0.781963 0.892343 0.919939
0.828971 0.907261 0.933362
0.872314 0.921719 0.946660
0.912882 0.936303 0.960548
0.951107 0.951107 0.975131
0.987463 0.966237 0.990522
0.698489 0.924970 0.924970
0.759057 0.938092 0.938141
0.805898 0.951232 0.951643
0.849730 0.964645 0.965771
0.890971 0.978439 0.980634
0.930079 0.992733 0.996349
0.967552 1.000000 1.000000
1.000000 1.000000 1.000000
1.000000 1.000000 1.000000
