mini_run_pipeline/luts/bleach_bypass.cube
TITLE "Bleach Bypass Silver Retention Emulation"
LUT_3D_SIZE 5
DOMAIN_MIN 0.0 0.0 0.0
DOMAIN_MAX 1.0 1.0 1.0
0.000000 0.000000 0.000000
0.054013 0.013911 0.013911
0.117809 0.030340 0.030340
0.195747 0.050413 0.050413
0.301511 0.075030 0.075030
0.058806 0.109201 0.058806
0.141603 0.141603 0.085272
0.243306 0.180284 0.117262
0.366314 0.225628 0.155284
0.555766 0.277798 0.199642
0.170691 0.316968 0.170691
0.298479 0.379572 0.217386
0.449110 0.449110 0.270451
0.616704 0.524385 0.329619
0.764319 0.596276 0.394378
0.352583 0.640584 0.352583
0.528157 0.701848 0.419204
0.683365 0.756459 0.490355
0.804244 0.804244 0.565031
0.903928 0.845279 0.642074
0.592871 0.882935 0.592871
0.746007 0.914892 0.670463
0.841064 0.941791 0.740452
0.923199 0.968507 0.788667
0.996888 0.996888 0.835909
0.004530 0.004530 0.042987
0.060345 0.019145 0.060345
0.127145 0.036700 0.081922
0.209003 0.058222 0.108483
0.328067 0.084561 0.140737
0.067214 0.119533 0.119533
0.154012 0.154012 0.154012
0.260367 0.194923 0.194923
0.391218 0.242578 0.242578
0.579496 0.297062 0.297062
0.185828 0.337425 0.261627
0.318568 0.402435 0.318568
0.474204 0.474204 0.382042
0.639005 0.549519 0.451531
0.781674 0.619182 0.526271
0.374645 0.662114 0.478180
0.554599 0.721155 0.554599
0.702968 0.773454 0.632482
0.818925 0.818925 0.692617
0.914179 0.857729 0.744829
0.619071 0.894443 0.712541
0.761888 0.924458 0.761888
0.853648 0.950733 0.805496
0.934099 0.977912 0.848620
1.000000 1.000000 0.891920
0.009238 0.009238 0.087663
0.067162 0.024721 0.109604
0.137173 0.043519 0.137173
0.223120 0.066589 0.170943
0.354558 0.094730 0.211457
0.076210 0.130549 0.184887
0.167164 0.167164 0.227964
0.278275 0.210341 0.278275
0.418510 0.260319 0.335924
0.602704 0.317095 0.400762
0.201707 0.358713 0.358713
0.339412 0.426079 0.426079
0.500000 0.500000 0.500000
0.660588 0.573921 0.573921
0.798293 0.641287 0.641287
0.397296 0.682905 0.599238
0.581490 0.739681 0.664076
0.721725 0.789659 0.721725
0.832836 0.832836 0.772036
0.923790 0.869451 0.815113
0.645442 0.905270 0.788543
0.776900 0.933431 0.829082
0.866145 0.959799 0.866975
0.945103 0.987545 0.905728
1.000000 1.000000 0.945916
0.014192 0.014192 0.134670
0.074495 0.030681 0.162121
0.147916 0.050831 0.196459
0.238112 0.075542 0.238112
0.380929 0.105557 0.287459
0.085821 0.142271 0.255171
0.181075 0.181075 0.307383
0.297032 0.226546 0.367518
0.445401 0.278845 0.445401
0.625355 0.337886 0.521820
0.218326 0.380818 0.473729
0.360995 0.450481 0.548469
0.525796 0.525796 0.617958
0.681432 0.597565 0.681432
0.814172 0.662575 0.738373
0.420504 0.702938 0.702938
0.608782 0.757422 0.757422
0.739633 0.805077 0.805077
0.845988 0.845988 0.845988
0.932796 0.880477 0.880480
0.671933 0.915439 0.859263
0.791503 0.942284 0.892150
0.878578 0.969023 0.925231
0.956244 0.997445 0.960391
1.000000 1.000000 0.998395
0.019444 0.019444 0.184507
0.082374 0.037065 0.218298
0.159399 0.058671 0.260126
0.253993 0.085108 0.329537
0.407129 0.117065 0.407129
0.096072 0.154721 0.357926
0.195756 0.195756 0.434969
0.316635 0.243541 0.509645
0.471843 0.298152 0.580796
0.647417 0.359416 0.647417
0.235681 0.403724 0.605622
0.383296 0.475615 0.670381
0.550890 0.550890 0.729549
0.701521 0.620428 0.782614
0.829309 0.683032 0.829309
0.444234 0.722202 0.800358
0.633686 0.774372 0.844716
0.756694 0.819716 0.882738
0.858397 0.858397 0.914728
0.941643 0.891248 0.941756
0.698489 0.924970 0.924970
0.805898 0.951232 0.951643
0.890971 0.978439 0.980634
0.967552 1.000000 1.000000
1.000000 1.000000 1.000000
