mini_run_pipeline/luts/bleach_bypass.cube
TITLE "Bleach Bypass Silver Retention Emulation"
LUT_3D_SIZE 33
DOMAIN_MIN 0.0 0.0 0.0
DOMAIN_MAX 1.0 1.0 1.0
0.000000 0.000000 0.000000
0.006417 0.001653 0.001653
0.012896 0.003321 0.003321
0.019458 0.005011 0.005011
0.026120 0.006727 0.006727
0.032896 0.008472 0.008472
0.039796 0.010249 0.010249
0.046831 0.012061 0.012061
0.054013 0.013911 0.013911
0.061351 0.015800 0.015800
0.068853 0.017732 0.017732
0.076529 0.019709 0.019709
0.084388 0.021733 0.021733
0.092437 0.023806 0.023806
0.100685 0.025930 0.025930
0.109139 0.028108 0.028108
0.117809 0.030340 0.030340
0.126699 0.032630 0.032630
0.135820 0.034979 0.034979
0.145176 0.037389 0.037389
0.154776 0.039861 0.039861
0.164627 0.042398 0.042398
0.174734 0.045001 0.045001
0.185105 0.047672 0.047672
0.195747 0.050413 0.050413
0.206665 0.053224 0.053224
0.217865 0.056109 0.056109
0.229355 0.059068 0.059068
0.241139 0.062103 0.062103
0.253223 0.065215 0.065215
0.265613 0.068406 0.068406
0.278315 0.071677 0.071677
0.301511 0.075030 0.075030
0.005633 0.010460 0.005633
0.012220 0.012220 0.007359
0.018913 0.014014 0.009115
0.025723 0.015844 0.010904
0.032664 0.017713 0.012730
0.039744 0.019624 0.014594
0.046975 0.021578 0.016499
0.054365 0.023578 0.018447
0.061924 0.025626 0.020441
0.069661 0.027724 0.022482
0.077583 0.029874 0.024573
0.085700 0.032079 0.026717
0.094019 0.034340 0.028914
0.102548 0.036658 0.031167
0.111294 0.039037 0.033478
0.120266 0.041477 0.035849
0.129470 0.043981 0.038281
0.138913 0.046550 0.040777
0.148603 0.049186 0.043338
0.158546 0.051891 0.045965
0.168749 0.054666 0.048662
0.179218 0.057513 0.051428
0.189960 0.060434 0.054266
0.200981 0.063430 0.057178
0.212287 0.066502 0.060164
0.223885 0.069653 0.063227
0.235779 0.072883 0.066368
0.247975 0.076195 0.069588
0.260480 0.079588 0.072888
0.273298 0.083065 0.076271
0.286434 0.086627 0.079738
0.307859 0.090276 0.083288
0.334386 0.094011 0.086925
0.011565 0.021475 0.011565
0.018404 0.023404 0.013404
0.025378 0.025378 0.015282
0.032497 0.027399 0.017203
0.039770 0.029469 0.019167
0.047207 0.031590 0.021178
0.054817 0.033764 0.023238
0.062609 0.035994 0.025348
0.070590 0.038280 0.027510
0.078769 0.040626 0.029728
0.087153 0.043032 0.032002
0.095751 0.045501 0.034334
0.104570 0.048035 0.036727
0.113618 0.050634 0.039183
0.122901 0.053302 0.041702
0.132426 0.056039 0.044287
0.142201 0.058847 0.046939
0.152232 0.061728 0.049661
0.162525 0.064683 0.052453
0.173088 0.067714 0.055317
0.183926 0.070823 0.058256
0.195045 0.074011 0.061270
0.206453 0.077279 0.064361
0.218153 0.080628 0.067531
0.230153 0.084061 0.070780
0.242457 0.087578 0.074110
0.255071 0.091181 0.077523
0.268000 0.094871 0.081020
0.281250 0.098649 0.084602
0.294824 0.102516 0.088271
0.314634 0.106473 0.092027
0.340998 0.110522 0.095871
0.367141 0.114664 0.099805
0.017913 0.033263 0.017913
0.025064 0.035405 0.019894
0.032375 0.037602 0.021922
0.039854 0.039854 0.024000
0.047510 0.042165 0.026129
0.055351 0.044535 0.028311
0.063386 0.046968 0.030549
0.071622 0.049463 0.032844
0.080068 0.052025 0.035199
0.088731 0.054653 0.037614
0.097618 0.057350 0.040092
0.106736 0.060117 0.042635
0.116094 0.062957 0.045244
0.125697 0.065870 0.047922
0.135552 0.068858 0.050669
0.145666 0.071923 0.053487
0.156046 0.075066 0.056379
0.166698 0.078289 0.059345
0.177627 0.081593 0.062386
0.188841 0.084980 0.065506
0.200344 0.088450 0.068704
0.212144 0.092006 0.071983
0.224244 0.095648 0.075343
0.236651 0.099378 0.078787
0.249370 0.103197 0.082315
0.262406 0.107105 0.085928
0.275764 0.111105 0.089628
0.289449 0.115197 0.093416
0.303465 0.119383 0.097293
0.321826 0.123662 0.101260
0.348011 0.128037 0.105318
0.373962 0.132508 0.109468
0.399674 0.137075 0.113711
0.024769 0.045995 0.024769
0.032285 0.048389 0.026917
0.039982 0.050845 0.029119
0.047869 0.053366 0.031378
0.055953 0.055953 0.033694
0.064242 0.058608 0.036071
0.072745 0.061333 0.038509
0.081467 0.064129 0.041010
0.090418 0.066998 0.043577
0.099604 0.069941 0.046211
0.109031 0.072961 0.048914
0.118707 0.076058 0.051687
0.128639 0.079234 0.054531
0.138832 0.082491 0.057450
0.149294 0.085829 0.060443
0.160030 0.089251 0.063513
0.171047 0.092758 0.066661
0.182351 0.096350 0.069889
0.193947 0.100030 0.073197
0.205840 0.103798 0.076587
0.218037 0.107657 0.080061
0.230543 0.111605 0.083620
0.243363 0.115646 0.087265
0.256501 0.119780 0.090997
0.269963 0.124008 0.094817
0.283754 0.128331 0.098727
0.297877 0.132750 0.102727
0.312337 0.137265 0.106818
0.329422 0.141879 0.111002
0.355411 0.146590 0.115279
0.381156 0.151401 0.119651
0.406651 0.156312 0.124117
0.431890 0.161323 0.128679
0.032214 0.059821 0.032214
0.040142 0.062501 0.034552
0.048271 0.065252 0.036951
0.056610 0.068075 0.039412
0.065165 0.070972 0.041937
0.073944 0.073944 0.044528
0.082954 0.076993 0.047187
0.092202 0.080120 0.049915
0.101696 0.083328 0.052714
0.111441 0.086616 0.055585
0.121445 0.089988 0.058531
0.131714 0.093444 0.061552
0.142253 0.096985 0.064650
0.153070 0.100613 0.067827
0.164170 0.104329 0.071084
0.175560 0.108134 0.074422
0.187243 0.112030 0.077842
0.199227 0.116018 0.081347
0.211517 0.120098 0.084937
0.224117 0.124272 0.088613
0.237033 0.128541 0.092377
0.250269 0.132906 0.096230
0.263831 0.137367 0.100172
0.277723 0.141927 0.104206
0.291948 0.146584 0.108331
0.306512 0.151341 0.112548
0.321418 0.156198 0.116860
0.337409 0.161155 0.121266
0.363187 0.166214 0.125767
0.388710 0.171374 0.130364
0.413973 0.176637 0.135057
0.438970 0.182003 0.139848
0.463695 0.187472 0.144737
0.040324 0.074880 0.040324
0.048707 0.077879 0.042873
0.057311 0.080956 0.045488
0.066142 0.084112 0.048172
0.075208 0.087349 0.050926
0.084515 0.090668 0.053751
0.094071 0.094071 0.056649
0.103882 0.097559 0.059622
0.113954 0.101133 0.062671
0.124294 0.104795 0.065797
0.134908 0.108546 0.069003
0.145801 0.112387 0.072289
0.156981 0.116319 0.075657
0.168452 0.120344 0.079108
0.180220 0.124462 0.082644
0.192290 0.128675 0.086265
0.204668 0.132984 0.089973
0.217358 0.137389 0.093769
0.230366 0.141892 0.097655
0.243696 0.146493 0.101630
0.257354 0.151194 0.105697
0.271342 0.155994 0.109855
0.285665 0.160896 0.114107
0.300328 0.165899 0.118453
0.315335 0.171004 0.122893
0.330688 0.176211 0.127429
0.346391 0.181522 0.132061
0.371324 0.186936 0.136790
0.396610 0.192455 0.141617
0.421626 0.198078 0.146542
0.446366 0.203805 0.151565
0.470826 0.209638 0.156687
0.494998 0.215576 0.161908
0.049166 0.091300 0.049166
0.058046 0.094648 0.051946
0.067164 0.098081 0.054797
0.076527 0.101599 0.057723
0.086141 0.105205 0.060723
0.096013 0.108899 0.063800
0.106150 0.112683 0.066955
0.116558 0.116558 0.070190
0.127242 0.120525 0.073506
0.138208 0.124585 0.076904
0.149463 0.128740 0.080386
0.161012 0.132990 0.083952
0.172860 0.137337 0.087605
0.185013 0.141781 0.091345
0.197475 0.146324 0.095174
0.210252 0.150966 0.099091
0.223348 0.155708 0.103100
0.236768 0.160551 0.107200
0.250516 0.165496 0.111392
0.264597 0.170543 0.115678
0.279015 0.175693 0.120058
0.293773 0.180947 0.124533
0.308875 0.186304 0.129104
0.324325 0.191766 0.133772
0.340125 0.197333 0.138536
0.356280 0.203005 0.143398
0.379808 0.208783 0.148359
0.404842 0.214666 0.153418
0.429597 0.220656 0.158576
0.454067 0.226752 0.163834
0.478246 0.232953 0.169192
0.502131 0.239261 0.174650
0.525716 0.245675 0.180207
0.058806 0.109201 0.058806
0.068221 0.112926 0.061834
0.077890 0.116741 0.064940
0.087820 0.120648 0.068124
0.098018 0.124649 0.071388
0.108490 0.128743 0.074733
0.119240 0.132933 0.078162
0.130276 0.137219 0.081674
0.141603 0.141603 0.085272
0.153226 0.146085 0.088957
0.165150 0.150666 0.092729
0.177382 0.155347 0.096590
0.189924 0.160130 0.100540
0.202784 0.165014 0.104582
0.215964 0.170000 0.108715
0.229470 0.175090 0.112942
0.243306 0.180284 0.117262
0.257475 0.185582 0.121676
0.271983 0.190985 0.126186
0.286831 0.196493 0.130792
0.302025 0.202107 0.135495
0.317567 0.207827 0.140295
0.333461 0.213654 0.145193
0.349709 0.219587 0.150189
0.366314 0.225628 0.155284
0.388623 0.231775 0.160479
0.413391 0.238029 0.165773
0.437871 0.244390 0.171167
0.462056 0.250859 0.176661
0.485943 0.257434 0.182256
0.509526 0.264116 0.187951
0.532802 0.270904 0.193746
0.555766 0.277798 0.199642
0.069303 0.128693 0.069303
0.079288 0.132820 0.072596
0.089543 0.137043 0.075972
0.100075 0.141364 0.079431
0.110889 0.145783 0.082974
0.121991 0.150301 0.086604
0.133386 0.154919 0.090320
0.145079 0.159638 0.094124
0.157077 0.164459 0.098017
0.169383 0.169383 0.102001
0.182003 0.174410 0.106076
0.194941 0.179541 0.110243
0.208202 0.184777 0.114504
0.221790 0.190118 0.118858
0.235709 0.195565 0.123307
0.249963 0.201119 0.127852
0.264556 0.206779 0.132493
0.279492 0.212546 0.137231
0.294773 0.218420 0.142067
0.310404 0.224402 0.147000
0.326386 0.230492 0.152033
0.342723 0.236689 0.157164
0.359418 0.242995 0.162395
0.376472 0.249409 0.167725
0.397753 0.255930 0.173156
0.422241 0.262559 0.178687
0.446431 0.269296 0.184318
0.470319 0.276141 0.190049
0.493900 0.283092 0.195881
0.517170 0.290150 0.201814
0.540125 0.297314 0.207846
0.562760 0.304584 0.213980
0.585073 0.311959 0.220213
0.080711 0.149878 0.080711
0.091300 0.154430 0.084286
0.102174 0.159084 0.087946
0.113338 0.163840 0.091694
0.124798 0.168698 0.095531
0.136559 0.173660 0.099457
0.148625 0.178726 0.103474
0.161003 0.183898 0.107583
0.173696 0.189174 0.111784
0.186709 0.194557 0.116078
0.200047 0.200047 0.120467
0.213713 0.205644 0.124951
0.227712 0.211349 0.129531
0.242047 0.217161 0.134207
0.256723 0.223082 0.138980
0.271741 0.229111 0.143852
0.287106 0.235249 0.148821
0.302821 0.241496 0.153889
0.318888 0.247852 0.159057
0.335310 0.254317 0.164324
0.352090 0.260890 0.169691
0.369229 0.267573 0.175158
0.386730 0.274363 0.180725
0.407182 0.281263 0.186393
0.431375 0.288270 0.192161
0.455263 0.295385 0.198029
0.478840 0.302607 0.203998
0.502102 0.309935 0.210068
0.525047 0.317370 0.216237
0.547669 0.324910 0.222507
0.569965 0.332555 0.228876
0.591932 0.340305 0.235344
0.613568 0.348157 0.241911
0.093081 0.172848 0.093081
0.104304 0.177847 0.096950
0.115826 0.182951 0.100909
0.127650 0.188161 0.104959
0.139783 0.193477 0.109101
0.152229 0.198900 0.113336
0.164992 0.204431 0.117665
0.178077 0.210071 0.122088
0.191488 0.215819 0.126607
0.205229 0.221675 0.131222
0.219304 0.227641 0.135933
0.233717 0.233717 0.140742
0.248470 0.239902 0.145649
0.263568 0.246197 0.150655
0.279013 0.252601 0.155759
0.294808 0.259116 0.160963
0.310956 0.265740 0.166266
0.327459 0.272475 0.171669
0.344320 0.279318 0.177173
0.361540 0.286271 0.182777
0.379122 0.293333 0.188481
0.397066 0.300504 0.194286
0.416890 0.307783 0.200191
0.440775 0.315169 0.206196
0.464347 0.322662 0.212302
0.487601 0.330262 0.218508
0.510533 0.337968 0.224814
0.533139 0.345779 0.231219
0.555418 0.353694 0.237723
0.577364 0.361713 0.244326
0.598976 0.369833 0.251028
0.620250 0.378055 0.257826
0.641184 0.386378 0.264722
0.106456 0.197686 0.106456
0.118342 0.203149 0.110632
0.130538 0.208720 0.114901
0.143048 0.214400 0.119264
0.155878 0.220190 0.123722
0.169031 0.226089 0.128276
0.182512 0.232099 0.132926
0.196325 0.238219 0.137673
0.210473 0.244450 0.142518
0.224959 0.250792 0.147460
0.239787 0.257244 0.152502
0.254960 0.263808 0.157642
0.270482 0.270482 0.162882
0.286354 0.277267 0.168222
0.302579 0.284162 0.173661
0.319159 0.291168 0.179201
0.336097 0.298283 0.184842
0.353394 0.305508 0.190583
0.371052 0.312843 0.196424
0.389073 0.320286 0.202366
0.407457 0.327837 0.208408
0.426859 0.335496 0.214550
0.450423 0.343261 0.220792
0.473666 0.351133 0.227134
0.496584 0.359110 0.233576
0.519174 0.367191 0.240116
0.541432 0.375376 0.246755
0.563356 0.383663 0.253492
0.584942 0.392051 0.260326
0.606189 0.400539 0.267257
0.627093 0.409127 0.274283
0.647652 0.417812 0.281406
0.667866 0.426593 0.288622
0.120876 0.224463 0.120876
0.133449 0.230404 0.125369
0.146342 0.236457 0.129958
0.159561 0.242620 0.134643
0.173109 0.248896 0.139425
0.186989 0.255283 0.144306
0.201206 0.261782 0.149284
0.215763 0.268392 0.154362
0.230662 0.275115 0.159538
0.245908 0.281949 0.164814
0.261502 0.288895 0.170191
0.277447 0.295952 0.175667
0.293745 0.303121 0.181243
0.310399 0.310399 0.186920
0.327411 0.317788 0.192698
0.344781 0.325287 0.198575
0.362512 0.332895 0.204554
0.380605 0.340611 0.210632
0.399061 0.348436 0.216811
0.417880 0.356367 0.223090
0.437069 0.364405 0.229468
0.460299 0.372548 0.235945
0.483201 0.380795 0.242522
0.505772 0.389146 0.249196
0.528008 0.397600 0.255968
0.549907 0.406154 0.262838
0.571466 0.414809 0.269804
0.592683 0.423562 0.276865
0.613555 0.432412 0.284022
0.634080 0.441359 0.291273
0.654257 0.450400 0.298617
0.674084 0.459535 0.306053
0.693560 0.468761 0.313580
0.136373 0.253240 0.136373
0.149654 0.259671 0.141191
0.163265 0.266215 0.146107
0.177211 0.272872 0.151121
0.191494 0.279642 0.156235
0.206118 0.286524 0.161448
0.221086 0.293519 0.166760
0.236400 0.300627 0.172173
0.252063 0.307846 0.177685
0.268078 0.315178 0.183298
0.284446 0.322620 0.189012
0.301170 0.330173 0.194826
0.318252 0.337837 0.200740
0.335692 0.345610 0.206755
0.353492 0.353492 0.212870
0.371653 0.361482 0.219085
0.390177 0.369580 0.225400
0.409063 0.377784 0.231815
0.428312 0.386093 0.238328
0.447924 0.394507 0.244940
0.470383 0.403024 0.251650
0.492932 0.411644 0.258458
0.515144 0.420365 0.265363
0.537016 0.429186 0.272364
0.558546 0.438105 0.279460
0.579730 0.447121 0.286651
0.600568 0.456233 0.293936
0.621057 0.465438 0.301313
0.641196 0.474737 0.308783
0.660983 0.484126 0.316343
0.680417 0.493605 0.323993
0.699498 0.503171 0.331732
0.718223 0.512822 0.339558
0.152971 0.284063 0.152971
0.166979 0.290993 0.158121
0.181326 0.298036 0.163370
0.196014 0.305192 0.168719
0.211046 0.312462 0.174168
0.226426 0.319844 0.179717
0.242156 0.327339 0.185367
0.258237 0.334946 0.191117
0.274672 0.342664 0.196967
0.291463 0.350492 0.202918
0.308611 0.358431 0.208970
0.326117 0.366479 0.215121
0.343983 0.374635 0.221373
0.362209 0.382899 0.227724
0.380797 0.391270 0.234174
0.399746 0.399746 0.240724
0.419057 0.408326 0.247372
0.438729 0.417010 0.254117
0.458764 0.425796 0.260961
0.480655 0.434684 0.267900
0.502840 0.443670 0.274936
0.524682 0.452755 0.282067
0.546179 0.461937 0.289292
0.567330 0.471213 0.296611
0.588131 0.480584 0.304022
0.608581 0.490046 0.311525
0.628679 0.499599 0.319118
0.648424 0.509240 0.326800
0.667814 0.518875 0.334571
0.686850 0.528279 0.342428
0.705529 0.537584 0.350371
0.723852 0.546791 0.358398
0.741819 0.555897 0.366508
0.170691 0.316968 0.170691
0.185441 0.324401 0.176177
0.200535 0.331946 0.181762
0.215978 0.339605 0.187449
0.231771 0.347377 0.193235
0.247915 0.355260 0.199122
0.264414 0.363254 0.205110
0.281268 0.371358 0.211198
0.298479 0.379572 0.217386
0.316048 0.387895 0.223674
0.333976 0.396326 0.230061
0.352264 0.404863 0.236547
0.370913 0.413506 0.243133
0.389921 0.422253 0.249816
0.409291 0.431104 0.256598
0.429020 0.440057 0.263476
0.449110 0.449110 0.270451
0.469559 0.458263 0.277521
0.491092 0.467513 0.284687
0.512902 0.476860 0.291946
0.534365 0.486302 0.299298
0.555478 0.495836 0.306743
0.576240 0.505434 0.314279
0.596649 0.514956 0.321904
0.616704 0.524385 0.329619
0.636404 0.533719 0.337421
0.655748 0.542957 0.345310
0.674735 0.552097 0.353284
0.693366 0.561137 0.361341
0.711639 0.570076 0.369481
0.729556 0.578913 0.377701
0.747115 0.587647 0.386001
0.764319 0.596276 0.394378
0.189544 0.351976 0.189544
0.205046 0.359913 0.195367
0.220899 0.367961 0.201291
0.237104 0.376121 0.207315
0.253663 0.384392 0.213439
0.270578 0.392773 0.219663
0.287849 0.401262 0.225987
0.305478 0.409860 0.232411
0.323465 0.418564 0.238934
0.341812 0.427374 0.245555
0.360517 0.436288 0.252274
0.379582 0.445305 0.259091
0.399007 0.454425 0.266004
0.418790 0.463644 0.273014
0.438932 0.472963 0.280119
0.459431 0.482379 0.287319
0.480287 0.492044 0.294612
0.501673 0.501673 0.301998
0.523098 0.511214 0.309476
0.544171 0.520664 0.317045
0.564891 0.530022 0.324703
0.585256 0.539287 0.332450
0.605265 0.548456 0.340283
0.624918 0.557527 0.348203
0.644213 0.566501 0.356207
0.663150 0.575375 0.364295
0.681729 0.584147 0.372464
0.699950 0.592818 0.380714
0.717813 0.601385 0.389042
0.735319 0.609847 0.397447
0.752468 0.618203 0.405928
0.769262 0.626453 0.414482
0.785700 0.634595 0.423108
0.209533 0.389096 0.209533
0.225796 0.397533 0.215693
0.242413 0.406080 0.221954
0.259385 0.414737 0.228315
0.276713 0.423501 0.234774
0.294399 0.432372 0.241333
0.312443 0.441349 0.247990
0.330844 0.450430 0.254744
0.349604 0.459615 0.261596
0.368723 0.468932 0.268545
0.388199 0.478738 0.275590
0.408033 0.488463 0.282729
0.428223 0.498103 0.289963
0.448769 0.507658 0.297290
0.469670 0.517124 0.304710
0.490923 0.526502 0.312221
0.512376 0.535788 0.319822
0.533406 0.544982 0.327513
0.554081 0.554081 0.335292
0.574399 0.563084 0.343157
0.594359 0.571990 0.351107
0.613961 0.580798 0.359142
0.633204 0.589505 0.367260
0.652088 0.598111 0.375458
0.670613 0.606615 0.383737
0.688778 0.615015 0.392093
0.706586 0.623311 0.400526
0.724035 0.631501 0.409034
0.741127 0.639584 0.417614
0.757864 0.647560 0.426267
0.774245 0.655427 0.434988
0.790274 0.663186 0.443778
0.805951 0.670835 0.452633
0.230655 0.428318 0.230655
0.247682 0.437250 0.237150
0.265065 0.446289 0.243745
0.282805 0.455664 0.250437
0.300902 0.465548 0.257228
0.319356 0.475355 0.264115
0.338168 0.485083 0.271099
0.357336 0.494730 0.278178
0.376861 0.504294 0.285352
0.396742 0.513772 0.292620
0.416978 0.523165 0.299981
0.437568 0.532468 0.307434
0.458510 0.541682 0.314978
0.479803 0.550804 0.322612
0.501446 0.559833 0.330335
0.523178 0.568767 0.338145
0.543804 0.577605 0.346042
0.564071 0.586345 0.354023
0.583979 0.594986 0.362088
0.603528 0.603528 0.370235
0.622716 0.611967 0.378463
0.641543 0.620305 0.386770
0.660011 0.628538 0.395154
0.678119 0.636667 0.403615
0.695867 0.644691 0.412149
0.713257 0.652608 0.420756
0.730290 0.660418 0.429434
0.746966 0.668120 0.438180
0.763288 0.675714 0.446994
0.779257 0.683198 0.455872
0.794875 0.690573 0.464814
0.810143 0.697837 0.473817
0.825065 0.704990 0.482879
0.252898 0.472185 0.252898
0.270690 0.481912 0.259724
0.288837 0.491560 0.266646
0.307342 0.501129 0.273665
0.326202 0.510616 0.280779
0.345418 0.520018 0.287987
0.364989 0.529335 0.295289
0.384915 0.538565 0.302684
0.405194 0.547705 0.310170
0.425824 0.556755 0.317747
0.446805 0.565713 0.325413
0.468135 0.574577 0.333168
0.489811 0.583346 0.341010
0.511832 0.592018 0.348938
0.534054 0.600592 0.356950
0.554268 0.609068 0.365045
0.574121 0.617442 0.373221
0.593612 0.625716 0.381478
0.612742 0.633887 0.389813
0.631510 0.641954 0.398226
0.649917 0.649917 0.406713
0.667964 0.657775 0.415274
0.685650 0.665526 0.423907
0.702978 0.673171 0.432610
0.719948 0.680708 0.441381
0.736561 0.688136 0.450219
0.752820 0.695456 0.459121
0.768727 0.702667 0.468085
0.784282 0.709768 0.477109
0.799489 0.716759 0.486192
0.814350 0.723640 0.495331
0.828868 0.730410 0.504525
0.843045 0.737069 0.513770
0.276244 0.517069 0.276244
0.294795 0.526395 0.283392
0.313702 0.535636 0.290635
0.332963 0.544791 0.297971
0.352578 0.553858 0.305399
0.372546 0.562835 0.312918
0.392865 0.571721 0.320528
0.413533 0.580514 0.328226
0.434551 0.589213 0.336013
0.455914 0.597817 0.343886
0.477621 0.606323 0.351845
0.499671 0.614732 0.359887
0.522059 0.623041 0.368012
0.544784 0.631250 0.376218
0.564776 0.639357 0.384504
0.584207 0.647362 0.392867
0.603275 0.655263 0.401307
0.621980 0.663060 0.409822
0.640324 0.670752 0.418409
0.658306 0.678338 0.427068
0.675927 0.685817 0.435796
0.693189 0.693189 0.444591
0.710093 0.700454 0.453452
0.726641 0.707610 0.462377
0.742834 0.714657 0.471363
0.758675 0.721596 0.480410
0.774165 0.728425 0.489513
0.789307 0.735145 0.498672
0.804104 0.741754 0.507885
0.818559 0.748254 0.517148
0.832675 0.754645 0.526461
0.846454 0.760925 0.535820
0.859901 0.767096 0.545224
0.300664 0.560141 0.300664
0.319968 0.569044 0.308126
0.339624 0.577858 0.315678
0.359631 0.586579 0.323320
0.379988 0.595208 0.331051
0.400693 0.603742 0.338869
0.421743 0.612180 0.346774
0.443138 0.620521 0.354763
0.464874 0.628764 0.362836
0.486950 0.636907 0.370990
0.509362 0.644949 0.379226
0.532107 0.652891 0.387540
0.555183 0.660729 0.395931
0.575306 0.668465 0.404398
0.594308 0.676096 0.412940
0.612947 0.683622 0.421553
0.631223 0.691043 0.430237
0.649137 0.698358 0.438990
0.666689 0.705565 0.447810
0.683883 0.712666 0.456694
0.700717 0.719659 0.465642
0.717196 0.726544 0.474650
0.733320 0.733320 0.483717
0.749092 0.739988 0.492841
0.764514 0.746547 0.502020
0.779588 0.752997 0.511251
0.794319 0.759339 0.520533
0.808707 0.765571 0.529863
0.822758 0.771695 0.539238
0.836474 0.777710 0.548658
0.849858 0.783616 0.558118
0.862916 0.789414 0.567617
0.875649 0.795105 0.577153
0.326125 0.601330 0.326125
0.346169 0.609794 0.333887
0.366561 0.618163 0.341737
0.387300 0.626436 0.349673
0.408382 0.634611 0.357692
0.429805 0.642688 0.365795
0.451568 0.650665 0.373979
0.473667 0.658542 0.382243
0.496100 0.666317 0.390586
0.518864 0.673990 0.399005
0.541954 0.681560 0.407499
0.565368 0.689025 0.416067
0.585833 0.696386 0.424707
0.604401 0.703642 0.433416
0.622606 0.710793 0.442193
0.640448 0.717836 0.451037
0.657929 0.724773 0.459944
0.675049 0.731603 0.468914
0.691811 0.738326 0.477944
0.708217 0.744941 0.487033
0.724269 0.751448 0.496177
0.739968 0.757848 0.505375
0.755319 0.764139 0.514625
0.770322 0.770322 0.523924
0.784982 0.776398 0.533271
0.799302 0.782365 0.542663
0.813285 0.788226 0.552097
0.826934 0.793978 0.561572
0.840253 0.799624 0.571085
0.853247 0.805163 0.580633
0.865919 0.810596 0.590215
0.878273 0.815923 0.599827
0.890315 0.821145 0.609468
0.352583 0.640584 0.352583
0.373352 0.648593 0.360633
0.394464 0.656504 0.368765
0.415914 0.664316 0.376979
0.437702 0.672027 0.385272
0.459823 0.679636 0.393642
0.482274 0.687143 0.402089
0.505054 0.694548 0.410610
0.528157 0.701848 0.419204
0.551581 0.709045 0.427869
0.575321 0.716136 0.436604
0.596334 0.723122 0.445405
0.614464 0.730002 0.454272
0.632230 0.736777 0.463203
0.649635 0.743444 0.472195
0.666679 0.750005 0.481246
0.683365 0.756459 0.490355
0.699694 0.762807 0.499519
0.715670 0.769047 0.508737
0.731294 0.775180 0.518005
0.746569 0.781206 0.527322
0.761498 0.787125 0.536685
0.776085 0.792938 0.546093
0.790332 0.798644 0.555542
0.804244 0.804244 0.565031
0.817823 0.809738 0.574557
0.831074 0.815127 0.584118
0.844001 0.820411 0.593711
0.856607 0.825591 0.603334
0.868899 0.830667 0.612985
0.880880 0.835640 0.622660
0.892554 0.840510 0.632357
0.903928 0.845279 0.642074
0.379989 0.677859 0.379989
0.401464 0.685404 0.388310
0.423274 0.692848 0.396709
0.445415 0.700190 0.405183
0.467884 0.707429 0.413731
0.490677 0.714565 0.422351
0.513791 0.721597 0.431041
0.537222 0.728524 0.439800
0.560967 0.735347 0.448626
0.585020 0.742064 0.457517
0.606787 0.748676 0.466470
0.624474 0.755182 0.475484
0.641798 0.761582 0.484556
0.658762 0.767875 0.493685
0.675368 0.774063 0.502869
0.691617 0.780145 0.512105
0.707513 0.786120 0.521391
0.723058 0.791990 0.530725
0.738254 0.797753 0.540105
0.753106 0.803412 0.549528
0.767616 0.808964 0.558992
0.781787 0.814413 0.568495
0.795624 0.819756 0.578034
0.809130 0.824996 0.587607
0.822309 0.830132 0.597211
0.835166 0.835166 0.606844
0.847704 0.840097 0.616504
0.859929 0.844926 0.626188
0.871846 0.849655 0.635893
0.883459 0.854284 0.645616
0.894772 0.858814 0.655356
0.905793 0.863245 0.665109
0.916526 0.867579 0.674873
0.408286 0.713130 0.408286
0.430445 0.720205 0.416861
0.452929 0.727176 0.425507
0.475735 0.734044 0.434222
0.498858 0.740807 0.443006
0.522295 0.747467 0.451855
0.546042 0.754021 0.460769
0.570094 0.760471 0.469744
0.594446 0.766816 0.478780
0.617168 0.773055 0.487873
0.634409 0.779189 0.497023
0.651288 0.785218 0.506226
0.667810 0.791142 0.515480
0.683975 0.796960 0.524784
0.699787 0.802674 0.534135
0.715249 0.808283 0.543531
0.730363 0.813788 0.552969
0.745133 0.819188 0.562447
0.759562 0.824486 0.571964
0.773654 0.829680 0.581515
0.787413 0.834771 0.591100
0.800842 0.839760 0.600715
0.813946 0.844648 0.610358
0.826729 0.849436 0.620027
0.839196 0.854123 0.629719
0.851352 0.858711 0.639431
