mini_run_pipeline/luts/clean_log_to_rec709.cube
TITLE "Clean Arri Alexa LogC3 to Rec709 Base Transform"
LUT_3D_SIZE 9
DOMAIN_MIN 0.0 0.0 0.0
DOMAIN_MAX 1.0 1.0 1.0
0.000000 0.000000 0.000000
0.125597 0.000000 0.000000
0.376723 0.000000 0.000000
0.684472 0.000000 0.000000
0.958387 0.000000 0.000000
1.000000 0.000000 0.000000
1.000000 0.000000 0.000000
1.000000 0.000000 0.000000
1.000000 0.000000 0.000000
0.000000 0.125597 0.000000
0.125597 0.125597 0.000000
0.376723 0.125597 0.000000
0.684472 0.125597 0.000000
0.958387 0.125597 0.000000
1.000000 0.125597 0.000000
1.000000 0.125597 0.000000
1.000000 0.125597 0.000000
1.000000 0.125597 0.000000
0.000000 0.376723 0.000000
0.125597 0.376723 0.000000
0.376723 0.376723 0.000000
0.684472 0.376723 0.000000
0.958387 0.376723 0.000000
1.000000 0.376723 0.000000
1.000000 0.376723 0.000000
1.000000 0.376723 0.000000
1.000000 0.376723 0.000000
0.000000 0.684472 0.000000
0.125597 0.684472 0.000000
0.376723 0.684472 0.000000
0.684472 0.684472 0.000000
0.958387 0.684472 0.000000
1.000000 0.684472 0.000000
1.000000 0.684472 0.000000
1.000000 0.684472 0.000000
1.000000 0.684472 0.000000
0.000000 0.958387 0.000000
0.125597 0.958387 0.000000
0.376723 0.958387 0.000000
0.684472 0.958387 0.000000
0.958387 0.958387 0.000000
1.000000 0.958387 0.000000
1.000000 0.958387 0.000000
1.000000 0.958387 0.000000
1.000000 0.958387 0.000000
0.000000 1.000000 0.000000
0.125597 1.000000 0.000000
0.376723 1.000000 0.000000
0.684472 1.000000 0.000000
0.958387 1.000000 0.000000
1.000000 1.000000 0.000000
1.000000 1.000000 0.000000
1.000000 1.000000 0.000000
1.000000 1.000000 0.000000
0.000000 1.000000 0.000000
0.125597 1.000000 0.000000
0.376723 1.000000 0.000000
0.684472 1.000000 0.000000
0.958387 1.000000 0.000000
1.000000 1.000000 0.000000
1.000000 1.000000 0.000000
1.000000 1.000000 0.000000
1.000000 1.000000 0.000000
0.000000 1.000000 0.000000
0.125597 1.000000 0.000000
0.376723 1.000000 0.000000
0.684472 1.000000 0.000000
0.958387 1.000000 0.000000
1.000000 1.000000 0.000000
1.000000 1.000000 0.000000
1.000000 1.000000 0.000000
1.000000 1.000000 0.000000
0.000000 1.000000 0.000000
0.125597 1.000000 0.000000
0.376723 1.000000 0.000000
0.684472 1.000000 0.000000
0.958387 1.000000 0.000000
1.000000 1.000000 0.000000
1.000000 1.000000 0.000000
1.000000 1.000000 0.000000
1.000000 1.000000 0.000000
0.000000 0.000000 0.125597
0.125597 0.000000 0.125597
0.376723 0.000000 0.125597
0.684472 0.000000 0.125597
0.958387 0.000000 0.125597
1.000000 0.000000 0.125597
1.000000 0.000000 0.125597
1.000000 0.000000 0.125597
1.000000 0.000000 0.125597
0.000000 0.125597 0.125597
0.125597 0.125597 0.125597
0.376723 0.125597 0.125597
0.684472 0.125597 0.125597
0.958387 0.125597 0.125597
1.000000 0.125597 0.125597
1.000000 0.125597 0.125597
1.000000 0.125597 0.125597
1.000000 0.125597 0.125597
0.000000 0.376723 0.125597
0.125597 0.376723 0.125597
0.376723 0.376723 0.125597
0.684472 0.376723 0.125597
0.958387 0.376723 0.125597
1.000000 0.376723 0.125597
1.000000 0.376723 0.125597
1.000000 0.376723 0.125597
1.000000 0.376723 0.125597
0.000000 0.684472 0.125597
0.125597 0.684472 0.125597
0.376723 0.684472 0.125597
0.684472 0.684472 0.125597
0.958387 0.684472 0.125597
1.000000 0.684472 0.125597
1.000000 0.684472 0.125597
1.000000 0.684472 0.125597
1.000000 0.684472 0.125597
0.000000 0.958387 0.125597
0.125597 0.958387 0.125597
0.376723 0.958387 0.125597
0.684472 0.958387 0.125597
0.958387 0.958387 0.125597
1.000000 0.958387 0.125597
1.000000 0.958387 0.125597
1.000000 0.958387 0.125597
1.000000 0.958387 0.125597
0.000000 1.000000 0.125597
0.125597 1.000000 0.125597
0.376723 1.000000 0.125597
0.684472 1.000000 0.125597
0.958387 1.000000 0.125597
1.000000 1.000000 0.125597
1.000000 1.000000 0.125597
1.000000 1.000000 0.125597
1.000000 1.000000 0.125597
0.000000 1.000000 0.125597
0.125597 1.000000 0.125597
0.376723 1.000000 0.125597
0.684472 1.000000 0.125597
0.958387 1.000000 0.125597
1.000000 1.000000 0.125597
1.000000 1.000000 0.125597
1.000000 1.000000 0.125597
1.000000 1.000000 0.125597
0.000000 1.000000 0.125597
0.125597 1.000000 0.125597
0.376723 1.000000 0.125597
0.684472 1.000000 0.125597
0.958387 1.000000 0.125597
1.000000 1.000000 0.125597
1.000000 1.000000 0.125597
1.000000 1.000000 0.125597
1.000000 1.000000 0.125597
0.000000 1.000000 0.125597
0.125597 1.000000 0.125597
0.376723 1.000000 0.125597
0.684472 1.000000 0.125597
0.958387 1.000000 0.125597
1.000000 1.000000 0.125597
1.000000 1.000000 0.125597
1.000000 1.000000 0.125597
1.000000 1.000000 0.125597
0.000000 0.000000 0.376723
0.125597 0.000000 0.376723
0.376723 0.000000 0.376723
0.684472 0.000000 0.376723
0.958387 0.000000 0.376723
1.000000 0.000000 0.376723
1.000000 0.000000 0.376723
1.000000 0.000000 0.376723
1.000000 0.000000 0.376723
0.000000 0.125597 0.376723
0.125597 0.125597 0.376723
0.376723 0.125597 0.376723
0.684472 0.125597 0.376723
0.958387 0.125597 0.376723
1.000000 0.125597 0.376723
1.000000 0.125597 0.376723
1.000000 0.125597 0.376723
1.000000 0.125597 0.376723
0.000000 0.376723 0.376723
0.125597 0.376723 0.376723
0.376723 0.376723 0.376723
0.684472 0.376723 0.376723
0.958387 0.376723 0.376723
1.000000 0.376723 0.376723
1.000000 0.376723 0.376723
1.000000 0.376723 0.376723
1.000000 0.376723 0.376723
0.000000 0.684472 0.376723
0.125597 0.684472 0.376723
0.376723 0.684472 0.376723
0.684472 0.684472 0.376723
0.958387 0.684472 0.376723
1.000000 0.684472 0.376723
1.000000 0.684472 0.376723
1.000000 0.684472 0.376723
1.000000 0.684472 0.376723
0.000000 0.958387 0.376723
0.125597 0.958387 0.376723
0.376723 0.958387 0.376723
0.684472 0.958387 0.376723
0.958387 0.958387 0.376723
1.000000 0.958387 0.376723
1.000000 0.958387 0.376723
1.000000 0.958387 0.376723
1.000000 0.958387 0.376723
0.000000 1.000000 0.376723
0.125597 1.000000 0.376723
0.376723 1.000000 0.376723
0.684472 1.000000 0.376723
0.958387 1.000000 0.376723
1.000000 1.000000 0.376723
1.000000 1.000000 0.376723
1.000000 1.000000 0.376723
1.000000 1.000000 0.376723
0.000000 1.000000 0.376723
0.125597 1.000000 0.376723
0.376723 1.000000 0.376723
0.684472 1.000000 0.376723
0.958387 1.000000 0.376723
1.000000 1.000000 0.376723
1.000000 1.000000 0.376723
1.000000 1.000000 0.376723
1.000000 1.000000 0.376723
0.000000 1.000000 0.376723
0.125597 1.000000 0.376723
0.376723 1.000000 0.376723
0.684472 1.000000 0.376723
0.958387 1.000000 0.376723
1.000000 1.000000 0.376723
1.000000 1.000000 0.376723
1.000000 1.000000 0.376723
1.000000 1.000000 0.376723
0.000000 1.000000 0.376723
0.125597 1.000000 0.376723
0.376723 1.000000 0.376723
0.684472 1.000000 0.376723
0.958387 1.000000 0.376723
1.000000 1.000000 0.376723
1.000000 1.000000 0.376723
1.000000 1.000000 0.376723
1.000000 1.000000 0.376723
0.000000 0.000000 0.684472
0.125597 0.000000 0.684472
0.376723 0.000000 0.684472
0.684472 0.000000 0.684472
0.958387 0.000000 0.684472
1.000000 0.000000 0.684472
1.000000 0.000000 0.684472
1.000000 0.000000 0.684472
1.000000 0.000000 0.684472
0.000000 0.125597 0.684472
0.125597 0.125597 0.684472
0.376723 0.125597 0.684472
0.684472 0.125597 0.684472
0.958387 0.125597 0.684472
1.000000 0.125597 0.684472
1.000000 0.125597 0.684472
1.000000 0.125597 0.684472
1.000000 0.125597 0.684472
0.000000 0.376723 0.684472
0.125597 0.376723 0.684472
0.376723 0.376723 0.684472
0.684472 0.376723 0.684472
0.958387 0.376723 0.684472
1.000000 0.376723 0.684472
1.000000 0.376723 0.684472
1.000000 0.376723 0.684472
1.000000 0.376723 0.684472
0.000000 0.684472 0.684472
0.125597 0.684472 0.684472
0.376723 0.684472 0.684472
0.684472 0.684472 0.684472
0.958387 0.684472 0.684472
1.000000 0.684472 0.684472
1.000000 0.684472 0.684472
1.000000 0.684472 0.684472
1.000000 0.684472 0.684472
0.000000 0.958387 0.684472
0.125597 0.958387 0.684472
0.376723 0.958387 0.684472
0.684472 0.958387 0.684472
0.958387 0.958387 0.684472
1.000000 0.958387 0.684472
1.000000 0.958387 0.684472
1.000000 0.958387 0.684472
1.000000 0.958387 0.684472
0.000000 1.000000 0.684472
0.125597 1.000000 0.684472
0.376723 1.000000 0.684472
0.684472 1.000000 0.684472
0.958387 1.000000 0.684472
1.000000 1.000000 0.684472
1.000000 1.000000 0.684472
1.000000 1.000000 0.684472
1.000000 1.000000 0.684472
0.000000 1.000000 0.684472
0.125597 1.000000 0.684472
0.376723 1.000000 0.684472
0.684472 1.000000 0.684472
0.958387 1.000000 0.684472
1.000000 1.000000 0.684472
1.000000 1.000000 0.684472
1.000000 1.000000 0.684472
1.000000 1.000000 0.684472
0.000000 1.000000 0.684472
0.125597 1.000000 0.684472
0.376723 1.000000 0.684472
0.684472 1.000000 0.684472
0.958387 1.000000 0.684472
1.000000 1.000000 0.684472
1.000000 1.000000 0.684472
1.000000 1.000000 0.684472
1.000000 1.000000 0.684472
0.000000 1.000000 0.684472
0.125597 1.000000 0.684472
0.376723 1.000000 0.684472
0.684472 1.000000 0.684472
0.958387 1.000000 0.684472
1.000000 1.000000 0.684472
1.000000 1.000000 0.684472
1.000000 1.000000 0.684472
1.000000 1.000000 0.684472
0.000000 0.000000 0.958387
0.125597 0.000000 0.958387
0.376723 0.000000 0.958387
0.684472 0.000000 0.958387
0.958387 0.000000 0.958387
1.000000 0.000000 0.958387
1.000000 0.000000 0.958387
1.000000 0.000000 0.958387
1.000000 0.000000 0.958387
0.000000 0.125597 0.958387
0.125597 0.125597 0.958387
0.376723 0.125597 0.958387
0.684472 0.125597 0.958387
0.958387 0.125597 0.958387
1.000000 0.125597 0.958387
1.000000 0.125597 0.958387
1.000000 0.125597 0.958387
1.000000 0.125597 0.958387
0.000000 0.376723 0.958387
0.125597 0.376723 0.958387
0.376723 0.376723 0.958387
0.684472 0.376723 0.958387
0.958387 0.376723 0.958387
1.000000 0.376723 0.958387
1.000000 0.376723 0.958387
1.000000 0.376723 0.958387
1.000000 0.376723 0.958387
0.000000 0.684472 0.958387
0.125597 0.684472 0.958387
0.376723 0.684472 0.958387
0.684472 0.684472 0.958387
0.958387 0.684472 0.958387
1.000000 0.684472 0.958387
1.000000 0.684472 0.958387
1.000000 0.684472 0.958387
1.000000 0.684472 0.958387
0.000000 0.958387 0.958387
0.125597 0.958387 0.958387
0.376723 0.958387 0.958387
0.684472 0.958387 0.958387
0.958387 0.958387 0.958387
1.000000 0.958387 0.958387
1.000000 0.958387 0.958387
1.000000 0.958387 0.958387
1.000000 0.958387 0.958387
0.000000 1.000000 0.958387
0.125597 1.000000 0.958387
0.376723 1.000000 0.958387
0.684472 1.000000 0.958387
0.958387 1.000000 0.958387
1.000000 1.000000 0.958387
1.000000 1.000000 0.958387
1.000000 1.000000 0.958387
1.000000 1.000000 0.958387
0.000000 1.000000 0.958387
0.125597 1.000000 0.958387
0.376723 1.000000 0.958387
0.684472 1.000000 0.958387
0.958387 1.000000 0.958387
1.000000 1.000000 0.958387
1.000000 1.000000 0.958387
1.000000 1.000000 0.958387
1.000000 1.000000 0.958387
0.000000 1.000000 0.958387
0.125597 1.000000 0.958387
0.376723 1.000000 0.958387
0.684472 1.000000 0.958387
0.958387 1.000000 0.958387
1.000000 1.000000 0.958387
1.000000 1.000000 0.958387
1.000000 1.000000 0.958387
1.000000 1.000000 0.958387
0.000000 1.000000 0.958387
0.125597 1.000000 0.958387
0.376723 1.000000 0.958387
0.684472 1.000000 0.958387
0.958387 1.000000 0.958387
1.000000 1.000000 0.958387
1.000000 1.000000 0.958387
1.000000 1.000000 0.958387
1.000000 1.000000 0.958387
0.000000 0.000000 1.000000
0.125597 0.000000 1.000000
0.376723 0.000000 1.000000
0.684472 0.000000 1.000000
0.958387 0.000000 1.000000
1.000000 0.000000 1.000000
1.000000 0.000000 1.000000
1.000000 0.000000 1.000000
1.000000 0.000000 1.000000
0.000000 0.125597 1.000000
0.125597 0.125597 1.000000
0.376723 0.125597 1.000000
0.684472 0.125597 1.000000
0.958387 0.125597 1.000000
1.000000 0.125597 1.000000
1.000000 0.125597 1.000000
1.000000 0.125597 1.000000
1.000000 0.125597 1.000000
0.000000 0.376723 1.000000
0.125597 0.376723 1.000000
0.376723 0.376723 1.000000
0.684472 0.376723 1.000000
0.958387 0.376723 1.000000
1.000000 0.376723 1.000000
1.000000 0.376723 1.000000
1.000000 0.376723 1.000000
1.000000 0.376723 1.000000
0.000000 0.684472 1.000000
0.125597 0.684472 1.000000
0.376723 0.684472 1.000000
0.684472 0.684472 1.000000
0.958387 0.684472 1.000000
1.000000 0.684472 1.000000
1.000000 0.684472 1.000000
1.000000 0.684472 1.000000
1.000000 0.684472 1.000000
0.000000 0.958387 1.000000
0.125597 0.958387 1.000000
0.376723 0.958387 1.000000
0.684472 0.958387 1.000000
0.958387 0.958387 1.000000
1.000000 0.958387 1.000000
1.000000 0.958387 1.000000
1.000000 0.958387 1.000000
1.000000 0.958387 1.000000
0.000000 1.000000 1.000000
0.125597 1.000000 1.000000
0.376723 1.000000 1.000000
0.684472 1.000000 1.000000
0.958387 1.000000 1.000000
1.000000 1.000000 1.000000
1.000000 1.000000 1.000000
1.000000 1.000000 1.000000
1.000000 1.000000 1.000000
0.000000 1.000000 1.000000
0.125597 1.000000 1.000000
0.376723 1.000000 1.000000
0.684472 1.000000 1.000000
0.958387 1.000000 1.000000
1.000000 1.000000 1.000000
1.000000 1.000000 1.000000
1.000000 1.000000 1.000000
1.000000 1.000000 1.000000
0.000000 1.000000 1.000000
0.125597 1.000000 1.000000
0.376723 1.000000 1.000000
0.684472 1.000000 1.000000
0.958387 1.000000 1.000000
1.000000 1.000000 1.000000
1.000000 1.000000 1.000000
1.000000 1.000000 1.000000
1.000000 1.000000 1.000000
0.000000 1.000000 1.000000
0.125597 1.000000 1.000000
0.376723 1.000000 1.000000
0.684472 1.000000 1.000000
0.958387 1.000000 1.000000
1.000000 1.000000 1.000000
1.000000 1.000000 1.000000
1.000000 1.000000 1.000000
1.000000 1.000000 1.000000
0.000000 0.000000 1.000000
0.125597 0.000000 1.000000
0.376723 0.000000 1.000000
0.684472 0.000000 1.000000
0.958387 0.000000 1.000000
1.000000 0.000000 1.000000
1.000000 0.000000 1.000000
1.000000 0.000000 1.000000
1.000000 0.000000 1.000000
0.000000 0.125597 1.000000
0.125597 0.125597 1.000000
0.376723 0.125597 1.000000
0.684472 0.125597 1.000000
0.958387 0.125597 1.000000
1.000000 0.125597 1.000000
1.000000 0.125597 1.000000
1.000000 0.125597 1.000000
1.000000 0.125597 1.000000
0.000000 0.376723 1.000000
0.125597 0.376723 1.000000
0.376723 0.376723 1.000000
0.684472 0.376723 1.000000
0.958387 0.376723 1.000000
1.000000 0.376723 1.000000
1.000000 0.376723 1.000000
1.000000 0.376723 1.000000
1.000000 0.376723 1.000000
0.000000 0.684472 1.000000
0.125597 0.684472 1.000000
0.376723 0.684472 1.000000
0.684472 0.684472 1.000000
0.958387 0.684472 1.000000
1.000000 0.684472 1.000000
1.000000 0.684472 1.000000
1.000000 0.684472 1.000000
1.000000 0.684472 1.000000
0.000000 0.958387 1.000000
0.125597 0.958387 1.000000
0.376723 0.958387 1.000000
0.684472 0.958387 1.000000
0.958387 0.958387 1.000000
1.000000 0.958387 1.000000
1.000000 0.958387 1.000000
1.000000 0.958387 1.000000
1.000000 0.958387 1.000000
0.000000 1.000000 1.000000
0.125597 1.000000 1.000000
0.376723 1.000000 1.000000
0.684472 1.000000 1.000000
0.958387 1.000000 1.000000
1.000000 1.000000 1.000000
1.000000 1.000000 1.000000
1.000000 1.000000 1.000000
1.000000 1.000000 1.000000
0.000000 1.000000 1.000000
0.125597 1.000000 1.000000
0.376723 1.000000 1.000000
0.684472 1.000000 1.000000
0.958387 1.000000 1.000000
1.000000 1.000000 1.000000
1.000000 1.000000 1.000000
1.000000 1.000000 1.000000
1.000000 1.000000 1.000000
0.000000 1.000000 1.000000
0.125597 1.000000 1.000000
0.376723 1.000000 1.000000
0.684472 1.000000 1.000000
0.958387 1.000000 1.000000
1.000000 1.000000 1.000000
1.000000 1.000000 1.000000
1.000000 1.000000 1.000000
1.000000 1.000000 1.000000
0.000000 1.000000 1.000000
0.125597 1.000000 1.000000
0.376723 1.000000 1.000000
0.684472 1.000000 1.000000
0.958387 1.000000 1.000000
1.000000 1.000000 1.000000
1.000000 1.000000 1.000000
1.000000 1.000000 1.000000
1.000000 1.000000 1.000000
0.000000 0.000000 1.000000
0.125597 0.000000 1.000000
0.376723 0.000000 1.000000
0.684472 0.000000 1.000000
0.958387 0.000000 1.000000
1.000000 0.000000 1.000000
1.000000 0.000000 1.000000
1.000000 0.000000 1.000000
1.000000 0.000000 1.000000
0.000000 0.125597 1.000000
0.125597 0.125597 1.000000
0.376723 0.125597 1.000000
0.684472 0.125597 1.000000
0.958387 0.125597 1.000000
1.000000 0.125597 1.000000
1.000000 0.125597 1.000000
1.000000 0.125597 1.000000
1.000000 0.125597 1.000000
0.000000 0.376723 1.000000
0.125597 0.376723 1.000000
0.376723 0.376723 1.000000
0.684472 0.376723 1.000000
0.958387 0.376723 1.000000
1.000000 0.376723 1.000000
1.000000 0.376723 1.000000
1.000000 0.376723 1.000000
1.000000 0.376723 1.000000
0.000000 0.684472 1.000000
0.125597 0.684472 1.000000
0.376723 0.684472 1.000000
0.684472 0.684472 1.000000
0.958387 0.684472 1.000000
1.000000 0.684472 1.000000
1.000000 0.684472 1.000000
1.000000 0.684472 1.000000
1.000000 0.684472 1.000000
0.000000 0.958387 1.000000
0.125597 0.958387 1.000000
0.376723 0.958387 1.000000
0.684472 0.958387 1.000000
0.958387 0.958387 1.000000
1.000000 0.958387 1.000000
1.000000 0.958387 1.000000
1.000000 0.958387 1.000000
1.000000 0.958387 1.000000
0.000000 1.000000 1.000000
0.125597 1.000000 1.000000
0.376723 1.000000 1.000000
0.684472 1.000000 1.000000
0.958387 1.000000 1.000000
1.000000 1.000000 1.000000
1.000000 1.000000 1.000000
1.000000 1.000000 1.000000
1.000000 1.000000 1.000000
0.000000 1.000000 1.000000
0.125597 1.000000 1.000000
0.376723 1.000000 1.000000
0.684472 1.000000 1.000000
0.958387 1.000000 1.000000
1.000000 1.000000 1.000000
1.000000 1.000000 1.000000
1.000000 1.000000 1.000000
1.000000 1.000000 1.000000
0.000000 1.000000 1.000000
0.125597 1.000000 1.000000
0.376723 1.000000 1.000000
0.684472 1.000000 1.000000
0.958387 1.000000 1.000000
1.000000 1.000000 1.000000
1.000000 1.000000 1.000000
1.000000 1.000000 1.000000
1.000000 1.000000 1.000000
0.000000 1.000000 1.000000
0.125597 1.000000 1.000000
0.376723 1.000000 1.000000
0.684472 1.000000 1.000000
0.958387 1.000000 1.000000
1.000000 1.000000 1.000000
1.000000 1.000000 1.000000
1.000000 1.000000 1.000000
1.000000 1.000000 1.000000
0.000000 0.000000 1.000000
0.125597 0.000000 1.000000
0.376723 0.000000 1.000000
0.684472 0.000000 1.000000
0.958387 0.000000 1.000000
1.000000 0.000000 1.000000
1.000000 0.000000 1.000000
1.000000 0.000000 1.000000
1.000000 0.000000 1.000000
0.000000 0.125597 1.000000
0.125597 0.125597 1.000000
0.376723 0.125597 1.000000
0.684472 0.125597 1.000000
0.958387 0.125597 1.000000
1.000000 0.125597 1.000000
1.000000 0.125597 1.000000
1.000000 0.125597 1.000000
1.000000 0.125597 1.000000
0.000000 0.376723 1.000000
0.125597 0.376723 1.000000
0.376723 0.376723 1.000000
0.684472 0.376723 1.000000
0.958387 0.376723 1.000000
1.000000 0.376723 1.000000
1.000000 0.376723 1.000000
1.000000 0.376723 1.000000
1.000000 0.376723 1.000000
0.000000 0.684472 1.000000
0.125597 0.684472 1.000000
0.376723 0.684472 1.000000
0.684472 0.684472 1.000000
0.958387 0.684472 1.000000
1.000000 0.684472 1.000000
1.000000 0.684472 1.000000
1.000000 0.684472 1.000000
1.000000 0.684472 1.000000
0.000000 0.958387 1.000000
0.125597 0.958387 1.000000
0.376723 0.958387 1.000000
0.684472 0.958387 1.000000
0.958387 0.958387 1.000000
1.000000 0.958387 1.000000
1.000000 0.958387 1.000000
1.000000 0.958387 1.000000
1.000000 0.958387 1.000000
0.000000 1.000000 1.000000
0.125597 1.000000 1.000000
0.376723 1.000000 1.000000
0.684472 1.000000 1.000000
0.958387 1.000000 1.000000
1.000000 1.000000 1.000000
1.000000 1.000000 1.000000
1.000000 1.000000 1.000000
1.000000 1.000000 1.000000
0.000000 1.000000 1.000000
0.125597 1.000000 1.000000
0.376723 1.000000 1.000000
0.684472 1.000000 1.000000
0.958387 1.000000 1.000000
1.000000 1.000000 1.000000
1.000000 1.000000 1.000000
1.000000 1.000000 1.000000
1.000000 1.000000 1.000000
0.000000 1.000000 1.000000
0.125597 1.000000 1.000000
0.376723 1.000000 1.000000
0.684472 1.000000 1.000000
0.958387 1.000000 1.000000
1.000000 1.000000 1.000000
1.000000 1.000000 1.000000
1.000000 1.000000 1.000000
1.000000 1.000000 1.000000
0.000000 1.000000 1.000000
0.125597 1.000000 1.000000
0.376723 1.000000 1.000000
0.684472 1.000000 1.000000
0.958387 1.000000 1.000000
1.000000 1.000000 1.000000
1.000000 1.000000 1.000000
1.000000 1.000000 1.000000
1.000000 1.000000 1.000000
