mini_run_pipeline/luts/clean_log_to_rec709.cube
TITLE "Clean Arri Alexa LogC3 to Rec709 Base Transform"
LUT_3D_SIZE 33
DOMAIN_MIN 0.0 0.0 0.0
DOMAIN_MAX 1.0 1.0 1.0
0.000000 0.000000 0.000000
0.000000 0.000000 0.000000
0.000000 0.000000 0.000000
0.014952 0.000000 0.000000
0.125597 0.000000 0.000000
0.187464 0.000000 0.000000
0.246021 0.000000 0.000000
0.308897 0.000000 0.000000
0.376723 0.000000 0.000000
0.449380 0.000000 0.000000
0.526023 0.000000 0.000000
0.605101 0.000000 0.000000
0.684472 0.000000 0.000000
0.761670 0.000000 0.000000
0.834276 0.000000 0.000000
0.900289 0.000000 0.000000
0.958387 0.000000 0.000000
1.000000 0.000000 0.000000
1.000000 0.000000 0.000000
1.000000 0.000000 0.000000
1.000000 0.000000 0.000000
1.000000 0.000000 0.000000
1.000000 0.000000 0.000000
1.000000 0.000000 0.000000
1.000000 0.000000 0.000000
1.000000 0.000000 0.000000
1.000000 0.000000 0.000000
1.000000 0.000000 0.000000
1.000000 0.000000 0.000000
1.000000 0.000000 0.000000
1.000000 0.000000 0.000000
1.000000 0.000000 0.000000
1.000000 0.000000 0.000000
0.000000 0.000000 0.000000
0.000000 0.000000 0.000000
0.000000 0.000000 0.000000
0.014952 0.000000 0.000000
0.125597 0.000000 0.000000
0.187464 0.000000 0.000000
0.246021 0.000000 0.000000
0.308897 0.000000 0.000000
0.376723 0.000000 0.000000
0.449380 0.000000 0.000000
0.526023 0.000000 0.000000
0.605101 0.000000 0.000000
0.684472 0.000000 0.000000
0.761670 0.000000 0.000000
0.834276 0.000000 0.000000
0.900289 0.000000 0.000000
0.958387 0.000000 0.000000
1.000000 0.000000 0.000000
1.000000 0.000000 0.000000
1.000000 0.000000 0.000000
1.000000 0.000000 0.000000
1.000000 0.000000 0.000000
1.000000 0.000000 0.000000
1.000000 0.000000 0.000000
1.000000 0.000000 0.000000
1.000000 0.000000 0.000000
1.000000 0.000000 0.000000
1.000000 0.000000 0.000000
1.000000 0.000000 0.000000
1.000000 0.000000 0.000000
1.000000 0.000000 0.000000
1.000000 0.000000 0.000000
1.000000 0.000000 0.000000
0.000000 0.000000 0.000000
0.000000 0.000000 0.000000
0.000000 0.000000 0.000000
0.014952 0.000000 0.000000
0.125597 0.000000 0.000000
0.187464 0.000000 0.000000
0.246021 0.000000 0.000000
0.308897 0.000000 0.000000
0.376723 0.000000 0.000000
0.449380 0.000000 0.000000
0.526023 0.000000 0.000000
0.605101 0.000000 0.000000
0.684472 0.000000 0.000000
0.761670 0.000000 0.000000
0.834276 0.000000 0.000000
0.900289 0.000000 0.000000
0.958387 0.000000 0.000000
1.000000 0.000000 0.000000
1.000000 0.000000 0.000000
1.000000 0.000000 0.000000
1.000000 0.000000 0.000000
1.000000 0.000000 0.000000
1.000000 0.000000 0.000000
1.000000 0.000000 0.000000
1.000000 0.000000 0.000000
1.000000 0.000000 0.000000
1.000000 0.000000 0.000000
1.000000 0.000000 0.000000
1.000000 0.000000 0.000000
1.000000 0.000000 0.000000
1.000000 0.000000 0.000000
1.000000 0.000000 0.000000
1.000000 0.000000 0.000000
0.000000 0.014952 0.000000
0.000000 0.014952 0.000000
0.000000 0.014952 0.000000
0.014952 0.014952 0.000000
0.125597 0.014952 0.000000
0.187464 0.014952 0.000000
0.246021 0.014952 0.000000
0.308897 0.014952 0.000000
0.376723 0.014952 0.000000
0.449380 0.014952 0.000000
0.526023 0.014952 0.000000
0.605101 0.014952 0.000000
0.684472 0.014952 0.000000
0.761670 0.014952 0.000000
0.834276 0.014952 0.000000
0.900289 0.014952 0.000000
0.958387 0.014952 0.000000
1.000000 0.014952 0.000000
1.000000 0.014952 0.000000
1.000000 0.014952 0.000000
1.000000 0.014952 0.000000
1.000000 0.014952 0.000000
1.000000 0.014952 0.000000
1.000000 0.014952 0.000000
1.000000 0.014952 0.000000
1.000000 0.014952 0.000000
1.000000 0.014952 0.000000
1.000000 0.014952 0.000000
1.000000 0.014952 0.000000
1.000000 0.014952 0.000000
1.000000 0.014952 0.000000
1.000000 0.014952 0.000000
1.000000 0.014952 0.000000
0.000000 0.125597 0.000000
0.000000 0.125597 0.000000
0.000000 0.125597 0.000000
0.014952 0.125597 0.000000
0.125597 0.125597 0.000000
0.187464 0.125597 0.000000
0.246021 0.125597 0.000000
0.308897 0.125597 0.000000
0.376723 0.125597 0.000000
0.449380 0.125597 0.000000
0.526023 0.125597 0.000000
0.605101 0.125597 0.000000
0.684472 0.125597 0.000000
0.761670 0.125597 0.000000
0.834276 0.125597 0.000000
0.900289 0.125597 0.000000
0.958387 0.125597 0.000000
1.000000 0.125597 0.000000
1.000000 0.125597 0.000000
1.000000 0.125597 0.000000
1.000000 0.125597 0.000000
1.000000 0.125597 0.000000
1.000000 0.125597 0.000000
1.000000 0.125597 0.000000
1.000000 0.125597 0.000000
1.000000 0.125597 0.000000
1.000000 0.125597 0.000000
1.000000 0.125597 0.000000
1.000000 0.125597 0.000000
1.000000 0.125597 0.000000
1.000000 0.125597 0.000000
1.000000 0.125597 0.000000
1.000000 0.125597 0.000000
0.000000 0.187464 0.000000
0.000000 0.187464 0.000000
0.000000 0.187464 0.000000
0.014952 0.187464 0.000000
0.125597 0.187464 0.000000
0.187464 0.187464 0.000000
0.246021 0.187464 0.000000
0.308897 0.187464 0.000000
0.376723 0.187464 0.000000
0.449380 0.187464 0.000000
0.526023 0.187464 0.000000
0.605101 0.187464 0.000000
0.684472 0.187464 0.000000
0.761670 0.187464 0.000000
0.834276 0.187464 0.000000
0.900289 0.187464 0.000000
0.958387 0.187464 0.000000
1.000000 0.187464 0.000000
1.000000 0.187464 0.000000
1.000000 0.187464 0.000000
1.000000 0.187464 0.000000
1.000000 0.187464 0.000000
1.000000 0.187464 0.000000
1.000000 0.187464 0.000000
1.000000 0.187464 0.000000
1.000000 0.187464 0.000000
1.000000 0.187464 0.000000
1.000000 0.187464 0.000000
1.000000 0.187464 0.000000
1.000000 0.187464 0.000000
1.000000 0.187464 0.000000
1.000000 0.187464 0.000000
1.000000 0.187464 0.000000
0.000000 0.246021 0.000000
0.000000 0.246021 0.000000
0.000000 0.246021 0.000000
0.014952 0.246021 0.000000
0.125597 0.246021 0.000000
0.187464 0.246021 0.000000
0.246021 0.246021 0.000000
0.308897 0.246021 0.000000
0.376723 0.246021 0.000000
0.449380 0.246021 0.000000
0.526023 0.246021 0.000000
0.605101 0.246021 0.000000
0.684472 0.246021 0.000000
0.761670 0.246021 0.000000
0.834276 0.246021 0.000000
0.900289 0.246021 0.000000
0.958387 0.246021 0.000000
1.000000 0.246021 0.000000
1.000000 0.246021 0.000000
1.000000 0.246021 0.000000
1.000000 0.246021 0.000000
1.000000 0.246021 0.000000
1.000000 0.246021 0.000000
1.000000 0.246021 0.000000
1.000000 0.246021 0.000000
1.000000 0.246021 0.000000
1.000000 0.246021 0.000000
1.000000 0.246021 0.000000
1.000000 0.246021 0.000000
1.000000 0.246021 0.000000
1.000000 0.246021 0.000000
1.000000 0.246021 0.000000
1.000000 0.246021 0.000000
0.000000 0.308897 0.000000
0.000000 0.308897 0.000000
0.000000 0.308897 0.000000
0.014952 0.308897 0.000000
0.125597 0.308897 0.000000
0.187464 0.308897 0.000000
0.246021 0.308897 0.000000
0.308897 0.308897 0.000000
0.376723 0.308897 0.000000
0.449380 0.308897 0.000000
0.526023 0.308897 0.000000
0.605101 0.308897 0.000000
0.684472 0.308897 0.000000
0.761670 0.308897 0.000000
0.834276 0.308897 0.000000
0.900289 0.308897 0.000000
0.958387 0.308897 0.000000
1.000000 0.308897 0.000000
1.000000 0.308897 0.000000
1.000000 0.308897 0.000000
1.000000 0.308897 0.000000
1.000000 0.308897 0.000000
1.000000 0.308897 0.000000
1.000000 0.308897 0.000000
1.000000 0.308897 0.000000
1.000000 0.308897 0.000000
1.000000 0.308897 0.000000
1.000000 0.308897 0.000000
1.000000 0.308897 0.000000
1.000000 0.308897 0.000000
1.000000 0.308897 0.000000
1.000000 0.308897 0.000000
1.000000 0.308897 0.000000
0.000000 0.376723 0.000000
0.000000 0.376723 0.000000
0.000000 0.376723 0.000000
0.014952 0.376723 0.000000
0.125597 0.376723 0.000000
0.187464 0.376723 0.000000
0.246021 0.376723 0.000000
0.308897 0.376723 0.000000
0.376723 0.376723 0.000000
0.449380 0.376723 0.000000
0.526023 0.376723 0.000000
0.605101 0.376723 0.000000
0.684472 0.376723 0.000000
0.761670 0.376723 0.000000
0.834276 0.376723 0.000000
0.900289 0.376723 0.000000
0.958387 0.376723 0.000000
1.000000 0.376723 0.000000
1.000000 0.376723 0.000000
1.000000 0.376723 0.000000
1.000000 0.376723 0.000000
1.000000 0.376723 0.000000
1.000000 0.376723 0.000000
1.000000 0.376723 0.000000
1.000000 0.376723 0.000000
1.000000 0.376723 0.000000
1.000000 0.376723 0.000000
1.000000 0.376723 0.000000
1.000000 0.376723 0.000000
1.000000 0.376723 0.000000
1.000000 0.376723 0.000000
1.000000 0.376723 0.000000
1.000000 0.376723 0.000000
0.000000 0.449380 0.000000
0.000000 0.449380 0.000000
0.000000 0.449380 0.000000
0.014952 0.449380 0.000000
0.125597 0.449380 0.000000
0.187464 0.449380 0.000000
0.246021 0.449380 0.000000
0.308897 0.449380 0.000000
0.376723 0.449380 0.000000
0.449380 0.449380 0.000000
0.526023 0.449380 0.000000
0.605101 0.449380 0.000000
0.684472 0.449380 0.000000
0.761670 0.449380 0.000000
0.834276 0.449380 0.000000
0.900289 0.449380 0.000000
0.958387 0.449380 0.000000
1.000000 0.449380 0.000000
1.000000 0.449380 0.000000
1.000000 0.449380 0.000000
1.000000 0.449380 0.000000
1.000000 0.449380 0.000000
1.000000 0.449380 0.000000
1.000000 0.449380 0.000000
1.000000 0.449380 0.000000
1.000000 0.449380 0.000000
1.000000 0.449380 0.000000
1.000000 0.449380 0.000000
1.000000 0.449380 0.000000
1.000000 0.449380 0.000000
1.000000 0.449380 0.000000
1.000000 0.449380 0.000000
1.000000 0.449380 0.000000
0.000000 0.526023 0.000000
0.000000 0.526023 0.000000
0.000000 0.526023 0.000000
0.014952 0.526023 0.000000
0.125597 0.526023 0.000000
0.187464 0.526023 0.000000
0.246021 0.526023 0.000000
0.308897 0.526023 0.000000
0.376723 0.526023 0.000000
0.449380 0.526023 0.000000
0.526023 0.526023 0.000000
0.605101 0.526023 0.000000
0.684472 0.526023 0.000000
0.761670 0.526023 0.000000
0.834276 0.526023 0.000000
0.900289 0.526023 0.000000
0.958387 0.526023 0.000000
1.000000 0.526023 0.000000
1.000000 0.526023 0.000000
1.000000 0.526023 0.000000
1.000000 0.526023 0.000000
1.000000 0.526023 0.000000
1.000000 0.526023 0.000000
1.000000 0.526023 0.000000
1.000000 0.526023 0.000000
1.000000 0.526023 0.000000
1.000000 0.526023 0.000000
1.000000 0.526023 0.000000
1.000000 0.526023 0.000000
1.000000 0.526023 0.000000
1.000000 0.526023 0.000000
1.000000 0.526023 0.000000
1.000000 0.526023 0.000000
0.000000 0.605101 0.000000
0.000000 0.605101 0.000000
0.000000 0.605101 0.000000
0.014952 0.605101 0.000000
0.125597 0.605101 0.000000
0.187464 0.605101 0.000000
0.246021 0.605101 0.000000
0.308897 0.605101 0.000000
0.376723 0.605101 0.000000
0.449380 0.605101 0.000000
0.526023 0.605101 0.000000
0.605101 0.605101 0.000000
0.684472 0.605101 0.000000
0.761670 0.605101 0.000000
0.834276 0.605101 0.000000
0.900289 0.605101 0.000000
0.958387 0.605101 0.000000
1.000000 0.605101 0.000000
1.000000 0.605101 0.000000
1.000000 0.605101 0.000000
1.000000 0.605101 0.000000
1.000000 0.605101 0.000000
1.000000 0.605101 0.000000
1.000000 0.605101 0.000000
1.000000 0.605101 0.000000
1.000000 0.605101 0.000000
1.000000 0.605101 0.000000
1.000000 0.605101 0.000000
1.000000 0.605101 0.000000
1.000000 0.605101 0.000000
1.000000 0.605101 0.000000
1.000000 0.605101 0.000000
1.000000 0.605101 0.000000
0.000000 0.684472 0.000000
0.000000 0.684472 0.000000
0.000000 0.684472 0.000000
0.014952 0.684472 0.000000
0.125597 0.684472 0.000000
0.187464 0.684472 0.000000
0.246021 0.684472 0.000000
0.308897 0.684472 0.000000
0.376723 0.684472 0.000000
0.449380 0.684472 0.000000
0.526023 0.684472 0.000000
0.605101 0.684472 0.000000
0.684472 0.684472 0.000000
0.761670 0.684472 0.000000
0.834276 0.684472 0.000000
0.900289 0.684472 0.000000
0.958387 0.684472 0.000000
1.000000 0.684472 0.000000
1.000000 0.684472 0.000000
1.000000 0.684472 0.000000
1.000000 0.684472 0.000000
1.000000 0.684472 0.000000
1.000000 0.684472 0.000000
1.000000 0.684472 0.000000
1.000000 0.684472 0.000000
1.000000 0.684472 0.000000
1.000000 0.684472 0.000000
1.000000 0.684472 0.000000
1.000000 0.684472 0.000000
1.000000 0.684472 0.000000
1.000000 0.684472 0.000000
1.000000 0.684472 0.000000
1.000000 0.684472 0.000000
0.000000 0.761670 0.000000
0.000000 0.761670 0.000000
0.000000 0.761670 0.000000
0.014952 0.761670 0.000000
0.125597 0.761670 0.000000
0.187464 0.761670 0.000000
0.246021 0.761670 0.000000
0.308897 0.761670 0.000000
0.376723 0.761670 0.000000
0.449380 0.761670 0.000000
0.526023 0.761670 0.000000
0.605101 0.761670 0.000000
0.684472 0.761670 0.000000
0.761670 0.761670 0.000000
0.834276 0.761670 0.000000
0.900289 0.761670 0.000000
0.958387 0.761670 0.000000
1.000000 0.761670 0.000000
1.000000 0.761670 0.000000
1.000000 0.761670 0.000000
1.000000 0.761670 0.000000
1.000000 0.761670 0.000000
1.000000 0.761670 0.000000
1.000000 0.761670 0.000000
1.000000 0.761670 0.000000
1.000000 0.761670 0.000000
1.000000 0.761670 0.000000
1.000000 0.761670 0.000000
1.000000 0.761670 0.000000
1.000000 0.761670 0.000000
1.000000 0.761670 0.000000
1.000000 0.761670 0.000000
1.000000 0.761670 0.000000
0.000000 0.834276 0.000000
0.000000 0.834276 0.000000
0.000000 0.834276 0.000000
0.014952 0.834276 0.000000
0.125597 0.834276 0.000000
0.187464 0.834276 0.000000
0.246021 0.834276 0.000000
0.308897 0.834276 0.000000
0.376723 0.834276 0.000000
0.449380 0.834276 0.000000
0.526023 0.834276 0.000000
0.605101 0.834276 0.000000
0.684472 0.834276 0.000000
0.761670 0.834276 0.000000
0.834276 0.834276 0.000000
0.900289 0.834276 0.000000
0.958387 0.834276 0.000000
1.000000 0.834276 0.000000
1.000000 0.834276 0.000000
1.000000 0.834276 0.000000
1.000000 0.834276 0.000000
1.000000 0.834276 0.000000
1.000000 0.834276 0.000000
1.000000 0.834276 0.000000
1.000000 0.834276 0.000000
1.000000 0.834276 0.000000
1.000000 0.834276 0.000000
1.000000 0.834276 0.000000
1.000000 0.834276 0.000000
1.000000 0.834276 0.000000
1.000000 0.834276 0.000000
1.000000 0.834276 0.000000
1.000000 0.834276 0.000000
0.000000 0.900289 0.000000
0.000000 0.900289 0.000000
0.000000 0.900289 0.000000
0.014952 0.900289 0.000000
0.125597 0.900289 0.000000
0.187464 0.900289 0.000000
0.246021 0.900289 0.000000
0.308897 0.900289 0.000000
0.376723 0.900289 0.000000
0.449380 0.900289 0.000000
0.526023 0.900289 0.000000
0.605101 0.900289 0.000000
0.684472 0.900289 0.000000
0.761670 0.900289 0.000000
0.834276 0.900289 0.000000
0.900289 0.900289 0.000000
0.958387 0.900289 0.000000
1.000000 0.900289 0.000000
1.000000 0.900289 0.000000
1.000000 0.900289 0.000000
1.000000 0.900289 0.000000
1.000000 0.900289 0.000000
1.000000 0.900289 0.000000
1.000000 0.900289 0.000000
1.000000 0.900289 0.000000
1.000000 0.900289 0.000000
1.000000 0.900289 0.000000
1.000000 0.900289 0.000000
1.000000 0.900289 0.000000
1.000000 0.900289 0.000000
1.000000 0.900289 0.000000
1.000000 0.900289 0.000000
1.000000 0.900289 0.000000
0.000000 0.958387 0.000000
0.000000 0.958387 0.000000
0.000000 0.958387 0.000000
0.014952 0.958387 0.000000
0.125597 0.958387 0.000000
0.187464 0.958387 0.000000
0.246021 0.958387 0.000000
0.308897 0.958387 0.000000
0.376723 0.958387 0.000000
0.449380 0.958387 0.000000
0.526023 0.958387 0.000000
0.605101 0.958387 0.000000
0.684472 0.958387 0.000000
0.761670 0.958387 0.000000
0.834276 0.958387 0.000000
0.900289 0.958387 0.000000
0.958387 0.958387 0.000000
1.000000 0.958387 0.000000
1.000000 0.958387 0.000000
1.000000 0.958387 0.000000
1.000000 0.958387 0.000000
1.000000 0.958387 0.000000
1.000000 0.958387 0.000000
1.000000 0.958387 0.000000
1.000000 0.958387 0.000000
1.000000 0.958387 0.000000
1.000000 0.958387 0.000000
1.000000 0.958387 0.000000
1.000000 0.958387 0.000000
1.000000 0.958387 0.000000
1.000000 0.958387 0.000000
1.000000 0.958387 0.000000
1.000000 0.958387 0.000000
0.000000 1.000000 0.000000
0.000000 1.000000 0.000000
0.000000 1.000000 0.000000
0.014952 1.000000 0.000000
0.125597 1.000000 0.000000
0.187464 1.000000 0.000000
0.246021 1.000000 0.000000
0.308897 1.000000 0.000000
0.376723 1.000000 0.000000
0.449380 1.000000 0.000000
0.526023 1.000000 0.000000
0.605101 1.000000 0.000000
0.684472 1.000000 0.000000
0.761670 1.000000 0.000000
0.834276 1.000000 0.000000
0.900289 1.000000 0.000000
0.958387 1.000000 0.000000
1.000000 1.000000 0.000000
1.000000 1.000000 0.000000
1.000000 1.000000 0.000000
1.000000 1.000000 0.000000
1.000000 1.000000 0.000000
1.000000 1.000000 0.000000
1.000000 1.000000 0.000000
1.000000 1.000000 0.000000
1.000000 1.000000 0.000000
1.000000 1.000000 0.000000
1.000000 1.000000 0.000000
1.000000 1.000000 0.000000
1.000000 1.000000 0.000000
1.000000 1.000000 0.000000
1.000000 1.000000 0.000000
1.000000 1.000000 0.000000
0.000000 1.000000 0.000000
0.000000 1.000000 0.000000
0.000000 1.000000 0.000000
0.014952 1.000000 0.000000
0.125597 1.000000 0.000000
0.187464 1.000000 0.000000
0.246021 1.000000 0.000000
0.308897 1.000000 0.000000
0.376723 1.000000 0.000000
0.449380 1.000000 0.000000
0.526023 1.000000 0.000000
0.605101 1.000000 0.000000
0.684472 1.000000 0.000000
0.761670 1.000000 0.000000
0.834276 1.000000 0.000000
0.900289 1.000000 0.000000
0.958387 1.000000 0.000000
1.000000 1.000000 0.000000
1.000000 1.000000 0.000000
1.000000 1.000000 0.000000
1.000000 1.000000 0.000000
1.000000 1.000000 0.000000
1.000000 1.000000 0.000000
1.000000 1.000000 0.000000
1.000000 1.000000 0.000000
1.000000 1.000000 0.000000
1.000000 1.000000 0.000000
1.000000 1.000000 0.000000
1.000000 1.000000 0.000000
1.000000 1.000000 0.000000
1.000000 1.000000 0.000000
1.000000 1.000000 0.000000
1.000000 1.000000 0.000000
0.000000 1.000000 0.000000
0.000000 1.000000 0.000000
0.000000 1.000000 0.000000
0.014952 1.000000 0.000000
0.125597 1.000000 0.000000
0.187464 1.000000 0.000000
0.246021 1.000000 0.000000
0.308897 1.000000 0.000000
0.376723 1.000000 0.000000
0.449380 1.000000 0.000000
0.526023 1.000000 0.000000
0.605101 1.000000 0.000000
0.684472 1.000000 0.000000
0.761670 1.000000 0.000000
0.834276 1.000000 0.000000
0.900289 1.000000 0.000000
0.958387 1.000000 0.000000
1.000000 1.000000 0.000000
1.000000 1.000000 0.000000
1.000000 1.000000 0.000000
1.000000 1.000000 0.000000
1.000000 1.000000 0.000000
1.000000 1.000000 0.000000
1.000000 1.000000 0.000000
1.000000 1.000000 0.000000
1.000000 1.000000 0.000000
1.000000 1.000000 0.000000
1.000000 1.000000 0.000000
1.000000 1.000000 0.000000
1.000000 1.000000 0.000000
1.000000 1.000000 0.000000
1.000000 1.000000 0.000000
1.000000 1.000000 0.000000
0.000000 1.000000 0.000000
0.000000 1.000000 0.000000
0.000000 1.000000 0.000000
0.014952 1.000000 0.000000
0.125597 1.000000 0.000000
0.187464 1.000000 0.000000
0.246021 1.000000 0.000000
0.308897 1.000000 0.000000
0.376723 1.000000 0.000000
0.449380 1.000000 0.000000
0.526023 1.000000 0.000000
0.605101 1.000000 0.000000
0.684472 1.000000 0.000000
0.761670 1.000000 0.000000
0.834276 1.000000 0.000000
0.900289 1.000000 0.000000
0.958387 1.000000 0.000000
1.000000 1.000000 0.000000
1.000000 1.000000 0.000000
1.000000 1.000000 0.000000
1.000000 1.000000 0.000000
1.000000 1.000000 0.000000
1.000000 1.000000 0.000000
1.000000 1.000000 0.000000
1.000000 1.000000 0.000000
1.000000 1.000000 0.000000
1.000000 1.000000 0.000000
1.000000 1.000000 0.000000
1.000000 1.000000 0.000000
1.000000 1.000000 0.000000
1.000000 1.000000 0.000000
1.000000 1.000000 0.000000
1.000000 1.000000 0.000000
0.000000 1.000000 0.000000
0.000000 1.000000 0.000000
0.000000 1.000000 0.000000
0.014952 1.000000 0.000000
0.125597 1.000000 0.000000
0.187464 1.000000 0.000000
0.246021 1.000000 0.000000
0.308897 1.000000 0.000000
0.376723 1.000000 0.000000
0.449380 1.000000 0.000000
0.526023 1.000000 0.000000
0.605101 1.000000 0.000000
0.684472 1.000000 0.000000
0.761670 1.000000 0.000000
0.834276 1.000000 0.000000
0.900289 1.000000 0.000000
0.958387 1.000000 0.000000
1.000000 1.000000 0.000000
1.000000 1.000000 0.000000
1.000000 1.000000 0.000000
1.000000 1.000000 0.000000
1.000000 1.000000 0.000000
1.000000 1.000000 0.000000
1.000000 1.000000 0.000000
1.000000 1.000000 0.000000
1.000000 1.000000 0.000000
1.000000 1.000000 0.000000
1.000000 1.000000 0.000000
1.000000 1.000000 0.000000
1.000000 1.000000 0.000000
1.000000 1.000000 0.000000
1.000000 1.000000 0.000000
1.000000 1.000000 0.000000
0.000000 1.000000 0.000000
0.000000 1.000000 0.000000
0.000000 1.000000 0.000000
0.014952 1.000000 0.000000
0.125597 1.000000 0.000000
0.187464 1.000000 0.000000
0.246021 1.000000 0.000000
0.308897 1.000000 0.000000
0.376723 1.000000 0.000000
0.449380 1.000000 0.000000
0.526023 1.000000 0.000000
0.605101 1.000000 0.000000
0.684472 1.000000 0.000000
0.761670 1.000000 0.000000
0.834276 1.000000 0.000000
0.900289 1.000000 0.000000
0.958387 1.000000 0.000000
1.000000 1.000000 0.000000
1.000000 1.000000 0.000000
1.000000 1.000000 0.000000
1.000000 1.000000 0.000000
1.000000 1.000000 0.000000
1.000000 1.000000 0.000000
1.000000 1.000000 0.000000
1.000000 1.000000 0.000000
1.000000 1.000000 0.000000
1.000000 1.000000 0.000000
1.000000 1.000000 0.000000
1.000000 1.000000 0.000000
1.000000 1.000000 0.000000
1.000000 1.000000 0.000000
1.000000 1.000000 0.000000
1.000000 1.000000 0.000000
0.000000 1.000000 0.000000
0.000000 1.000000 0.000000
0.000000 1.000000 0.000000
0.014952 1.000000 0.000000
0.125597 1.000000 0.000000
0.187464 1.000000 0.000000
0.246021 1.000000 0.000000
0.308897 1.000000 0.000000
0.376723 1.000000 0.000000
0.449380 1.000000 0.000000
0.526023 1.000000 0.000000
0.605101 1.000000 0.000000
0.684472 1.000000 0.000000
0.761670 1.000000 0.000000
0.834276 1.000000 0.000000
0.900289 1.000000 0.000000
0.958387 1.000000 0.000000
1.000000 1.000000 0.000000
1.000000 1.000000 0.000000
1.000000 1.000000 0.000000
1.000000 1.000000 0.000000
1.000000 1.000000 0.000000
1.000000 1.000000 0.000000
1.000000 1.000000 0.000000
1.000000 1.000000 0.000000
1.000000 1.000000 0.000000
1.000000 1.000000 0.000000
1.000000 1.000000 0.000000
1.000000 1.000000 0.000000
1.000000 1.000000 0.000000
1.000000 1.000000 0.000000
1.000000 1.000000 0.000000
1.000000 1.000000 0.000000
0.000000 1.000000 0.000000
0.000000 1.000000 0.000000
0.000000 1.000000 0.000000
0.014952 1.000000 0.000000
0.125597 1.000000 0.000000
0.187464 1.000000 0.000000
0.246021 1.000000 0.000000
0.308897 1.000000 0.000000
0.376723 1.000000 0.000000
0.449380 1.000000 0.000000
0.526023 1.000000 0.000000
0.605101 1.000000 0.000000
0.684472 1.000000 0.000000
0.761670 1.000000 0.000000
0.834276 1.000000 0.000000
0.900289 1.000000 0.000000
0.958387 1.000000 0.000000
1.000000 1.000000 0.000000
1.000000 1.000000 0.000000
1.000000 1.000000 0.000000
1.000000 1.000000 0.000000
1.000000 1.000000 0.000000
1.000000 1.000000 0.000000
1.000000 1.000000 0.000000
1.000000 1.000000 0.000000
1.000000 1.000000 0.000000
1.000000 1.000000 0.000000
1.000000 1.000000 0.000000
1.000000 1.000000 0.000000
1.000000 1.000000 0.000000
1.000000 1.000000 0.000000
1.000000 1.000000 0.000000
1.000000 1.000000 0.000000
0.000000 1.000000 0.000000
0.000000 1.000000 0.000000
0.000000 1.000000 0.000000
0.014952 1.000000 0.000000
0.125597 1.000000 0.000000
0.187464 1.000000 0.000000
0.246021 1.000000 0.000000
0.308897 1.000000 0.000000
0.376723 1.000000 0.000000
0.449380 1.000000 0.000000
0.526023 1.000000 0.000000
0.605101 1.000000 0.000000
0.684472 1.000000 0.000000
0.761670 1.000000 0.000000
0.834276 1.000000 0.000000
0.900289 1.000000 0.000000
0.958387 1.000000 0.000000
1.000000 1.000000 0.000000
1.000000 1.000000 0.000000
1.000000 1.000000 0.000000
1.000000 1.000000 0.000000
1.000000 1.000000 0.000000
1.000000 1.000000 0.000000
1.000000 1.000000 0.000000
1.000000 1.000000 0.000000
1.000000 1.000000 0.000000
1.000000 1.000000 0.000000
1.000000 1.000000 0.000000
1.000000 1.000000 0.000000
1.000000 1.000000 0.000000
1.000000 1.000000 0.000000
1.000000 1.000000 0.000000
1.000000 1.000000 0.000000
0.000000 1.000000 0.000000
0.000000 1.000000 0.000000
0.000000 1.000000 0.000000
0.014952 1.000000 0.000000
0.125597 1.000000 0.000000
0.187464 1.000000 0.000000
0.246021 1.000000 0.000000
0.308897 1.000000 0.000000
0.376723 1.000000 0.000000
0.449380 1.000000 0.000000
0.526023 1.000000 0.000000
0.605101 1.000000 0.000000
0.684472 1.000000 0.000000
0.761670 1.000000 0.000000
0.834276 1.000000 0.000000
0.900289 1.000000 0.000000
0.958387 1.000000 0.000000
1.000000 1.000000 0.000000
1.000000 1.000000 0.000000
1.000000 1.000000 0.000000
1.000000 1.000000 0.000000
1.000000 1.000000 0.000000
1.000000 1.000000 0.000000
1.000000 1.000000 0.000000
1.000000 1.000000 0.000000
1.000000 1.000000 0.000000
