mini_run_pipeline/luts/fuji_3513_print.cube
TITLE "Fujifilm 3513 Print Stock Emulation"
LUT_3D_SIZE 5
DOMAIN_MIN 0.0 0.0 0.0
DOMAIN_MAX 1.0 1.0 1.0
0.000000 0.000000 0.000000
0.131546 0.000000 0.023064
0.337329 0.000000 0.017286
0.569474 0.000000 0.011747
0.820756 0.000000 0.006935
0.000000 0.198523 0.089890
0.206167 0.211020 0.005436
0.441072 0.221504 0.002168
0.690967 0.230422 0.000334
0.952081 0.238020 0.000000
0.000000 0.466663 0.080060
0.220490 0.480979 0.040000
0.493028 0.493028 0.000000
0.754447 0.502965 0.000000
1.000000 0.510893 0.000000
0.000000 0.759119 0.080000
0.229980 0.769941 0.053333
0.505249 0.777873 0.026667
0.783192 0.782688 0.000171
1.000000 0.782453 0.001731
0.000000 1.000000 0.080557
0.235414 1.000000 0.062671
0.510758 1.000000 0.046126
0.783263 1.000000 0.030601
1.000000 1.000000 0.015666
0.000000 0.000000 0.149503
0.142865 0.000000 0.182834
0.351627 0.000000 0.198016
0.585620 0.000000 0.208198
0.838024 0.000000 0.216273
0.000000 0.203035 0.211298
0.211046 0.214778 0.218957
0.448159 0.224693 0.226067
0.699360 0.233141 0.233213
0.961314 0.240329 0.240329
0.000000 0.471792 0.275896
0.222658 0.485316 0.282658
0.496633 0.496633 0.248317
0.758818 0.505879 0.252939
1.000000 0.513141 0.256570
0.000000 0.763123 0.307708
0.230985 0.772956 0.310985
0.506612 0.779918 0.286639
0.784757 0.783208 0.261871
1.000000 0.781180 0.264375
0.000000 1.000000 0.322720
0.236746 1.000000 0.325397
0.511853 1.000000 0.308329
0.783160 1.000000 0.291085
1.000000 0.994569 0.272985
0.000000 0.000000 0.306197
0.152657 0.000000 0.358642
0.364712 0.000000 0.390198
0.600681 0.000000 0.413816
0.854249 0.000000 0.433294
0.000000 0.207261 0.421271
0.215586 0.218327 0.439726
0.454755 0.227714 0.456182
0.707148 0.235716 0.471432
0.970025 0.242506 0.485012
0.000000 0.476643 0.476643
0.244699 0.489399 0.489399
0.500000 0.500000 0.500000
0.762846 0.508564 0.508564
1.000000 0.515167 0.515167
0.000000 0.766788 0.537858
0.245213 0.775640 0.543760
0.507776 0.781615 0.547771
0.786245 0.783107 0.524260
1.000000 0.779323 0.527026
0.000000 1.000000 0.565327
0.248161 1.000000 0.567876
0.512846 1.000000 0.569545
0.782697 1.000000 0.549738
1.000000 0.985957 0.527310
0.000000 0.000000 0.481130
0.161410 0.000000 0.547420
0.376799 0.000000 0.592448
0.614776 0.000000 0.627751
0.869505 0.000000 0.657380
0.000000 0.211234 0.639065
0.219792 0.221685 0.667175
0.460872 0.230576 0.692044
0.714455 0.238152 0.714455
0.978226 0.244557 0.733670
0.000000 0.481226 0.721840
0.246617 0.493234 0.739851
0.503132 0.503132 0.754698
0.766535 0.511023 0.766535
1.000000 0.516972 0.775458
0.000000 0.770117 0.770117
0.259332 0.777995 0.777995
0.522271 0.782733 0.783213
0.787643 0.782398 0.786998
1.000000 0.776897 0.789333
0.000000 1.000000 0.808034
0.259639 1.000000 0.809747
0.523704 1.000000 0.809378
0.781798 1.000000 0.806066
1.000000 0.976385 0.777726
0.000000 0.000000 0.669798
0.169385 0.000000 0.747227
0.388036 0.000000 0.803702
0.627994 0.000000 0.849281
0.883849 0.000000 0.887981
0.000000 0.214980 0.864033
0.223672 0.224865 0.900793
0.466519 0.233288 0.933214
0.721358 0.240453 0.961810
0.985931 0.246483 0.985931
0.000000 0.485549 0.971098
0.248413 0.496826 0.993652
0.506033 0.506033 1.000000
0.769888 0.513259 1.000000
1.000000 0.518557 1.000000
0.000000 0.773113 1.000000
0.260007 0.780022 1.000000
0.523477 0.783219 1.000000
0.788936 0.781092 1.000000
1.000000 0.773914 1.000000
0.005141 1.000000 1.000000
0.271160 1.000000 1.000000
0.534388 1.000000 1.000000
0.790360 0.994113 1.000000
1.000000 1.000000 1.000000
