mini_run_pipeline/luts/fuji_3513_print.cube
TITLE "Fujifilm 3513 Print Stock Emulation"
LUT_3D_SIZE 9
DOMAIN_MIN 0.0 0.0 0.0
DOMAIN_MAX 1.0 1.0 1.0
0.000000 0.000000 0.000000
0.043186 0.000000 0.025793
0.131546 0.000000 0.023064
0.230476 0.000000 0.020185
0.337329 0.000000 0.017286
0.450655 0.000000 0.014452
0.569474 0.000000 0.011747
0.693044 0.000000 0.009226
0.820756 0.000000 0.006935
0.000000 0.084906 0.099126
0.075413 0.089916 0.016243
0.176404 0.094206 0.013449
0.284312 0.097987 0.010805
0.398046 0.101378 0.008363
0.516777 0.104457 0.006167
0.639835 0.107272 0.004255
0.766648 0.109861 0.002663
0.896712 0.112247 0.001420
0.000000 0.198523 0.089890
0.075806 0.205064 0.047533
0.206167 0.211020 0.005436
0.321472 0.216479 0.003637
0.441072 0.221504 0.002168
0.564404 0.226140 0.001059
0.690967 0.230422 0.000334
0.820300 0.234375 0.000015
0.952081 0.238020 0.000000
0.000000 0.327534 0.083062
0.083414 0.334852 0.055055
0.213736 0.341608 0.027416
0.347695 0.347847 0.000170
0.471474 0.353605 0.000000
0.598185 0.358911 0.000000
0.727571 0.363786 0.000000
0.859242 0.368247 0.000000
0.992821 0.372308 0.000000
0.000000 0.466663 0.080060
0.088529 0.474117 0.060000
0.220490 0.480979 0.040000
0.355457 0.487276 0.020000
0.493028 0.493028 0.000000
0.622816 0.498253 0.000000
0.754447 0.502965 0.000000
0.887557 0.507175 0.000000
1.000000 0.510893 0.000000
0.000000 0.611790 0.080000
0.091748 0.618738 0.064000
0.226014 0.625034 0.048000
0.362416 0.630694 0.032000
0.500585 0.635732 0.016000
0.640157 0.640157 0.000000
0.772774 0.643978 0.000000
0.906082 0.647201 0.000000
1.000000 0.649831 0.000000
0.000000 0.759119 0.080000
0.094149 0.764896 0.066667
0.229980 0.769941 0.053333
0.367132 0.774265 0.040000
0.505249 0.777873 0.026667
0.643975 0.780770 0.013333
0.783192 0.782688 0.000171
0.916210 0.783237 0.000756
1.000000 0.782453 0.001731
0.000000 0.904938 0.080000
0.095549 0.908845 0.068571
0.231998 0.911902 0.057157
0.369392 0.913642 0.046051
0.507513 0.913904 0.035353
0.645965 0.912729 0.025035
0.784339 0.910154 0.015066
0.922208 0.906222 0.005411
1.000000 0.900971 0.007456
0.000000 1.000000 0.080557
0.097794 1.000000 0.071429
0.235414 1.000000 0.062671
0.373210 1.000000 0.054249
0.510758 1.000000 0.046126
0.647606 1.000000 0.038260
0.783263 1.000000 0.030601
0.917180 1.000000 0.023092
1.000000 1.000000 0.015666
0.000000 0.000000 0.081312
0.047915 0.000000 0.095038
0.137443 0.000000 0.100680
0.237173 0.000000 0.103969
0.344647 0.000000 0.106116
0.458471 0.000000 0.107623
0.577692 0.000000 0.108767
0.701577 0.000000 0.109719
0.829526 0.000000 0.110602
0.000000 0.086707 0.104849
0.077797 0.091440 0.106721
0.179891 0.095540 0.108071
0.288648 0.099178 0.109129
0.403049 0.102456 0.110044
0.522305 0.105440 0.110924
0.645770 0.108176 0.111852
0.772886 0.110693 0.112893
0.903158 0.113016 0.114097
0.000000 0.200817 0.149472
0.077512 0.207147 0.150363
0.208650 0.212926 0.111253
0.324580 0.218232 0.112215
0.444678 0.223120 0.113310
0.568395 0.227632 0.114585
0.695240 0.231800 0.116079
0.824763 0.235647 0.117823
0.956764 0.239191 0.119595
0.000000 0.330086 0.165929
0.084531 0.337207 0.167084
0.215402 0.343782 0.141768
0.349796 0.349855 0.116684
0.473942 0.355457 0.118486
0.601023 0.360614 0.120205
0.730692 0.365346 0.121782
0.862563 0.369670 0.123223
0.996262 0.373598 0.124533
0.000000 0.469263 0.177324
0.089128 0.476513 0.179128
0.221590 0.483180 0.160795
0.356967 0.489289 0.142322
0.494860 0.494860 0.123715
0.624887 0.499910 0.124977
0.756676 0.504450 0.126113
0.889862 0.508493 0.127123
1.000000 0.512045 0.128011
0.000000 0.614223 0.186845
0.092190 0.620948 0.188190
0.226811 0.627027 0.173405
0.363484 0.632474 0.158495
0.501842 0.637303 0.143461
0.641522 0.641522 0.128304
0.774167 0.645139 0.129028
0.907425 0.648161 0.129632
1.000000 0.650590 0.130118
0.000000 0.761164 0.193527
0.094448 0.766691 0.194448
0.230497 0.771490 0.181915
0.367785 0.775570 0.169262
0.505958 0.778936 0.156489
0.644677 0.781575 0.143610
0.783983 0.783026 0.130914
0.917002 0.783119 0.131841
1.000000 0.781890 0.133031
0.000000 0.906358 0.198051
0.095712 0.909983 0.198569
0.232328 0.912660 0.187617
0.369917 0.913895 0.176934
0.508140 0.913664 0.166531
0.646597 0.912009 0.156380
0.784875 0.908969 0.146444
0.922539 0.904584 0.136685
1.000000 0.898894 0.138483
0.000000 1.000000 0.201562
0.098342 1.000000 0.202683
0.236068 1.000000 0.194043
0.373871 1.000000 0.185605
0.511317 1.000000 0.177327
0.647946 1.000000 0.169159
0.783253 1.000000 0.161044
0.916661 1.000000 0.152907
1.000000 0.998579 0.144656
0.000000 0.000000 0.149503
0.052003 0.000000 0.170765
0.142865 0.000000 0.182834
0.243483 0.000000 0.191375
0.351627 0.000000 0.198016
0.465980 0.000000 0.203488
0.585620 0.000000 0.208198
0.709832 0.000000 0.212401
0.838024 0.000000 0.216273
0.000000 0.088401 0.193964
0.080097 0.092893 0.200117
0.183254 0.096821 0.205275
0.292838 0.100327 0.209777
0.407890 0.103500 0.213842
0.527660 0.106395 0.217626
0.651521 0.109054 0.221244
0.778930 0.111503 0.224784
0.909401 0.113763 0.228314
0.000000 0.203035 0.211298
0.099157 0.209167 0.215245
0.211046 0.214778 0.218957
0.327582 0.219936 0.222538
0.448159 0.224693 0.226067
0.572245 0.229085 0.229609
0.699360 0.233141 0.233213
0.829092 0.236883 0.236883
0.961314 0.240329 0.240329
0.000000 0.332568 0.250492
0.098923 0.339499 0.254019
0.216988 0.345899 0.257578
0.351800 0.351809 0.234549
0.476342 0.357257 0.238171
0.603779 0.362268 0.241512
0.733719 0.366860 0.244573
0.865778 0.371048 0.247365
0.999585 0.374844 0.249896
0.000000 0.471792 0.275896
0.099710 0.478841 0.279420
0.222658 0.485316 0.282658
0.358430 0.491241 0.265620
0.496633 0.496633 0.248317
0.626885 0.501508 0.250754
0.758818 0.505879 0.252939
0.892069 0.509753 0.254877
1.000000 0.513141 0.256570
0.000000 0.616581 0.294632
0.100617 0.623084 0.297234
0.227579 0.628947 0.299579
0.364510 0.634183 0.285673
0.503043 0.638803 0.271521
0.642818 0.642818 0.257127
0.775479 0.646232 0.258493
0.908673 0.649052 0.259621
1.000000 0.651266 0.260521
0.000000 0.763123 0.307708
0.101400 0.768402 0.309467
0.230985 0.772956 0.310985
0.368397 0.776793 0.298931
0.506612 0.779918 0.286639
0.645375 0.782223 0.274182
0.784757 0.783208 0.261871
0.917757 0.782847 0.263057
1.000000 0.781180 0.264375
0.000000 0.907682 0.316480
0.101575 0.911027 0.317436
0.232697 0.913246 0.318343
0.370464 0.913979 0.308000
0.508770 0.913260 0.297809
0.647212 0.911130 0.287738
0.785372 0.907629 0.277748
0.922808 0.902797 0.267794
1.000000 0.896671 0.269250
0.000000 1.000000 0.322720
0.103932 1.000000 0.324006
0.236746 1.000000 0.325397
0.374533 1.000000 0.316854
0.511853 1.000000 0.308329
0.648237 1.000000 0.299763
0.783160 1.000000 0.291085
0.916015 1.000000 0.282203
1.000000 0.994569 0.272985
0.000000 0.000000 0.225116
0.055671 0.000000 0.251659
0.147914 0.000000 0.268962
0.249461 0.000000 0.282079
0.358306 0.000000 0.292771
0.473207 0.000000 0.301888
0.593278 0.000000 0.309918
0.717824 0.000000 0.317172
0.846262 0.000000 0.323863
0.000000 0.090002 0.286196
0.082319 0.094281 0.296242
0.186503 0.098054 0.304919
0.296889 0.101439 0.312636
0.412576 0.104512 0.319664
0.532846 0.107323 0.326192
0.657092 0.109908 0.332359
0.784784 0.112291 0.338271
0.915445 0.114491 0.344012
0.000000 0.205181 0.315263
0.100743 0.211127 0.322090
0.213358 0.216578 0.328472
0.330478 0.221595 0.334536
0.451517 0.226224 0.340378
0.575958 0.230499 0.346073
0.703328 0.234446 0.351682
0.833301 0.238086 0.357129
0.965734 0.241433 0.362150
0.000000 0.334984 0.336684
0.113254 0.341730 0.342465
0.231827 0.347959 0.348122
0.353709 0.353709 0.353709
0.478675 0.359007 0.359007
0.606455 0.363873 0.363873
0.736653 0.368327 0.368327
0.868888 0.372381 0.372381
1.000000 0.376046 0.376046
0.000000 0.474252 0.375689
0.110276 0.481103 0.380827
0.233694 0.487389 0.385542
0.359848 0.493131 0.389848
0.498346 0.498346 0.373760
0.628811 0.503049 0.377286
0.760874 0.507250 0.380437
0.894177 0.510958 0.383219
1.000000 0.514181 0.385636
0.000000 0.618862 0.403317
0.109029 0.625146 0.407088
0.236318 0.630795 0.410477
0.365492 0.635820 0.413492
0.504187 0.640234 0.400141
0.644044 0.644044 0.386427
0.776708 0.647256 0.388354
0.909825 0.649875 0.389925
1.000000 0.651801 0.391206
0.000000 0.764997 0.422499
0.108338 0.770029 0.425014
0.238113 0.774339 0.427169
0.368967 0.777934 0.428967
0.507212 0.780818 0.417076
0.646071 0.782711 0.405008
0.785511 0.783235 0.393001
0.918475 0.782425 0.394361
1.000000 0.780323 0.395721
0.000000 0.908910 0.435247
0.107447 0.911948 0.436577
0.238819 0.913660 0.437866
0.371031 0.913895 0.439208
0.509401 0.912693 0.429144
0.647809 0.910092 0.419066
0.785828 0.906135 0.408933
0.923010 0.900860 0.398691
1.000000 0.894302 0.399707
0.000000 1.000000 0.443989
0.109564 1.000000 0.445354
0.242444 1.000000 0.446690
0.375193 1.000000 0.447952
0.512365 1.000000 0.439085
0.648474 1.000000 0.430020
0.782978 1.000000 0.420670
0.915230 1.000000 0.410915
1.000000 0.990367 0.400569
0.000000 0.000000 0.306197
0.059037 0.000000 0.336909
0.152657 0.000000 0.358642
0.255152 0.000000 0.375818
0.364712 0.000000 0.390198
0.480172 0.000000 0.402686
0.600681 0.000000 0.413816
0.725564 0.000000 0.423939
0.854249 0.000000 0.433294
0.000000 0.091523 0.381318
0.084468 0.095612 0.394930
0.189641 0.099242 0.406874
0.300807 0.102515 0.417604
0.417113 0.105494 0.427423
0.537869 0.108225 0.436545
0.662488 0.110738 0.445129
0.790452 0.113057 0.453294
0.921293 0.115199 0.461134
0.000000 0.207261 0.421271
0.102269 0.213030 0.430815
0.215586 0.218327 0.439726
0.333270 0.223208 0.448145
0.454755 0.227714 0.456182
0.579535 0.231875 0.463923
0.707148 0.235716 0.471432
0.837392 0.239255 0.478510
0.970025 0.242506 0.485012
0.000000 0.337335 0.451110
0.114191 0.343901 0.459030
0.233255 0.349964 0.466681
0.355558 0.355558 0.474077
0.480942 0.360707 0.480942
0.609052 0.365431 0.487242
0.739495 0.369748 0.492997
0.871893 0.373669 0.498225
1.000000 0.377205 0.502940
0.000000 0.476643 0.476643
0.120825 0.483300 0.483300
0.244699 0.489399 0.489399
0.371220 0.494960 0.494960
0.500000 0.500000 0.500000
0.630664 0.504531 0.504531
0.762846 0.508564 0.508564
0.896187 0.512107 0.512107
1.000000 0.515167 0.515167
0.000000 0.621068 0.512855
0.117427 0.627135 0.517708
0.245028 0.632571 0.522056
0.374433 0.637388 0.525910
0.505276 0.641596 0.529276
0.645202 0.645202 0.516161
0.777855 0.648212 0.518570
0.910882 0.650630 0.520504
1.000000 0.652189 0.522135
0.000000 0.766788 0.537858
0.115262 0.771573 0.541049
0.245213 0.775640 0.543760
0.376163 0.778993 0.545995
0.507776 0.781615 0.547771
0.646765 0.783041 0.536048
0.786245 0.783107 0.524260
0.919153 0.781854 0.525709
1.000000 0.779323 0.527026
0.000000 0.910044 0.554311
0.113372 0.912697 0.555982
0.244978 0.913904 0.557572
0.377331 0.913646 0.559086
0.510032 0.911964 0.560492
0.648383 0.908899 0.550321
0.786239 0.904489 0.539953
0.923141 0.898775 0.529330
1.000000 0.891788 0.529804
0.000000 1.000000 0.565327
0.115234 1.000000 0.566684
0.248161 1.000000 0.567876
0.380850 1.000000 0.568851
0.512846 1.000000 0.569545
0.648651 1.000000 0.559877
0.782697 1.000000 0.549738
0.914289 0.998362 0.538971
1.000000 0.985957 0.527310
0.000000 0.000000 0.391743
0.062175 0.000000 0.425958
0.157144 0.000000 0.451549
0.260589 0.000000 0.472375
0.370870 0.000000 0.490137
0.486893 0.000000 0.505756
0.607843 0.000000 0.519792
0.733063 0.000000 0.532616
0.861994 0.000000 0.544490
0.000000 0.092971 0.479137
0.086547 0.096890 0.496036
0.192676 0.100390 0.511026
0.304597 0.103557 0.524585
0.421504 0.106447 0.537038
0.542732 0.109101 0.548616
0.667712 0.111547 0.559490
0.795938 0.113804 0.569793
0.926948 0.115889 0.579625
0.000000 0.209277 0.529233
0.103737 0.214879 0.541344
0.217730 0.220029 0.552648
0.335959 0.224779 0.563302
0.457872 0.229164 0.573422
0.582976 0.233215 0.583104
0.710853 0.236951 0.592377
0.841367 0.240391 0.600976
0.974188 0.243547 0.608868
0.000000 0.339624 0.567042
0.115068 0.346015 0.576994
0.234603 0.351915 0.586534
0.357355 0.357355 0.595592
0.483144 0.362358 0.603930
0.611570 0.366942 0.611570
0.742246 0.371123 0.618538
0.874795 0.374912 0.624854
1.000000 0.378320 0.630533
0.000000 0.478968 0.598710
0.121358 0.485433 0.606791
0.245673 0.491347 0.614184
0.372547 0.496730 0.620912
0.501595 0.501595 0.626994
0.632445 0.505956 0.632445
0.764733 0.509822 0.637277
0.898100 0.513200 0.641500
1.000000 0.516097 0.645121
0.000000 0.623200 0.623200
0.125810 0.629051 0.629051
0.253710 0.634275 0.634275
0.383331 0.638885 0.638885
0.514310 0.642887 0.642887
0.646291 0.646291 0.646291
0.778919 0.649100 0.649100
0.911859 0.651299 0.651328
1.000000 0.652433 0.653265
0.000000 0.768494 0.653745
0.122172 0.773035 0.657529
0.252286 0.776858 0.660715
0.383318 0.779970 0.663308
0.515018 0.782254 0.665386
0.647454 0.783214 0.667259
0.786956 0.782828 0.655606
0.919788 0.781136 0.657060
1.000000 0.778180 0.658245
0.000000 0.911082 0.673630
0.119350 0.913273 0.675612
0.251172 0.913978 0.677419
0.383647 0.913233 0.679021
0.516373 0.911076 0.680382
0.648933 0.907550 0.681457
0.786602 0.902693 0.670763
0.923196 0.896543 0.659660
1.000000 0.889129 0.659488
0.000000 1.000000 0.686689
0.120941 1.000000 0.687952
0.253893 1.000000 0.688910
0.386500 1.000000 0.689505
0.518294 1.000000 0.689660
0.648762 1.000000 0.689280
0.782307 1.000000 0.678226
0.913174 0.994342 0.666292
1.000000 0.981311 0.653085
0.000000 0.000000 0.481130
0.065130 0.000000 0.518403
0.161410 0.000000 0.547420
0.265798 0.000000 0.571563
0.376799 0.000000 0.592448
0.493386 0.000000 0.610987
0.614776 0.000000 0.627751
0.740332 0.000000 0.643124
0.869505 0.000000 0.657380
0.000000 0.094357 0.579486
0.088559 0.098121 0.599434
0.195610 0.101499 0.617272
0.308264 0.104567 0.633492
0.425755 0.107374 0.648432
0.547441 0.109954 0.662334
0.672769 0.112334 0.675381
0.801244 0.114531 0.687711
0.932412 0.116560 0.699431
0.000000 0.211234 0.639065
0.105146 0.216676 0.653603
0.219792 0.221685 0.667175
0.338546 0.226307 0.679947
0.460872 0.230576 0.692044
0.586285 0.234518 0.703564
0.714455 0.238152 0.714455
0.845228 0.241494 0.724481
0.978226 0.244557 0.733670
0.000000 0.341851 0.684423
0.115885 0.348072 0.696300
0.235875 0.353813 0.707626
0.359102 0.359102 0.718204
0.485281 0.363961 0.727922
0.614011 0.368407 0.736813
0.744906 0.372453 0.744906
0.877594 0.376112 0.752223
1.000000 0.379392 0.758783
0.000000 0.481226 0.721840
0.121875 0.487502 0.731253
0.246617 0.493234 0.739851
0.373829 0.498439 0.747659
0.503132 0.503132 0.754698
0.634155 0.507324 0.760986
0.766535 0.511023 0.766535
0.899915 0.514237 0.771356
1.000000 0.516972 0.775458
0.000000 0.625258 0.750310
0.126179 0.630895 0.757074
0.254364 0.635909 0.763091
0.384187 0.640312 0.768374
0.515288 0.644110 0.772932
0.647311 0.647311 0.776773
0.779903 0.649919 0.779903
0.912804 0.651826 0.782392
1.000000 0.652534 0.784555
0.000000 0.770117 0.770117
0.129069 0.774413 0.774413
0.259332 0.777995 0.777995
0.390433 0.780866 0.780866
0.522271 0.782733 0.783213
0.654805 0.783232 0.785267
0.787643 0.782398 0.786998
0.920379 0.780272 0.788368
1.000000 0.776897 0.789333
0.000000 0.911994 0.793182
0.125379 0.913678 0.795425
0.257400 0.913886 0.797365
0.389979 0.912657 0.798969
0.522710 0.910030 0.800198
0.655170 0.906048 0.801001
0.786913 0.900748 0.801315
0.923171 0.894166 0.789632
1.000000 0.886327 0.788702
0.000000 1.000000 0.808034
0.126683 1.000000 0.809114
0.259639 1.000000 0.809747
0.392139 1.000000 0.809865
0.523704 1.000000 0.809378
0.653801 1.000000 0.808169
0.781798 1.000000 0.806066
0.911860 0.990129 0.792786
1.000000 0.976385 0.777726
0.000000 0.000000 0.573923
0.067934 0.000000 0.613934
0.165484 0.000000 0.646040
0.270801 0.000000 0.673225
0.382517 0.000000 0.697007
0.499664 0.000000 0.718277
0.621490 0.000000 0.737607
0.747377 0.000000 0.755387
0.876787 0.000000 0.771899
0.000000 0.095684 0.682221
0.090505 0.099307 0.705007
0.198447 0.102573 0.725516
0.311812 0.105548 0.744243
0.429868 0.108274 0.761533
0.551998 0.110784 0.777637
0.677661 0.113099 0.792742
0.806373 0.115238 0.806993
0.937688 0.117213 0.820501
0.000000 0.213134 0.750689
0.106495 0.218423 0.767522
0.221773 0.223296 0.783244
0.341033 0.227795 0.798023
0.463754 0.231950 0.811992
0.589463 0.235785 0.825249
0.717956 0.239319 0.837615
0.848976 0.242565 0.848976
0.982140 0.245535 0.859373
0.000000 0.344020 0.803196
0.116640 0.350074 0.816896
0.237106 0.355659 0.829870
0.360799 0.360799 0.841865
0.487355 0.365516 0.852871
0.616375 0.369825 0.862925
0.747477 0.373739 0.872057
0.880291 0.377268 0.880291
1.000000 0.380421 0.887648
0.000000 0.483420 0.845984
0.122377 0.489508 0.856640
0.247530 0.495060 0.866355
0.375067 0.500090 0.875157
0.504612 0.504612 0.883070
0.635794 0.508635 0.890111
0.768253 0.512169 0.896296
0.901634 0.515219 0.901634
1.000000 0.517792 0.906136
0.000000 0.627243 0.878140
0.126533 0.632667 0.885734
0.254989 0.637472 0.892461
0.385001 0.641669 0.898336
0.516211 0.645264 0.903370
0.648263 0.648263 0.907568
0.780804 0.650670 0.910938
0.913721 0.652207 0.913657
1.000000 0.652493 0.915963
0.000000 0.771656 0.900266
0.129285 0.775709 0.904994
0.259683 0.779049 0.908891
0.390861 0.781655 0.911975
0.522870 0.783054 0.914545
0.655483 0.783096 0.916695
0.788304 0.781819 0.918391
0.920922 0.779263 0.919592
1.000000 0.775474 0.920245
0.000118 0.912734 0.912958
0.131459 0.913912 0.915378
0.263660 0.913628 0.917367
0.396324 0.911919 0.918888
0.529039 0.908828 0.919896
0.661377 0.904394 0.920335
0.792883 0.898655 0.920132
0.923059 0.891644 0.919192
1.000000 0.883381 0.917389
0.000000 1.000000 0.929317
0.132458 1.000000 0.930125
0.265396 1.000000 0.930340
0.397764 1.000000 0.929881
0.529071 1.000000 0.928644
0.658760 1.000000 0.926484
0.786155 0.998144 0.923181
0.910313 0.985706 0.918343
1.000000 0.971081 0.900963
0.000000 0.000000 0.669798
0.070611 0.000000 0.712302
0.169385 0.000000 0.747227
0.275614 0.000000 0.777220
0.388036 0.000000 0.803702
0.505736 0.000000 0.827534
0.627994 0.000000 0.849281
0.754206 0.000000 0.869335
0.883849 0.000000 0.887981
0.000000 0.096960 0.787213
0.092388 0.100452 0.812650
0.201190 0.103613 0.835669
0.315244 0.106499 0.856761
0.433848 0.109149 0.876274
0.556406 0.111591 0.894462
0.682391 0.113845 0.911516
0.811329 0.115926 0.927585
0.942781 0.117848 0.942781
0.000000 0.214980 0.864033
0.107785 0.220122 0.883038
0.223672 0.224865 0.900793
0.343420 0.229244 0.917474
0.466519 0.233288 0.933214
0.592546 0.237018 0.948073
0.721358 0.240453 0.961810
0.852613 0.243604 0.974415
0.985931 0.246483 0.985931
0.000000 0.346130 0.923307
0.117334 0.352022 0.938732
0.238302 0.357453 0.953209
0.362448 0.362448 0.966528
0.489366 0.367024 0.978732
0.618663 0.371198 0.989861
0.749959 0.374980 0.999946
0.882887 0.378380 1.000000
1.000000 0.381407 1.000000
0.000000 0.485549 0.971098
0.122863 0.491453 0.982906
0.248413 0.496826 0.993652
0.376261 0.501682 1.000000
0.506033 0.506033 1.000000
0.637362 0.509890 1.000000
0.769888 0.513259 1.000000
0.903256 0.516147 1.000000
1.000000 0.518557 1.000000
0.000000 0.629155 1.000000
0.126874 0.634368 1.000000
0.255586 0.638965 1.000000
0.385774 0.642957 1.000000
0.517079 0.646349 1.000000
0.649147 0.649147 1.000000
0.781641 0.651332 1.000000
0.914607 0.652443 1.000000
1.000000 0.652312 1.000000
0.000000 0.773113 1.000000
0.129487 0.776923 1.000000
0.260007 0.780022 1.000000
0.391315 0.782285 1.000000
0.523477 0.783219 1.000000
0.656151 0.782808 1.000000
0.788936 0.781092 1.000000
0.921416 0.778113 1.000000
1.000000 0.773914 1.000000
0.000277 0.913300 1.000000
0.131873 0.913978 1.000000
0.264237 0.913205 1.000000
0.396965 0.911023 1.000000
0.529644 0.907471 1.000000
0.661837 0.902589 1.000000
0.793077 0.896415 1.000000
0.922854 0.888978 1.000000
1.000000 0.880289 1.000000
0.005141 1.000000 1.000000
0.138263 1.000000 1.000000
0.271160 1.000000 1.000000
0.403370 1.000000 1.000000
0.534388 1.000000 1.000000
0.663629 1.000000 1.000000
0.790360 0.994113 1.000000
0.913484 0.981046 1.000000
1.000000 1.000000 1.000000
