mini_run_pipeline/luts/fuji_3513_print.cube
TITLE "Fujifilm 3513 Print Stock Emulation"
LUT_3D_SIZE 33
DOMAIN_MIN 0.0 0.0 0.0
DOMAIN_MAX 1.0 1.0 1.0
0.000000 0.000000 0.000000
0.000000 0.000000 0.027568
0.004864 0.000000 0.027023
0.023379 0.000000 0.026425
0.043186 0.000000 0.025793
0.064039 0.000000 0.025136
0.085783 0.000000 0.024459
0.108311 0.000000 0.023767
0.131546 0.000000 0.023064
0.155425 0.000000 0.022352
0.179899 0.000000 0.021634
0.204927 0.000000 0.020911
0.230476 0.000000 0.020185
0.256515 0.000000 0.019458
0.283018 0.000000 0.018732
0.309963 0.000000 0.018008
0.337329 0.000000 0.017286
0.365097 0.000000 0.016569
0.393251 0.000000 0.015856
0.421775 0.000000 0.015150
0.450655 0.000000 0.014452
0.479876 0.000000 0.013761
0.509428 0.000000 0.013079
0.539298 0.000000 0.012408
0.569474 0.000000 0.011747
0.599947 0.000000 0.011098
0.630705 0.000000 0.010460
0.661741 0.000000 0.009836
0.693044 0.000000 0.009226
0.724605 0.000000 0.008630
0.756416 0.000000 0.008049
0.788470 0.000000 0.007484
0.820756 0.000000 0.006935
0.000000 0.016007 0.106193
0.000000 0.016839 0.025556
0.012855 0.017539 0.024891
0.032838 0.018151 0.024209
0.053794 0.018697 0.023512
0.075602 0.019193 0.022806
0.098168 0.019649 0.022091
0.121424 0.020072 0.021371
0.145313 0.020468 0.020647
0.169788 0.020842 0.019921
0.194810 0.021195 0.019194
0.220347 0.021531 0.018468
0.246370 0.021851 0.017745
0.272852 0.022158 0.017024
0.299772 0.022452 0.016309
0.327109 0.022736 0.015599
0.354845 0.023009 0.014895
0.382962 0.023273 0.014199
0.411447 0.023528 0.013512
0.440283 0.023776 0.012834
0.469457 0.024016 0.012166
0.498958 0.024249 0.011509
0.528773 0.024476 0.010864
0.558891 0.024697 0.010232
0.589302 0.024912 0.009613
0.619994 0.025121 0.009007
0.650960 0.025326 0.008417
0.682189 0.025526 0.007842
0.713672 0.025721 0.007282
0.745401 0.025911 0.006740
0.777368 0.026097 0.006214
0.809564 0.026279 0.005707
0.841981 0.026457 0.005217
0.000000 0.036713 0.103954
0.000000 0.037765 0.063255
0.018595 0.038726 0.022546
0.039929 0.039613 0.021829
0.062031 0.040439 0.021107
0.084835 0.041214 0.020382
0.108284 0.041945 0.019656
0.132331 0.042638 0.018929
0.156938 0.043298 0.018204
0.182070 0.043929 0.017482
0.207697 0.044533 0.016763
0.233795 0.045114 0.016049
0.260338 0.045673 0.015342
0.287308 0.046212 0.014641
0.314683 0.046734 0.013948
0.342448 0.047239 0.013264
0.370585 0.047728 0.012589
0.399081 0.048203 0.011926
0.427921 0.048665 0.011273
0.457092 0.049114 0.010632
0.486582 0.049551 0.010005
0.516380 0.049978 0.009391
0.546474 0.050393 0.008791
0.576855 0.050798 0.008206
0.607511 0.051194 0.007636
0.638435 0.051581 0.007083
0.669616 0.051959 0.006546
0.701046 0.052328 0.006027
0.732715 0.052689 0.005526
0.764617 0.053043 0.005044
0.796743 0.053389 0.004580
0.829085 0.053728 0.004136
0.861635 0.054059 0.003713
0.000000 0.059880 0.101566
0.000000 0.061089 0.074176
0.010189 0.062227 0.046784
0.045988 0.063302 0.019391
0.069098 0.064323 0.018665
0.092808 0.065296 0.017941
0.117080 0.066227 0.017220
0.141880 0.067120 0.016503
0.167179 0.067979 0.015791
0.192952 0.068807 0.015086
0.219175 0.069606 0.014388
0.245827 0.070379 0.013698
0.272889 0.071128 0.013017
0.300345 0.071854 0.012346
0.328176 0.072559 0.011687
0.356369 0.073245 0.011038
0.384910 0.073912 0.010402
0.413785 0.074562 0.009780
0.442982 0.075195 0.009170
0.472489 0.075813 0.008576
0.502296 0.076415 0.007996
0.532391 0.077004 0.007433
0.562764 0.077579 0.006886
0.593406 0.078141 0.006355
0.624308 0.078691 0.005843
0.655460 0.079228 0.005349
0.686854 0.079754 0.004873
0.718482 0.080269 0.004416
0.750335 0.080774 0.003980
0.782406 0.081268 0.003564
0.814686 0.081751 0.003168
0.847169 0.082225 0.002794
0.879846 0.082690 0.002441
0.000000 0.084906 0.099126
0.000000 0.086243 0.078401
0.007976 0.087520 0.057677
0.041415 0.088742 0.036958
0.075413 0.089916 0.016243
0.099938 0.091045 0.015533
0.124961 0.092135 0.014831
0.150457 0.093187 0.014135
0.176404 0.094206 0.013449
0.202781 0.095193 0.012772
0.229570 0.096151 0.012105
0.256752 0.097082 0.011449
0.284312 0.097987 0.010805
0.312235 0.098867 0.010174
0.340507 0.099726 0.009556
0.369115 0.100562 0.008952
0.398046 0.101378 0.008363
0.427288 0.102175 0.007789
0.456832 0.102953 0.007232
0.486665 0.103713 0.006691
0.516777 0.104457 0.006167
0.547160 0.105184 0.005661
0.577803 0.105895 0.005173
0.608698 0.106591 0.004704
0.639835 0.107272 0.004255
0.671207 0.107940 0.003826
0.702805 0.108593 0.003417
0.734622 0.109234 0.003029
0.766648 0.109861 0.002663
0.798878 0.110476 0.002318
0.831303 0.111078 0.001996
0.863917 0.111669 0.001696
0.896712 0.112247 0.001420
0.000000 0.111468 0.096696
0.000000 0.112915 0.079983
0.008084 0.114308 0.063276
0.040377 0.115653 0.046576
0.073165 0.116953 0.029884
0.106424 0.118211 0.013201
0.132132 0.119432 0.012528
0.158269 0.120616 0.011865
0.184816 0.121768 0.011213
0.211756 0.122888 0.010574
0.239074 0.123978 0.009948
0.266755 0.125041 0.009335
0.294785 0.126077 0.008736
0.323150 0.127088 0.008152
0.351839 0.128075 0.007585
0.380840 0.129040 0.007033
0.410142 0.129982 0.006498
0.439734 0.130904 0.005980
0.469606 0.131805 0.005481
0.499748 0.132688 0.005000
0.530151 0.133551 0.004539
0.560806 0.134396 0.004097
0.591705 0.135224 0.003675
0.622838 0.136035 0.003273
0.654197 0.136829 0.002893
0.685775 0.137608 0.002535
0.717563 0.138370 0.002198
0.749555 0.139118 0.001884
0.781742 0.139851 0.001593
0.814118 0.140569 0.001325
0.846675 0.141273 0.001080
0.879407 0.141964 0.000860
0.912306 0.142640 0.000664
0.000000 0.139357 0.094323
0.000000 0.140898 0.080301
0.009231 0.142392 0.066288
0.040951 0.143840 0.052285
0.073117 0.145247 0.038293
0.105709 0.146615 0.024312
0.138709 0.147945 0.010344
0.165434 0.149242 0.009723
0.192535 0.150505 0.009115
0.219997 0.151737 0.008522
0.247808 0.152940 0.007944
0.275953 0.154115 0.007382
0.304421 0.155262 0.006836
0.333201 0.156384 0.006307
0.362281 0.157481 0.005797
0.391651 0.158555 0.005304
0.421300 0.159605 0.004830
0.451220 0.160633 0.004375
0.481400 0.161639 0.003941
0.511832 0.162625 0.003526
0.542507 0.163591 0.003133
0.573416 0.164537 0.002760
0.604552 0.165464 0.002410
0.635906 0.166373 0.002081
0.667470 0.167264 0.001775
0.699237 0.168137 0.001493
0.731200 0.168993 0.001233
0.763351 0.169831 0.000997
0.795683 0.170654 0.000786
0.828190 0.171460 0.000599
0.860863 0.172251 0.000437
0.893697 0.173025 0.000299
0.926686 0.173785 0.000188
0.000000 0.168417 0.092044
0.000000 0.170041 0.079960
0.010868 0.171620 0.067889
0.042321 0.173158 0.055831
0.074179 0.174656 0.043785
0.106425 0.176117 0.031754
0.139045 0.177542 0.019738
0.172025 0.178933 0.007737
0.199636 0.180292 0.007181
0.227581 0.181619 0.006642
0.255847 0.182918 0.006119
0.284424 0.184187 0.005615
0.313299 0.185429 0.005129
0.342464 0.186645 0.004662
0.371908 0.187835 0.004215
0.401620 0.189001 0.003787
0.431593 0.190142 0.003380
0.461817 0.191261 0.002995
0.492283 0.192357 0.002630
0.522983 0.193430 0.002287
0.553908 0.194483 0.001967
0.585052 0.195514 0.001670
0.616405 0.196525 0.001395
0.647961 0.197517 0.001145
0.679712 0.198488 0.000918
0.711650 0.199441 0.000715
0.743770 0.200375 0.000537
0.776063 0.201290 0.000384
0.808522 0.202188 0.000256
0.841142 0.203067 0.000153
0.873916 0.203930 0.000077
0.906836 0.204775 0.000026
0.939897 0.205603 0.000002
0.000000 0.198523 0.089890
0.000000 0.200220 0.079279
0.012717 0.201874 0.068681
0.044077 0.203488 0.058099
0.075806 0.205064 0.047533
0.107893 0.206604 0.036983
0.140323 0.208109 0.026449
0.173085 0.209581 0.015934
0.206167 0.211020 0.005436
0.234556 0.212429 0.004957
0.263244 0.213807 0.004497
0.292219 0.215157 0.004057
0.321472 0.216479 0.003637
0.350992 0.217774 0.003237
0.380772 0.219043 0.002859
0.410801 0.220286 0.002503
0.441072 0.221504 0.002168
0.471576 0.222698 0.001856
0.502304 0.223868 0.001567
0.533250 0.225015 0.001301
0.564404 0.226140 0.001059
0.595761 0.227243 0.000841
0.627312 0.228323 0.000647
0.659049 0.229383 0.000478
0.690967 0.230422 0.000334
0.723057 0.231440 0.000216
0.755314 0.232438 0.000123
0.787731 0.233416 0.000055
0.820300 0.234375 0.000015
0.853015 0.235315 0.000000
0.885882 0.236235 0.000000
0.918905 0.237137 0.000000
0.952081 0.238020 0.000000
0.000000 0.229575 0.087891
0.000000 0.231333 0.078442
0.014619 0.233050 0.069009
0.045988 0.234730 0.059593
0.077698 0.236372 0.050195
0.109737 0.237978 0.040815
0.142093 0.239551 0.031454
0.174755 0.241090 0.022112
0.207714 0.242597 0.012790
0.240958 0.244073 0.003489
0.270033 0.245519 0.003097
0.299375 0.246935 0.002727
0.328974 0.248324 0.002378
0.358823 0.249684 0.002052
0.388911 0.251017 0.001748
0.419231 0.252325 0.001468
0.449774 0.253606 0.001210
0.480534 0.254862 0.000977
0.511501 0.256093 0.000768
0.542670 0.257301 0.000583
0.574031 0.258484 0.000423
0.605579 0.259644 0.000288
0.637306 0.260781 0.000179
0.669205 0.261896 0.000095
0.701269 0.262989 0.000038
0.733492 0.264059 0.000006
0.765869 0.265108 0.000000
0.798409 0.266136 0.000000
0.831112 0.267143 0.000000
0.863973 0.268129 0.000000
0.896984 0.269095 0.000000
0.930140 0.270041 0.000000
0.963436 0.270966 0.000000
0.000000 0.261480 0.086072
0.000000 0.263290 0.077569
0.016472 0.265061 0.069085
0.047913 0.266794 0.060620
0.079669 0.268491 0.052174
0.111729 0.270153 0.043749
0.144083 0.271781 0.035344
0.176720 0.273375 0.026960
0.209631 0.274938 0.018597
0.242807 0.276469 0.010257
0.276238 0.277970 0.001939
0.305917 0.279440 0.001643
0.335834 0.280882 0.001371
0.365982 0.282296 0.001123
0.396352 0.283681 0.000898
0.426937 0.285040 0.000697
0.457728 0.286371 0.000522
0.488719 0.287677 0.000371
0.519903 0.288956 0.000245
0.551271 0.290211 0.000145
0.582817 0.291440 0.000071
0.614535 0.292645 0.000023
0.646417 0.293826 0.000001
0.678462 0.294983 0.000000
0.710681 0.296117 0.000000
0.743068 0.297227 0.000000
0.775619 0.298315 0.000000
0.808325 0.299380 0.000000
0.841182 0.300422 0.000000
0.874184 0.301443 0.000000
0.907324 0.302441 0.000000
0.940596 0.303418 0.000000
0.973995 0.304373 0.000000
0.000000 0.294158 0.084455
0.000000 0.296010 0.076744
0.018209 0.297824 0.069053
0.049760 0.299602 0.061383
0.081602 0.301343 0.053734
0.113725 0.303049 0.046107
0.146120 0.304721 0.038502
0.178778 0.306359 0.030919
0.211689 0.307966 0.023360
0.244846 0.309540 0.015823
0.278240 0.311084 0.008311
0.311863 0.312597 0.000822
0.342070 0.314080 0.000631
0.372490 0.315535 0.000464
0.403116 0.316960 0.000322
0.433940 0.318358 0.000206
0.464955 0.319727 0.000115
0.496154 0.321070 0.000051
0.527530 0.322386 0.000012
0.559075 0.323675 0.000000
0.590797 0.324939 0.000000
0.622700 0.326176 0.000000
0.654777 0.327388 0.000000
0.687022 0.328576 0.000000
0.719428 0.329738 0.000000
0.751991 0.330876 0.000000
0.784703 0.331990 0.000000
0.817558 0.333079 0.000000
0.850551 0.334145 0.000000
0.883676 0.335188 0.000000
0.916927 0.336207 0.000000
0.950298 0.337202 0.000000
0.983783 0.338175 0.000000
0.000000 0.327534 0.083062
0.000000 0.329419 0.076027
0.019782 0.331267 0.069014
0.051463 0.333077 0.062023
0.083414 0.334852 0.055055
0.115625 0.336592 0.048109
0.148088 0.338297 0.041188
0.180794 0.339969 0.034290
0.213736 0.341608 0.027416
0.246904 0.343214 0.020567
0.280292 0.344789 0.013743
0.313892 0.346333 0.006944
0.347695 0.347847 0.000170
0.378362 0.349330 0.000089
0.409218 0.350784 0.000034
0.440257 0.352209 0.000005
0.471474 0.353605 0.000000
0.502879 0.354973 0.000000
0.534470 0.356313 0.000000
0.566241 0.357626 0.000000
0.598185 0.358911 0.000000
0.630296 0.360169 0.000000
0.662568 0.361401 0.000000
0.694995 0.362606 0.000000
0.727571 0.363786 0.000000
0.760289 0.364939 0.000000
0.793145 0.366067 0.000000
0.826131 0.367169 0.000000
0.859242 0.368247 0.000000
0.892472 0.369299 0.000000
0.925816 0.370326 0.000000
0.959268 0.371329 0.000000
0.992821 0.372308 0.000000
0.000000 0.361538 0.081910
0.000000 0.363447 0.075463
0.021154 0.365318 0.069039
0.052975 0.367152 0.062639
0.085047 0.368950 0.056263
0.117359 0.370713 0.049911
0.149905 0.372441 0.043584
0.182676 0.374135 0.037281
0.215664 0.375795 0.031004
0.248862 0.377423 0.024753
0.282263 0.379018 0.018527
0.315859 0.380582 0.012328
0.349643 0.382114 0.006155
0.383615 0.383615 0.000000
0.414708 0.385086 0.000000
0.445993 0.386527 0.000000
0.477462 0.387938 0.000000
0.509111 0.389320 0.000000
0.540931 0.390672 0.000000
0.572918 0.391996 0.000000
0.605064 0.393292 0.000000
0.637365 0.394559 0.000000
0.669813 0.395799 0.000000
0.702403 0.397010 0.000000
0.735129 0.398195 0.000000
0.767984 0.399352 0.000000
0.800964 0.400482 0.000000
0.834062 0.401586 0.000000
0.867273 0.402662 0.000000
0.900590 0.403713 0.000000
0.934009 0.404737 0.000000
0.967523 0.405735 0.000000
1.000000 0.406708 0.000000
0.000000 0.396104 0.081017
0.000000 0.398026 0.075089
0.022296 0.399911 0.069185
0.054261 0.401758 0.063307
0.086457 0.403569 0.057453
0.118876 0.405345 0.051625
0.151511 0.407085 0.045822
0.184354 0.408790 0.040046
0.217398 0.410462 0.034296
0.250636 0.412100 0.028571
0.284075 0.413705 0.022857
0.317718 0.415277 0.017143
0.351557 0.416817 0.011429
0.385587 0.418325 0.005714
0.419801 0.419801 0.000000
0.451336 0.421247 0.000000
0.483042 0.422661 0.000000
0.514912 0.424045 0.000000
0.546942 0.425399 0.000000
0.579124 0.426723 0.000000
0.611453 0.428017 0.000000
0.643923 0.429282 0.000000
0.676528 0.430518 0.000000
0.709262 0.431724 0.000000
0.742118 0.432902 0.000000
0.775092 0.434052 0.000000
0.808178 0.435173 0.000000
0.841369 0.436265 0.000000
0.874661 0.437330 0.000000
0.908047 0.438367 0.000000
0.941521 0.439377 0.000000
0.975079 0.440358 0.000000
1.000000 0.441313 0.000000
0.000000 0.431166 0.080396
0.000000 0.433093 0.074932
0.023187 0.434981 0.069495
0.055293 0.436832 0.064082
0.087612 0.438646 0.058696
0.120138 0.440424 0.053337
0.152866 0.442166 0.048000
0.185807 0.443872 0.042667
0.218957 0.445544 0.037333
0.252309 0.447182 0.032000
0.285857 0.448785 0.026667
0.319594 0.450355 0.021333
0.353513 0.451891 0.016000
0.387609 0.453395 0.010667
0.421875 0.454866 0.005333
0.456305 0.456305 0.000000
0.488226 0.457712 0.000000
0.520299 0.459087 0.000000
0.552517 0.460431 0.000000
0.584875 0.461743 0.000000
0.617366 0.463025 0.000000
0.649986 0.464276 0.000000
0.682728 0.465496 0.000000
0.715585 0.466686 0.000000
0.748554 0.467846 0.000000
0.781627 0.468976 0.000000
0.814799 0.470076 0.000000
0.848065 0.471147 0.000000
0.881418 0.472188 0.000000
0.914854 0.473200 0.000000
0.948366 0.474183 0.000000
0.981949 0.475137 0.000000
1.000000 0.476062 0.000000
0.000000 0.466663 0.080060
0.000000 0.468584 0.075017
0.023808 0.470466 0.070000
0.056058 0.472311 0.065000
0.088529 0.474117 0.060000
0.121215 0.475887 0.055000
0.154108 0.477621 0.050000
0.187202 0.479318 0.045000
0.220490 0.480979 0.040000
0.253966 0.482606 0.035000
0.287623 0.484197 0.030000
0.321455 0.485753 0.025000
0.355457 0.487276 0.020000
0.389621 0.488764 0.015000
0.423941 0.490218 0.010000
0.458412 0.491640 0.005000
0.493028 0.493028 0.000000
0.525282 0.494383 0.000000
0.557668 0.495705 0.000000
0.590182 0.496995 0.000000
0.622816 0.498253 0.000000
0.655565 0.499478 0.000000
0.688424 0.500672 0.000000
0.721387 0.501834 0.000000
0.754447 0.502965 0.000000
0.787600 0.504064 0.000000
0.820840 0.505132 0.000000
0.854160 0.506169 0.000000
0.887557 0.507175 0.000000
0.921023 0.508150 0.000000
0.954553 0.509095 0.000000
0.988143 0.510009 0.000000
1.000000 0.510893 0.000000
0.000000 0.502533 0.080000
0.000000 0.504439 0.075294
0.024271 0.506305 0.070588
0.056729 0.508133 0.065882
0.089394 0.509922 0.061176
0.122257 0.511674 0.056470
0.155314 0.513388 0.051765
0.188556 0.515065 0.047059
0.221979 0.516706 0.042353
0.255576 0.518310 0.037647
0.289340 0.519878 0.032941
0.323266 0.521411 0.028235
0.357347 0.522908 0.023529
0.391577 0.524370 0.018823
0.425951 0.525797 0.014118
0.460461 0.527190 0.009412
0.495104 0.528548 0.004706
0.529872 0.529872 0.000000
0.562406 0.531161 0.000000
0.595055 0.532418 0.000000
0.627812 0.533640 0.000000
0.660671 0.534829 0.000000
0.693628 0.535985 0.000000
0.726675 0.537108 0.000000
0.759808 0.538198 0.000000
0.793022 0.539255 0.000000
0.826309 0.540279 0.000000
0.859666 0.541271 0.000000
0.893085 0.542230 0.000000
0.926563 0.543157 0.000000
0.960093 0.544052 0.000000
0.993669 0.544915 0.000000
1.000000 0.545746 0.000000
0.000000 0.538717 0.080000
0.000000 0.540598 0.075555
0.024715 0.542438 0.071111
0.057373 0.544239 0.066667
0.090222 0.546000 0.062222
0.123257 0.547723 0.057778
0.156469 0.549408 0.053333
0.189855 0.551055 0.048889
0.223406 0.552664 0.044444
0.257118 0.554235 0.040000
0.290983 0.555770 0.035555
0.324997 0.557267 0.031111
0.359152 0.558729 0.026667
0.393444 0.560153 0.022222
0.427866 0.561542 0.017778
0.462412 0.562895 0.013333
0.497077 0.564212 0.008889
0.531855 0.565493 0.004444
0.566739 0.566739 0.000000
0.599503 0.567950 0.000000
0.632363 0.569127 0.000000
0.665312 0.570268 0.000000
0.698347 0.571374 0.000000
0.731459 0.572446 0.000000
0.764646 0.573484 0.000000
0.797899 0.574488 0.000000
0.831215 0.575457 0.000000
0.864588 0.576392 0.000000
0.898012 0.577293 0.000000
0.931481 0.578161 0.000000
0.964991 0.578994 0.000000
0.998535 0.579794 0.000000
1.000000 0.580561 0.000000
0.000000 0.575156 0.080000
0.000000 0.577000 0.075789
0.025137 0.578804 0.071579
0.057984 0.580568 0.067368
0.091009 0.582292 0.063158
0.124204 0.583976 0.058947
0.157564 0.585620 0.054737
0.191083 0.587226 0.050526
0.224755 0.588793 0.046316
0.258573 0.590321 0.042105
0.292532 0.591811 0.037895
0.326626 0.593263 0.033684
0.360849 0.594677 0.029474
0.395195 0.596054 0.025263
0.429658 0.597393 0.021053
0.464233 0.598695 0.016842
0.498913 0.599959 0.012632
0.533694 0.601187 0.008421
0.568569 0.602379 0.004211
0.603534 0.603534 0.000000
0.636476 0.604652 0.000000
0.669496 0.605734 0.000000
0.702588 0.606780 0.000000
0.735746 0.607790 0.000000
0.768965 0.608764 0.000000
0.802240 0.609703 0.000000
0.835565 0.610605 0.000000
0.868934 0.611472 0.000000
0.902342 0.612304 0.000000
0.935784 0.613100 0.000000
0.969254 0.613861 0.000000
1.000000 0.614586 0.000000
1.000000 0.615276 0.000000
0.000000 0.611790 0.080000
0.000000 0.613589 0.076000
0.025535 0.615346 0.072000
0.058559 0.617062 0.068000
0.091748 0.618738 0.064000
0.125093 0.620372 0.060000
0.158590 0.621966 0.056000
0.192232 0.623520 0.052000
0.226014 0.625034 0.048000
0.259929 0.626508 0.044000
0.293971 0.627942 0.040000
0.328136 0.629338 0.036000
0.362416 0.630694 0.032000
0.396807 0.632011 0.028000
0.431303 0.633290 0.024000
0.465898 0.634530 0.020000
0.500585 0.635732 0.016000
0.535361 0.636895 0.012000
0.570218 0.638020 0.008000
0.605152 0.639107 0.004000
0.640157 0.640157 0.000000
0.673227 0.641169 0.000000
0.706357 0.642143 0.000000
0.739541 0.643079 0.000000
0.772774 0.643978 0.000000
0.806050 0.644840 0.000000
0.839363 0.645664 0.000000
0.872709 0.646451 0.000000
0.906082 0.647201 0.000000
0.939476 0.647914 0.000000
0.972886 0.648590 0.000000
1.000000 0.649229 0.000000
1.000000 0.649831 0.000000
0.000000 0.648561 0.080000
0.000000 0.650304 0.076190
0.025905 0.652005 0.072381
0.059095 0.653663 0.068571
0.092434 0.655279 0.064762
0.125918 0.656854 0.060952
0.159539 0.658386 0.057143
0.193293 0.659878 0.053333
0.227173 0.661328 0.049524
0.261173 0.662737 0.045714
0.295288 0.664105 0.041905
0.329513 0.665433 0.038095
0.363840 0.666720 0.034286
0.398266 0.667968 0.030476
0.432783 0.669174 0.026667
0.467387 0.670341 0.022857
0.502071 0.671469 0.019048
0.536831 0.672556 0.015238
0.571660 0.673604 0.011429
0.606554 0.674612 0.007619
0.641506 0.675581 0.003810
0.676511 0.676511 0.000000
0.709659 0.677401 0.000000
0.742848 0.678253 0.000000
0.776074 0.679065 0.000000
0.809332 0.679839 0.000000
0.842614 0.680573 0.000000
0.875917 0.681269 0.000000
0.909234 0.681925 0.000000
0.942560 0.682543 0.000000
0.975890 0.683123 0.000000
1.000000 0.683658 0.000003
1.000000 0.684118 0.000029
0.000000 0.685412 0.080000
0.000000 0.687089 0.076364
0.026248 0.688722 0.072727
0.059588 0.690312 0.069091
0.093065 0.691859 0.065454
0.126673 0.693362 0.061818
0.160406 0.694823 0.058182
0.194258 0.696241 0.054545
0.228224 0.697616 0.050909
0.262298 0.698950 0.047273
0.296473 0.700241 0.043636
0.330745 0.701490 0.040000
0.365108 0.702697 0.036364
0.399555 0.703863 0.032727
0.434083 0.704987 0.029091
0.468684 0.706070 0.025455
0.503353 0.707111 0.021818
0.538086 0.708111 0.018182
0.572876 0.709070 0.014545
0.607717 0.709988 0.010909
0.642605 0.710865 0.007273
0.677533 0.711701 0.003636
0.712497 0.712497 0.000000
0.745672 0.713251 0.000000
0.778871 0.713965 0.000000
0.812089 0.714639 0.000000
0.845320 0.715271 0.000000
0.878559 0.715863 0.000000
0.911813 0.716400 0.000009
0.945100 0.716853 0.000046
0.978415 0.717223 0.000108
1.000000 0.717511 0.000198
1.000000 0.717717 0.000313
0.000000 0.722284 0.080000
0.000000 0.723884 0.076522
0.026560 0.725440 0.073043
0.060037 0.726950 0.069565
0.093638 0.728417 0.066087
0.127356 0.729839 0.062609
0.161187 0.731217 0.059130
0.195124 0.732550 0.055652
0.229162 0.733840 0.052174
0.263295 0.735087 0.048696
0.297517 0.736289 0.045217
0.331823 0.737449 0.041739
0.366208 0.738565 0.038261
0.400665 0.739638 0.034783
0.435189 0.740668 0.031304
0.469775 0.741655 0.027826
0.504417 0.742599 0.024348
0.539109 0.743500 0.020870
0.573846 0.744359 0.017391
0.608623 0.745175 0.013913
0.643433 0.745948 0.010435
0.678272 0.746679 0.006957
0.713134 0.747368 0.003478
0.748014 0.748014 0.000000
0.781167 0.748616 0.000001
0.814351 0.749147 0.000020
0.847573 0.749593 0.000065
0.880826 0.749954 0.000138
0.914105 0.750231 0.000236
0.947403 0.750424 0.000361
0.980715 0.750535 0.000511
1.000000 0.750563 0.000686
1.000000 0.750509 0.000885
0.000000 0.759119 0.080000
0.000000 0.760633 0.076667
0.026842 0.762100 0.073333
0.060440 0.763521 0.070000
0.094149 0.764896 0.066667
0.127964 0.766225 0.063333
0.161877 0.767509 0.060000
0.195885 0.768748 0.056667
0.229980 0.769941 0.053333
0.264159 0.771089 0.050000
0.298414 0.772193 0.046667
0.332740 0.773251 0.043333
0.367132 0.774265 0.040000
0.401585 0.775234 0.036667
0.436092 0.776158 0.033333
0.470649 0.777038 0.030000
0.505249 0.777873 0.026667
0.539887 0.778664 0.023333
0.574558 0.779410 0.020000
0.609256 0.780113 0.016667
0.643975 0.780770 0.013333
0.678717 0.781377 0.010004
0.713503 0.781901 0.006700
0.748330 0.782337 0.003422
0.783192 0.782688 0.000171
0.816418 0.782952 0.000279
0.849667 0.783132 0.000413
0.882933 0.783227 0.000572
0.916210 0.783237 0.000756
0.949492 0.783165 0.000964
0.982772 0.783009 0.001196
1.000000 0.782772 0.001452
1.000000 0.782453 0.001731
0.000000 0.795861 0.080000
0.000000 0.797276 0.076800
0.027092 0.798644 0.073600
0.060796 0.799964 0.070400
0.094598 0.801237 0.067200
0.128493 0.802463 0.064000
0.162474 0.803642 0.060800
0.196537 0.804774 0.057600
0.230675 0.805860 0.054400
0.264883 0.806898 0.051200
0.299156 0.807891 0.048000
0.333488 0.808837 0.044800
0.367873 0.809736 0.041600
0.402307 0.810590 0.038400
0.436782 0.811397 0.035200
0.471294 0.812157 0.032000
0.505838 0.812872 0.028800
0.540408 0.813541 0.025600
0.575013 0.814144 0.022412
0.609671 0.814659 0.019250
0.644373 0.815086 0.016116
0.679115 0.815424 0.013007
0.713891 0.815675 0.009925
0.748694 0.815839 0.006868
0.783519 0.815917 0.003836
0.818358 0.815910 0.000829
0.851606 0.815817 0.001046
0.884857 0.815640 0.001287
0.918104 0.815379 0.001551
0.951341 0.815035 0.001839
0.984561 0.814608 0.002148
1.000000 0.814100 0.002480
1.000000 0.813510 0.002833
0.000000 0.832450 0.080000
0.000000 0.833756 0.076923
0.027309 0.835013 0.073846
0.061103 0.836222 0.070769
0.094982 0.837382 0.067692
0.128941 0.838493 0.064615
0.162974 0.839556 0.061538
0.197077 0.840570 0.058461
0.231242 0.841536 0.055385
0.265465 0.842454 0.052308
0.299740 0.843324 0.049231
0.334062 0.844146 0.046154
0.368425 0.844920 0.043077
0.402823 0.845646 0.040000
0.437253 0.846322 0.036924
0.471735 0.846917 0.033869
0.506272 0.847422 0.030840
0.540860 0.847837 0.027838
0.575490 0.848162 0.024862
0.610158 0.848399 0.021912
0.644858 0.848546 0.018987
0.679583 0.848606 0.016088
0.714327 0.848579 0.013213
0.749083 0.848465 0.010362
0.783846 0.848265 0.007534
0.818609 0.847979 0.004730
0.853367 0.847609 0.001949
