mini_run_pipeline/luts/golden_hour_warmth.cube
TITLE "Golden Hour Warmth Sunset Radiance"
LUT_3D_SIZE 5
DOMAIN_MIN 0.0 0.0 0.0
DOMAIN_MAX 1.0 1.0 1.0
0.000000 0.000000 0.000000
0.262436 0.000000 0.000000
0.542455 0.000000 0.000000
0.830341 0.000000 0.000000
1.000000 0.000000 0.000000
0.000000 0.242480 0.000000
0.258170 0.245954 0.000000
0.536645 0.245665 0.000000
0.825704 0.242338 0.000000
1.000000 0.237938 0.000000
0.000000 0.502349 0.000000
0.265228 0.505668 0.000000
0.534134 0.508861 0.000000
0.818944 0.510303 0.000000
1.000000 0.510606 0.000000
0.004542 0.768961 0.000000
0.280254 0.774195 0.000000
0.557243 0.778801 0.000000
0.836416 0.783530 0.000000
1.000000 0.785740 0.000000
0.026717 1.000000 0.000000
0.303647 1.000000 0.000000
0.580351 1.000000 0.000000
0.856043 1.000000 0.000000
1.000000 1.000000 0.000000
0.000000 0.000000 0.190136
0.243072 0.000000 0.202182
0.499484 0.000000 0.207729
0.762813 0.000000 0.211496
1.000000 0.000000 0.214359
0.000000 0.243677 0.212620
0.259250 0.246676 0.213986
0.546276 0.243065 0.207871
0.838887 0.238351 0.202702
1.000000 0.233185 0.197237
0.000000 0.503546 0.219684
0.265749 0.506661 0.221043
0.534917 0.509511 0.217338
0.825392 0.510470 0.197000
1.000000 0.509522 0.179975
0.006793 0.770810 0.216574
0.282744 0.775828 0.210613
0.559823 0.780226 0.204500
0.838921 0.784570 0.188172
1.000000 0.785870 0.161824
0.028930 1.000000 0.195948
0.305838 1.000000 0.189538
0.582347 1.000000 0.183018
0.857624 1.000000 0.176391
1.000000 1.000000 0.154349
0.000000 0.000000 0.391953
0.245711 0.000000 0.408753
0.502886 0.000000 0.418289
0.766605 0.000000 0.425096
1.000000 0.000000 0.430380
0.000000 0.244778 0.427161
0.259706 0.247570 0.432035
0.524189 0.249847 0.436008
0.792212 0.251731 0.439295
1.000000 0.253296 0.442026
0.000000 0.504669 0.440349
0.266237 0.507593 0.442900
0.535969 0.509975 0.442391
0.835605 0.509054 0.427119
1.000000 0.506778 0.413662
0.009043 0.772585 0.438178
0.285206 0.777390 0.432760
0.562350 0.781579 0.427020
0.841456 0.785494 0.412800
1.000000 0.785462 0.389269
0.031136 1.000000 0.418703
0.307992 1.000000 0.412255
0.584270 1.000000 0.405498
0.859068 1.000000 0.398390
1.000000 1.000000 0.377409
0.000000 0.000000 0.598842
0.247926 0.000000 0.618657
0.505932 0.000000 0.631233
0.770090 0.000000 0.640542
1.000000 0.000000 0.647891
0.000000 0.245795 0.643404
0.260570 0.248394 0.650208
0.525614 0.250527 0.655790
0.793988 0.252295 0.660420
1.000000 0.253764 0.664264
0.000000 0.505725 0.661904
0.266695 0.508465 0.665491
0.537997 0.511649 0.666177
0.815325 0.516207 0.661899
1.000000 0.520339 0.657090
0.011291 0.774287 0.660208
0.287640 0.778882 0.655214
0.564825 0.782862 0.649732
0.844384 0.786154 0.637978
1.000000 0.783882 0.619409
0.033335 1.000000 0.641487
0.310108 1.000000 0.634871
0.586112 1.000000 0.627724
0.860354 1.000000 0.619936
1.000000 1.000000 0.599797
0.000000 0.000000 0.809261
0.249842 0.000000 0.831249
0.508688 0.000000 0.846229
0.773309 0.000000 0.857626
1.000000 0.000000 0.866743
0.000000 0.246739 0.861167
0.261378 0.249164 0.869632
0.526952 0.251164 0.876613
0.795656 0.252825 0.882410
1.000000 0.254202 0.887215
0.000000 0.506715 0.884267
0.267123 0.509280 0.888744
0.540940 0.513246 0.887884
0.818381 0.517657 0.884141
1.000000 0.521647 0.879701
0.013536 0.775917 0.882603
0.290046 0.780302 0.877918
0.567244 0.784073 0.872576
0.844477 0.787213 0.866583
1.000000 0.789677 0.859917
0.035524 1.000000 0.864236
0.312184 1.000000 0.857312
0.587866 1.000000 0.849608
0.861451 1.000000 0.840894
1.000000 1.000000 1.000000
