mini_run_pipeline/luts/golden_hour_warmth.cube
TITLE "Golden Hour Warmth Sunset Radiance"
LUT_3D_SIZE 9
DOMAIN_MIN 0.0 0.0 0.0
DOMAIN_MAX 1.0 1.0 1.0
0.000000 0.000000 0.000000
0.127205 0.000000 0.000000
0.262436 0.000000 0.000000
0.401211 0.000000 0.000000
0.542455 0.000000 0.000000
0.685616 0.000000 0.000000
0.830341 0.000000 0.000000
0.976378 0.000000 0.000000
1.000000 0.000000 0.000000
0.000000 0.117124 0.000000
0.124624 0.118728 0.000000
0.258984 0.118558 0.000000
0.398516 0.116961 0.000000
0.540579 0.114884 0.000000
0.684427 0.112542 0.000000
0.829681 0.110021 0.000000
0.976096 0.107365 0.000000
1.000000 0.104602 0.000000
0.000000 0.242480 0.000000
0.128090 0.244208 0.000000
0.258170 0.245954 0.000000
0.395232 0.246506 0.000000
0.536645 0.245665 0.000000
0.680391 0.244188 0.000000
0.825704 0.242338 0.000000
0.972190 0.240233 0.000000
1.000000 0.237938 0.000000
0.000000 0.371366 0.000000
0.130483 0.373156 0.000000
0.262101 0.374779 0.000000
0.395288 0.376584 0.000000
0.534065 0.377411 0.000000
0.676481 0.376973 0.000000
0.821012 0.375843 0.000000
0.966950 0.374271 0.000000
1.000000 0.372388 0.000000
0.000000 0.502349 0.000000
0.132199 0.504085 0.000000
0.265228 0.505668 0.000000
0.398975 0.507109 0.000000
0.534134 0.508861 0.000000
0.673933 0.509712 0.000000
0.818944 0.510303 0.000000
0.967008 0.510691 0.000000
1.000000 0.510606 0.000000
0.000000 0.634501 0.000000
0.133452 0.636080 0.000000
0.267522 0.637515 0.000000
0.405398 0.640181 0.000000
0.543695 0.642707 0.000000
0.683468 0.645685 0.000000
0.827135 0.647704 0.000000
0.973244 0.648695 0.000000
1.000000 0.648998 0.000000
0.004542 0.768961 0.000000
0.142198 0.771658 0.000000
0.280254 0.774195 0.000000
0.418630 0.776575 0.000000
0.557243 0.778801 0.000000
0.696015 0.780874 0.000000
0.836416 0.783530 0.000000
0.979914 0.785107 0.000000
1.000000 0.785740 0.000000
0.015673 0.905882 0.000000
0.153884 0.908185 0.000000
0.292312 0.910310 0.000000
0.430878 0.912256 0.000000
0.569499 0.914020 0.000000
0.708092 0.915599 0.000000
0.846578 0.917042 0.000000
0.986797 0.919057 0.000000
1.000000 0.919882 0.000000
0.026717 1.000000 0.000000
0.165166 1.000000 0.000000
0.303647 1.000000 0.000000
0.442073 1.000000 0.000000
0.580351 1.000000 0.000000
0.718380 1.000000 0.000000
0.856043 1.000000 0.000000
0.993316 1.000000 0.000000
1.000000 1.000000 0.000000
0.000000 0.000000 0.092331
0.117733 0.000000 0.097927
0.241529 0.000000 0.100449
0.368467 0.000000 0.102161
0.497619 0.000000 0.103477
0.628497 0.000000 0.104554
0.760784 0.000000 0.105467
0.894256 0.000000 0.106260
1.000000 0.000000 0.106960
0.000000 0.117672 0.102675
0.125130 0.119061 0.103283
0.263629 0.117302 0.100317
0.404920 0.115049 0.097842
0.547964 0.112613 0.095253
0.692453 0.110039 0.092553
0.838165 0.107351 0.089758
0.984920 0.104569 0.086880
1.000000 0.101706 0.083932
0.000000 0.243091 0.106055
0.128373 0.244749 0.106778
0.258640 0.246356 0.105086
0.397434 0.246241 0.097633
0.540406 0.244797 0.093033
0.685271 0.242884 0.089185
0.831404 0.240711 0.085620
0.978509 0.238358 0.082179
1.000000 0.235865 0.078793
0.000000 0.371994 0.108194
0.130682 0.373725 0.108698
0.262462 0.375297 0.109155
0.395739 0.376975 0.105524
0.535499 0.377413 0.096228
0.679036 0.376525 0.089866
0.824507 0.375011 0.084712
0.971199 0.373125 0.080163
1.000000 0.370981 0.075953
0.000000 0.502957 0.109714
0.132344 0.504639 0.110081
0.265492 0.506173 0.110415
0.399337 0.507568 0.110719
0.534524 0.509196 0.105213
0.674956 0.509779 0.094885
0.821922 0.510495 0.083807
0.970710 0.510565 0.074009
1.000000 0.510205 0.064971
0.000000 0.635054 0.110823
0.133557 0.636581 0.111090
0.268838 0.638436 0.110185
0.406778 0.641054 0.107085
0.545121 0.643535 0.103963
0.684897 0.646386 0.092543
0.829000 0.648192 0.078136
0.975676 0.648911 0.066094
1.000000 0.648944 0.055419
0.005668 0.769895 0.105951
0.143394 0.772537 0.102821
0.281502 0.775020 0.099673
0.419911 0.777348 0.096509
0.558539 0.779522 0.093330
0.697308 0.781543 0.090139
0.837671 0.784062 0.075953
0.981458 0.785455 0.061227
1.000000 0.785854 0.048583
0.016792 0.906684 0.095353
0.155042 0.908927 0.092170
0.293491 0.910991 0.088974
0.432058 0.912875 0.085769
0.570661 0.914577 0.082556
0.709217 0.916092 0.079336
0.847635 0.917412 0.076111
0.987767 0.919325 0.059240
1.000000 0.919968 0.044353
0.027825 1.000000 0.084600
0.166280 1.000000 0.081384
0.304747 1.000000 0.078162
0.443138 1.000000 0.074937
0.581358 1.000000 0.071709
0.719303 1.000000 0.068482
0.856850 1.000000 0.065257
0.993925 1.000000 0.059617
1.000000 1.000000 0.042612
0.000000 0.000000 0.190136
0.118935 0.000000 0.197855
0.243072 0.000000 0.202182
0.370202 0.000000 0.205283
0.499484 0.000000 0.207729
0.630456 0.000000 0.209759
0.762813 0.000000 0.211496
0.896335 0.000000 0.213014
1.000000 0.000000 0.214359
0.000000 0.118179 0.206233
0.125339 0.119482 0.208508
0.252978 0.120578 0.210421
0.382444 0.121524 0.212071
0.513412 0.122355 0.213522
0.645643 0.123094 0.214812
0.778948 0.123758 0.215970
0.913174 0.124357 0.217016
1.000000 0.124901 0.217965
0.000000 0.243677 0.212620
0.128645 0.245268 0.214008
0.259250 0.246676 0.213986
0.401586 0.245177 0.210419
0.546276 0.243065 0.207871
0.692118 0.240774 0.205321
0.838887 0.238351 0.202702
0.986440 0.235817 0.200007
1.000000 0.233185 0.197237
0.000000 0.372601 0.216742
0.130874 0.374275 0.217716
0.262813 0.375798 0.218601
0.396208 0.377338 0.216320
0.537555 0.377147 0.208850
0.682534 0.375680 0.204163
0.829055 0.373739 0.200286
0.976518 0.371531 0.196727
1.000000 0.369136 0.193309
0.000000 0.503546 0.219684
0.132485 0.505176 0.220395
0.265749 0.506661 0.221043
0.399686 0.508012 0.221633
0.534917 0.509511 0.217338
0.677348 0.510155 0.206963
0.825392 0.510470 0.197000
0.975011 0.510180 0.188198
1.000000 0.509522 0.179975
0.000000 0.635590 0.221833
0.133659 0.637066 0.222348
0.270147 0.639341 0.220541
0.408148 0.641912 0.217641
0.546533 0.644347 0.214696
0.686328 0.647065 0.204323
0.831011 0.648599 0.190620
0.978385 0.648992 0.179397
1.000000 0.648719 0.169471
0.006793 0.770810 0.216574
0.144587 0.773398 0.213613
0.282744 0.775828 0.210613
0.421183 0.778104 0.207574
0.559823 0.780226 0.204500
0.698585 0.782194 0.201392
0.838921 0.784570 0.188172
0.983083 0.785742 0.173907
1.000000 0.785870 0.161824
0.017911 0.907466 0.206459
0.156196 0.909648 0.203372
0.294662 0.911651 0.200253
0.433227 0.913474 0.197102
0.571810 0.915113 0.193922
0.710324 0.916563 0.190713
0.848678 0.917814 0.187476
0.988722 0.919563 0.171481
1.000000 0.919996 0.156861
0.028930 1.000000 0.195948
0.167388 1.000000 0.192757
0.305838 1.000000 0.189538
0.444190 1.000000 0.186291
0.582347 1.000000 0.183018
0.720202 1.000000 0.179718
0.857624 1.000000 0.176391
0.994495 1.000000 0.171455
1.000000 1.000000 0.154349
0.000000 0.000000 0.290251
0.119941 0.000000 0.299293
0.244456 0.000000 0.304998
0.371804 0.000000 0.309258
0.501235 0.000000 0.312686
0.632314 0.000000 0.315566
0.764751 0.000000 0.318051
0.898330 0.000000 0.320232
1.000000 0.000000 0.322173
0.000000 0.118650 0.310583
0.125750 0.119874 0.313789
0.253683 0.120914 0.316511
0.383368 0.121818 0.318876
0.514505 0.122616 0.320964
0.646866 0.123328 0.322828
0.780271 0.123968 0.324505
0.914573 0.124548 0.326023
1.000000 0.125074 0.327401
0.000000 0.244239 0.319665
0.128908 0.245768 0.321667
0.259252 0.247137 0.323459
0.390820 0.248372 0.325075
0.523442 0.249491 0.326540
0.656970 0.250508 0.327871
0.791281 0.251435 0.329084
0.926264 0.252280 0.330190
1.000000 0.253050 0.331198
0.000000 0.373188 0.325625
0.131061 0.374809 0.327039
0.263153 0.376284 0.328326
0.396857 0.377610 0.327567
0.541295 0.376189 0.323409
0.687938 0.374056 0.320600
0.835424 0.371721 0.317898
0.983514 0.369248 0.315170
1.000000 0.367094 0.311279
0.000000 0.504116 0.329900
0.132621 0.505696 0.330934
0.265997 0.507135 0.331875
0.400024 0.508442 0.332730
0.535342 0.509793 0.329676
0.680373 0.510311 0.319713
0.829700 0.510090 0.311187
0.980240 0.509403 0.303457
1.000000 0.508444 0.296047
0.000000 0.636108 0.333021
0.133838 0.637567 0.333686
0.271449 0.640230 0.331041
0.409509 0.642754 0.328324
0.547933 0.645143 0.325541
0.687775 0.647716 0.316234
0.833275 0.648882 0.303459
0.981527 0.648877 0.293224
1.000000 0.648258 0.284134
0.007918 0.771707 0.327318
0.145776 0.774241 0.324512
0.283978 0.776618 0.321644
0.422444 0.778841 0.318716
0.561093 0.780911 0.315732
0.699846 0.782827 0.312694
0.840176 0.785050 0.300451
0.984842 0.785947 0.286763
1.000000 0.785757 0.275345
0.019029 0.908227 0.317636
0.157346 0.910348 0.314632
0.295825 0.912291 0.311574
0.434385 0.914052 0.308463
0.572943 0.915627 0.305301
0.711411 0.917010 0.302087
0.849697 0.918192 0.298822
0.989668 0.919766 0.283706
1.000000 0.919955 0.269418
0.030034 1.000000 0.307318
0.168491 1.000000 0.304137
0.306919 1.000000 0.300905
0.445229 1.000000 0.297621
0.583318 1.000000 0.294284
0.721075 1.000000 0.290892
0.858364 1.000000 0.287439
0.995024 1.000000 0.283177
1.000000 1.000000 0.265953
0.000000 0.000000 0.391953
0.120810 0.000000 0.401947
0.245711 0.000000 0.408753
0.373294 0.000000 0.413996
0.502886 0.000000 0.418289
0.634083 0.000000 0.421932
0.766605 0.000000 0.425096
0.900248 0.000000 0.427888
1.000000 0.000000 0.430380
0.000000 0.119090 0.415649
0.126140 0.120245 0.419679
0.254355 0.121235 0.423132
0.384254 0.122099 0.426151
0.515556 0.122866 0.428827
0.648046 0.123553 0.431223
0.781550 0.124172 0.433383
0.915927 0.124732 0.435340
1.000000 0.125242 0.437120
0.000000 0.244778 0.427161
0.129160 0.246249 0.429729
0.259706 0.247570 0.432035
0.391438 0.248764 0.434118
0.524189 0.249847 0.436008
0.657821 0.250833 0.437728
0.792212 0.251731 0.439295
0.927254 0.252550 0.440724
1.000000 0.253296 0.442026
0.000000 0.373756 0.434827
0.131241 0.375325 0.436653
0.263482 0.376754 0.438315
0.396589 0.378057 0.439831
0.530446 0.379244 0.441213
0.664949 0.380326 0.442471
0.800000 0.381308 0.443614
0.935511 0.382198 0.444649
1.000000 0.383879 0.443472
0.000000 0.504669 0.440349
0.132753 0.506200 0.441684
0.266237 0.507593 0.442900
0.400351 0.508857 0.444003
0.535969 0.509975 0.442391
0.684801 0.509888 0.434026
0.835605 0.509054 0.427119
0.987005 0.507992 0.420388
1.000000 0.506778 0.413662
0.000000 0.636609 0.444378
0.135059 0.638487 0.444130
0.272744 0.641102 0.441675
0.410859 0.643580 0.439127
0.549320 0.645925 0.436491
0.689280 0.648323 0.428311
0.836020 0.648952 0.416875
0.985379 0.648455 0.407845
1.000000 0.647453 0.399672
0.009043 0.772585 0.438178
0.146961 0.775066 0.435510
0.285206 0.777390 0.432760
0.423695 0.779562 0.429929
0.562350 0.781579 0.427020
0.701090 0.783443 0.424036
0.841456 0.785494 0.412800
0.986827 0.786034 0.399881
1.000000 0.785462 0.389269
0.020146 0.908967 0.428879
0.158492 0.911028 0.425942
0.296981 0.912909 0.422931
0.435533 0.914608 0.419845
0.574062 0.916119 0.416685
0.712480 0.917435 0.413451
0.850693 0.918546 0.410141
0.990615 0.919930 0.395917
1.000000 0.919824 0.382058
0.031136 1.000000 0.418703
0.169589 1.000000 0.415516
0.307992 1.000000 0.412255
0.446254 1.000000 0.408916
0.584270 1.000000 0.405498
0.721923 1.000000 0.401992
0.859068 1.000000 0.398390
0.995513 1.000000 0.394672
1.000000 1.000000 0.377409
0.000000 0.000000 0.494888
0.121576 0.000000 0.505622
0.246862 0.000000 0.513335
0.374688 0.000000 0.519427
0.504449 0.000000 0.524485
0.635769 0.000000 0.528817
0.768383 0.000000 0.532602
0.902093 0.000000 0.535957
1.000000 0.000000 0.538959
0.000000 0.119505 0.521368
0.126509 0.120597 0.526135
0.254997 0.121541 0.530251
0.385105 0.122370 0.533868
0.516569 0.123108 0.537087
0.649185 0.123770 0.539976
0.782788 0.124368 0.542586
0.917238 0.124911 0.544955
1.000000 0.125405 0.547109
0.000000 0.245296 0.535082
0.129404 0.246714 0.538174
0.260146 0.247989 0.540957
0.392035 0.249144 0.543475
0.524913 0.250192 0.545763
0.658646 0.251147 0.547845
0.793114 0.252018 0.549744
0.928213 0.252811 0.551475
1.000000 0.253534 0.553052
0.000000 0.374305 0.544333
0.131416 0.375825 0.546543
0.263801 0.377210 0.548557
0.397025 0.378473 0.550393
0.530976 0.379623 0.552066
0.665551 0.380670 0.553589
0.800655 0.381621 0.554971
0.936201 0.382480 0.556221
1.000000 0.384601 0.554110
0.000000 0.505205 0.551020
0.132881 0.506688 0.552638
0.266470 0.508036 0.554108
0.400667 0.509259 0.555441
0.536506 0.510831 0.555518
0.674964 0.513202 0.553281
0.813767 0.515463 0.550928
0.952835 0.517617 0.548462
1.000000 0.519666 0.545890
0.000000 0.637092 0.555894
0.136276 0.639391 0.554718
0.274032 0.641959 0.552438
0.412199 0.644391 0.550043
0.550693 0.646691 0.547538
0.691016 0.648816 0.540717
0.839822 0.648578 0.531436
0.990507 0.647501 0.523820
1.000000 0.646112 0.516555
0.010167 0.773445 0.549143
0.148143 0.775872 0.546600
0.286426 0.778145 0.543952
0.424937 0.780264 0.541203
0.563594 0.782230 0.538356
0.702318 0.784040 0.535411
0.842808 0.785882 0.525261
0.989222 0.785930 0.513437
1.000000 0.784895 0.503815
0.021262 0.909687 0.540178
0.159634 0.911687 0.537295
0.298130 0.913507 0.534315
0.436669 0.915142 0.531239
0.575166 0.916588 0.528067
0.713530 0.917836 0.524796
0.851664 0.918874 0.521423
0.991585 0.920045 0.508126
1.000000 0.919571 0.494852
0.032237 1.000000 0.530096
0.170681 1.000000 0.526887
0.309055 1.000000 0.523580
0.447264 1.000000 0.520169
0.585202 1.000000 0.516648
0.722743 1.000000 0.513006
0.859732 1.000000 0.509227
0.995956 1.000000 0.505279
1.000000 1.000000 0.488698
0.000000 0.000000 0.598842
0.122264 0.000000 0.610178
0.247926 0.000000 0.618657
0.375997 0.000000 0.625490
0.505932 0.000000 0.631233
0.637380 0.000000 0.636188
0.770090 0.000000 0.640542
0.903871 0.000000 0.644415
1.000000 0.000000 0.647891
0.000000 0.119895 0.627687
0.126860 0.120932 0.633116
0.255612 0.121834 0.637836
0.385923 0.122630 0.642003
0.517546 0.123340 0.645723
0.650286 0.123980 0.649070
0.783985 0.124558 0.652099
0.918508 0.125084 0.654851
1.000000 0.125562 0.657356
0.000000 0.245795 0.643404
0.129639 0.247162 0.646982
0.260570 0.248394 0.650208
0.392613 0.249511 0.653131
0.525614 0.250527 0.655790
0.659445 0.251452 0.658212
0.793988 0.252295 0.660420
0.929143 0.253064 0.662433
1.000000 0.253764 0.664264
0.000000 0.374838 0.654128
0.131586 0.376310 0.656698
0.264110 0.377652 0.659040
0.397448 0.378875 0.661175
0.531489 0.379990 0.663120
0.666134 0.381004 0.664889
0.801289 0.381923 0.666492
0.937912 0.383187 0.666895
1.000000 0.385313 0.664877
0.000000 0.505725 0.661904
0.133005 0.507161 0.663784
0.266695 0.508465 0.665491
0.400972 0.509646 0.667037
0.537997 0.511649 0.666177
0.676497 0.513982 0.664107
0.815325 0.516207 0.661899
0.954398 0.518325 0.659559
1.000000 0.520339 0.657090
0.000144 0.637618 0.667418
0.137490 0.640278 0.665440
0.275314 0.642800 0.663319
0.413529 0.645187 0.661062
0.552054 0.647442 0.658675
0.690807 0.649569 0.656160
0.829710 0.651566 0.653523
0.998261 0.645478 0.642491
1.000000 0.643863 0.635716
0.011291 0.774287 0.660208
0.149321 0.776661 0.657774
0.287640 0.778882 0.655214
0.426168 0.780949 0.652533
0.564825 0.782862 0.649732
0.703529 0.784620 0.646813
0.844384 0.786154 0.637978
0.992448 0.785465 0.627845
1.000000 0.783882 0.619409
0.022377 0.910386 0.651527
0.160770 0.912325 0.648683
0.299270 0.914083 0.645720
0.437794 0.915655 0.642639
0.576254 0.917035 0.639437
0.714560 0.918213 0.636113
0.852610 0.919176 0.632659
0.992624 0.920091 0.620370
1.000000 0.919132 0.607940
0.033335 1.000000 0.641487
0.171767 1.000000 0.638242
0.310108 1.000000 0.634871
0.448260 1.000000 0.631368
0.586112 1.000000 0.627724
0.723533 1.000000 0.623923
0.860354 1.000000 0.619936
0.996332 1.000000 0.615715
1.000000 1.000000 0.599797
0.000000 0.000000 0.703668
0.122889 0.000000 0.715511
0.248916 0.000000 0.724648
0.377231 0.000000 0.732135
0.507343 0.000000 0.738492
0.638922 0.000000 0.744015
0.771730 0.000000 0.748891
0.905584 0.000000 0.753243
1.000000 0.000000 0.757158
0.000000 0.120265 0.734561
0.127196 0.121252 0.740588
0.256202 0.122115 0.745858
0.386710 0.122880 0.750531
0.518488 0.123565 0.754715
0.651350 0.124183 0.758488
0.785143 0.124742 0.761907
0.919738 0.125251 0.765016
1.000000 0.125715 0.767848
0.000000 0.246275 0.752106
0.129866 0.247594 0.756133
0.260981 0.248785 0.759771
0.393172 0.249867 0.763073
0.526294 0.250850 0.766077
0.660219 0.251747 0.768816
0.794836 0.252565 0.771312
0.930043 0.253309 0.773587
1.000000 0.253987 0.775655
0.000000 0.375353 0.764199
0.131750 0.376780 0.767104
0.264409 0.378080 0.769752
0.397857 0.379266 0.772165
0.531986 0.380345 0.774363
0.666698 0.381326 0.776360
0.801900 0.382214 0.778168
0.939680 0.383919 0.777625
1.000000 0.386016 0.775767
0.000000 0.506228 0.772990
0.133125 0.507618 0.775113
0.266912 0.508880 0.777039
0.401328 0.510046 0.778719
0.539476 0.512454 0.776968
0.678014 0.514750 0.775050
0.816862 0.516938 0.772973
0.955939 0.519020 0.770742
1.000000 0.520999 0.768363
0.001270 0.638538 0.778101
0.138701 0.641150 0.776289
0.276589 0.643625 0.774312
0.414849 0.645967 0.772178
0.553401 0.648179 0.769893
0.692164 0.650261 0.767460
0.831058 0.652215 0.764884
0.970003 0.654041 0.762166
1.000000 0.655736 0.759307
0.012413 0.775111 0.771364
0.150495 0.777433 0.769024
0.288847 0.779601 0.766539
0.427389 0.781616 0.763911
0.566041 0.783477 0.761141
0.704722 0.785181 0.758232
0.847108 0.785942 0.751867
0.997737 0.784148 0.744329
1.000000 0.782043 0.736996
0.023490 0.911065 0.762919
0.161903 0.912943 0.760098
0.300403 0.914638 0.757138
0.438907 0.916145 0.754035
0.577327 0.917458 0.750789
0.715569 0.918565 0.747393
0.853529 0.919451 0.743839
0.993866 0.920012 0.732775
1.000000 0.918379 0.721629
0.034431 1.000000 0.752870
0.172848 1.000000 0.749570
0.311151 1.000000 0.746118
0.449241 1.000000 0.742504
0.587001 1.000000 0.738715
0.724292 1.000000 0.734727
0.860929 1.000000 0.730499
0.996628 1.000000 0.725953
1.000000 1.000000 0.710681
0.000000 0.000000 0.809261
0.123462 0.000000 0.821540
0.249842 0.000000 0.831249
0.378400 0.000000 0.839317
0.508688 0.000000 0.846229
0.640400 0.000000 0.852270
0.773309 0.000000 0.857626
0.907237 0.000000 0.862420
1.000000 0.000000 0.866743
0.000000 0.120616 0.841949
0.127516 0.121557 0.848518
0.256768 0.122385 0.854292
0.387468 0.123121 0.859431
0.519398 0.123782 0.864045
0.652379 0.124379 0.868213
0.786265 0.124921 0.871995
0.920930 0.125414 0.875437
1.000000 0.125863 0.878573
0.000000 0.246739 0.861167
0.130085 0.248012 0.865610
0.261378 0.249164 0.869632
0.393714 0.250211 0.873286
0.526952 0.251164 0.876613
0.660969 0.252033 0.879645
0.795656 0.252825 0.882410
0.930914 0.253547 0.884928
1.000000 0.254202 0.887215
0.000000 0.375853 0.874533
0.131909 0.377235 0.877749
0.264699 0.378495 0.880682
0.398254 0.379644 0.883354
0.532467 0.380689 0.885786
0.667243 0.381638 0.887994
0.802490 0.382495 0.889989
0.941424 0.384640 0.888486
1.000000 0.386710 0.886772
0.000000 0.506715 0.884267
0.133241 0.508060 0.886615
0.267123 0.509280 0.888744
0.402739 0.510877 0.889477
0.540940 0.513246 0.887884
0.679515 0.515505 0.886103
0.818381 0.517657 0.884141
0.957458 0.519704 0.882006
1.000000 0.521647 0.879701
0.002396 0.639440 0.888919
0.139907 0.642006 0.887257
0.277857 0.644436 0.885409
0.416160 0.646733 0.883384
0.554736 0.648901 0.881186
0.693504 0.650939 0.878820
0.832386 0.652850 0.876290
0.971301 0.654631 0.873597
1.000000 0.656281 0.870742
0.013536 0.775917 0.882603
0.151665 0.778186 0.880344
0.290046 0.780302 0.877918
0.428600 0.782265 0.875328
0.567244 0.784073 0.872576
0.705899 0.785724 0.869662
0.844477 0.787213 0.866583
0.982889 0.788533 0.863337
1.000000 0.789677 0.859917
0.024602 0.911723 0.874345
0.163030 0.913539 0.871534
0.301527 0.915171 0.868560
0.440008 0.916613 0.865421
0.578383 0.917857 0.862112
0.716557 0.918891 0.858627
0.854422 0.919699 0.854954
0.995865 0.919587 0.845883
1.000000 0.916981 0.836729
0.035524 1.000000 0.864236
0.173922 1.000000 0.860864
0.312184 1.000000 0.857312
0.450205 1.000000 0.853567
0.587866 1.000000 0.849608
0.725017 1.000000 0.845403
0.861451 1.000000 0.840894
0.996828 1.000000 0.835955
1.000000 1.000000 1.000000
