mini_run_pipeline/luts/golden_hour_warmth.cube
TITLE "Golden Hour Warmth Sunset Radiance"
LUT_3D_SIZE 33
DOMAIN_MIN 0.0 0.0 0.0
DOMAIN_MAX 1.0 1.0 1.0
0.000000 0.000000 0.000000
0.029990 0.000000 0.000000
0.061739 0.000000 0.000000
0.094221 0.000000 0.000000
0.127205 0.000000 0.000000
0.160576 0.000000 0.000000
0.194267 0.000000 0.000000
0.228231 0.000000 0.000000
0.262436 0.000000 0.000000
0.296854 0.000000 0.000000
0.331467 0.000000 0.000000
0.366257 0.000000 0.000000
0.401211 0.000000 0.000000
0.436317 0.000000 0.000000
0.471565 0.000000 0.000000
0.506947 0.000000 0.000000
0.542455 0.000000 0.000000
0.578082 0.000000 0.000000
0.613821 0.000000 0.000000
0.649667 0.000000 0.000000
0.685616 0.000000 0.000000
0.721661 0.000000 0.000000
0.757800 0.000000 0.000000
0.794028 0.000000 0.000000
0.830341 0.000000 0.000000
0.866735 0.000000 0.000000
0.903208 0.000000 0.000000
0.939757 0.000000 0.000000
0.976378 0.000000 0.000000
1.000000 0.000000 0.000000
1.000000 0.000000 0.000000
1.000000 0.000000 0.000000
1.000000 0.000000 0.000000
0.000000 0.027490 0.000000
0.029210 0.027828 0.000000
0.060631 0.027756 0.000000
0.093205 0.027355 0.000000
0.126326 0.026847 0.000000
0.159831 0.026281 0.000000
0.193644 0.025678 0.000000
0.227718 0.025048 0.000000
0.262022 0.024396 0.000000
0.296530 0.023726 0.000000
0.331224 0.023041 0.000000
0.366089 0.022344 0.000000
0.401112 0.021635 0.000000
0.436281 0.020917 0.000000
0.471588 0.020190 0.000000
0.507024 0.019454 0.000000
0.542582 0.018712 0.000000
0.578254 0.017962 0.000000
0.614036 0.017207 0.000000
0.649922 0.016446 0.000000
0.685907 0.015679 0.000000
0.721986 0.014908 0.000000
0.758156 0.014132 0.000000
0.794412 0.013351 0.000000
0.830750 0.012566 0.000000
0.867168 0.011778 0.000000
0.903662 0.010985 0.000000
0.940229 0.010189 0.000000
0.976867 0.009390 0.000000
1.000000 0.008587 0.000000
1.000000 0.007781 0.000000
1.000000 0.006973 0.000000
1.000000 0.006161 0.000000
0.000000 0.056693 0.000000
0.029925 0.057053 0.000000
0.060276 0.057424 0.000000
0.092230 0.057524 0.000000
0.125181 0.057305 0.000000
0.158668 0.056945 0.000000
0.192525 0.056505 0.000000
0.226668 0.056011 0.000000
0.261051 0.055479 0.000000
0.295641 0.054917 0.000000
0.330416 0.054331 0.000000
0.365360 0.053726 0.000000
0.400458 0.053103 0.000000
0.435698 0.052466 0.000000
0.471072 0.051815 0.000000
0.506571 0.051153 0.000000
0.542188 0.050480 0.000000
0.577916 0.049798 0.000000
0.613749 0.049107 0.000000
0.649683 0.048407 0.000000
0.685713 0.047701 0.000000
0.721834 0.046987 0.000000
0.758041 0.046266 0.000000
0.794333 0.045539 0.000000
0.830704 0.044807 0.000000
0.867152 0.044068 0.000000
0.903673 0.043325 0.000000
0.940265 0.042577 0.000000
0.976925 0.041824 0.000000
1.000000 0.041067 0.000000
1.000000 0.040305 0.000000
1.000000 0.039539 0.000000
1.000000 0.038769 0.000000
0.000000 0.086647 0.000000
0.030434 0.087034 0.000000
0.061118 0.087393 0.000000
0.092164 0.087803 0.000000
0.124519 0.087995 0.000000
0.157739 0.087901 0.000000
0.191477 0.087654 0.000000
0.225579 0.087314 0.000000
0.259964 0.086909 0.000000
0.294580 0.086457 0.000000
0.329395 0.085969 0.000000
0.364386 0.085451 0.000000
0.399536 0.084910 0.000000
0.434829 0.084347 0.000000
0.470257 0.083767 0.000000
0.505808 0.083171 0.000000
0.541476 0.082562 0.000000
0.577253 0.081939 0.000000
0.613134 0.081305 0.000000
0.649113 0.080661 0.000000
0.685184 0.080007 0.000000
0.721345 0.079344 0.000000
0.757590 0.078673 0.000000
0.793916 0.077993 0.000000
0.830319 0.077307 0.000000
0.866797 0.076614 0.000000
0.903345 0.075914 0.000000
0.939962 0.075208 0.000000
0.976644 0.074496 0.000000
1.000000 0.073778 0.000000
1.000000 0.073055 0.000000
1.000000 0.072327 0.000000
1.000000 0.071594 0.000000
0.000000 0.117124 0.000000
0.030823 0.117532 0.000000
0.061848 0.117916 0.000000
0.093058 0.118280 0.000000
0.124624 0.118728 0.000000
0.157311 0.118978 0.000000
0.190754 0.118973 0.000000
0.224690 0.118816 0.000000
0.258984 0.118558 0.000000
0.293555 0.118228 0.000000
0.328355 0.117845 0.000000
0.363350 0.117420 0.000000
0.398516 0.116961 0.000000
0.433835 0.116475 0.000000
0.469292 0.115964 0.000000
0.504877 0.115433 0.000000
0.540579 0.114884 0.000000
0.576392 0.114319 0.000000
0.612308 0.113740 0.000000
0.648321 0.113147 0.000000
0.684427 0.112542 0.000000
0.720620 0.111927 0.000000
0.756896 0.111301 0.000000
0.793251 0.110665 0.000000
0.829681 0.110021 0.000000
0.866184 0.109368 0.000000
0.902756 0.108708 0.000000
0.939395 0.108040 0.000000
0.976096 0.107365 0.000000
1.000000 0.106684 0.000000
1.000000 0.105996 0.000000
1.000000 0.105302 0.000000
1.000000 0.104602 0.000000
0.000000 0.148009 0.000000
0.031142 0.148432 0.000000
0.062453 0.148836 0.000000
0.093921 0.149221 0.000000
0.125538 0.149590 0.000000
0.157528 0.150074 0.000000
0.190496 0.150365 0.000000
0.224137 0.150427 0.000000
0.258242 0.150341 0.000000
0.292693 0.150151 0.000000
0.327418 0.149885 0.000000
0.362368 0.149562 0.000000
0.397510 0.149192 0.000000
0.432820 0.148785 0.000000
0.468278 0.148347 0.000000
0.503872 0.147883 0.000000
0.539589 0.147395 0.000000
0.575419 0.146887 0.000000
0.611355 0.146361 0.000000
0.647390 0.145818 0.000000
0.683517 0.145262 0.000000
0.719732 0.144691 0.000000
0.756029 0.144109 0.000000
0.792405 0.143515 0.000000
0.828856 0.142911 0.000000
0.865377 0.142296 0.000000
0.901967 0.141673 0.000000
0.938621 0.141041 0.000000
0.975337 0.140400 0.000000
1.000000 0.139752 0.000000
1.000000 0.139097 0.000000
1.000000 0.138434 0.000000
1.000000 0.137765 0.000000
0.000000 0.179229 0.000000
0.031412 0.179664 0.000000
0.062970 0.180083 0.000000
0.094666 0.180485 0.000000
0.126492 0.180872 0.000000
0.158441 0.181245 0.000000
0.190791 0.181763 0.000000
0.224005 0.182084 0.000000
0.257823 0.182197 0.000000
0.292076 0.182167 0.000000
0.326663 0.182035 0.000000
0.361517 0.181824 0.000000
0.396592 0.181552 0.000000
0.431857 0.181231 0.000000
0.467287 0.180870 0.000000
0.502864 0.180475 0.000000
0.538571 0.180051 0.000000
0.574399 0.179601 0.000000
0.610337 0.179129 0.000000
0.646378 0.178638 0.000000
0.682513 0.178129 0.000000
0.718737 0.177603 0.000000
0.755044 0.177064 0.000000
0.791431 0.176510 0.000000
0.827892 0.175944 0.000000
0.864424 0.175367 0.000000
0.901023 0.174779 0.000000
0.937686 0.174180 0.000000
0.974410 0.173573 0.000000
1.000000 0.172956 0.000000
1.000000 0.172330 0.000000
1.000000 0.171697 0.000000
1.000000 0.171056 0.000000
0.000000 0.210732 0.000000
0.031647 0.211177 0.000000
0.063423 0.211607 0.000000
0.095321 0.212022 0.000000
0.127335 0.212423 0.000000
0.159460 0.212811 0.000000
0.191690 0.213188 0.000000
0.224354 0.213738 0.000000
0.257784 0.214081 0.000000
0.291762 0.214234 0.000000
0.326147 0.214250 0.000000
0.360853 0.214165 0.000000
0.395819 0.214001 0.000000
0.431002 0.213774 0.000000
0.466371 0.213495 0.000000
0.501902 0.213174 0.000000
0.537577 0.212817 0.000000
0.573381 0.212429 0.000000
0.609303 0.212013 0.000000
0.645331 0.211574 0.000000
0.681459 0.211113 0.000000
0.717678 0.210633 0.000000
0.753984 0.210136 0.000000
0.790370 0.209623 0.000000
0.826831 0.209095 0.000000
0.863364 0.208553 0.000000
0.899963 0.208000 0.000000
0.936627 0.207434 0.000000
0.973351 0.206857 0.000000
1.000000 0.206271 0.000000
1.000000 0.205674 0.000000
1.000000 0.205068 0.000000
1.000000 0.204454 0.000000
0.000000 0.242480 0.000000
0.031855 0.242933 0.000000
0.063825 0.243371 0.000000
0.095905 0.243796 0.000000
0.128090 0.244208 0.000000
0.160374 0.244608 0.000000
0.192754 0.244996 0.000000
0.225227 0.245374 0.000000
0.258170 0.245954 0.000000
0.291793 0.246313 0.000000
0.325914 0.246497 0.000000
0.360420 0.246551 0.000000
0.395232 0.246506 0.000000
0.430295 0.246381 0.000000
0.465570 0.246192 0.000000
0.501028 0.245951 0.000000
0.536645 0.245665 0.000000
0.572403 0.245341 0.000000
0.608287 0.244985 0.000000
0.644287 0.244599 0.000000
0.680391 0.244188 0.000000
0.716591 0.243755 0.000000
0.752881 0.243301 0.000000
0.789254 0.242828 0.000000
0.825704 0.242338 0.000000
0.862227 0.241832 0.000000
0.898818 0.241312 0.000000
0.935474 0.240779 0.000000
0.972190 0.240233 0.000000
1.000000 0.239675 0.000000
1.000000 0.239106 0.000000
1.000000 0.238527 0.000000
1.000000 0.237938 0.000000
0.000000 0.274441 0.000000
0.032042 0.274899 0.000000
0.064187 0.275345 0.000000
0.096432 0.275777 0.000000
0.128772 0.276197 0.000000
0.161203 0.276606 0.000000
0.193721 0.277003 0.000000
0.226324 0.277390 0.000000
0.259015 0.277800 0.000000
0.292202 0.278376 0.000000
0.325996 0.278746 0.000000
0.360248 0.278955 0.000000
0.394862 0.279039 0.000000
0.429767 0.279026 0.000000
0.464916 0.278935 0.000000
0.500271 0.278779 0.000000
0.535805 0.278570 0.000000
0.571494 0.278314 0.000000
0.607322 0.278020 0.000000
0.643274 0.277691 0.000000
0.679338 0.277332 0.000000
0.715504 0.276946 0.000000
0.751764 0.276536 0.000000
0.788111 0.276104 0.000000
0.824539 0.275653 0.000000
0.861041 0.275183 0.000000
0.897613 0.274697 0.000000
0.934251 0.274195 0.000000
0.970950 0.273680 0.000000
1.000000 0.273150 0.000000
1.000000 0.272608 0.000000
1.000000 0.272055 0.000000
1.000000 0.271490 0.000000
0.000000 0.306590 0.000000
0.032210 0.307052 0.000000
0.064515 0.307502 0.000000
0.096910 0.307939 0.000000
0.129392 0.308365 0.000000
0.161958 0.308780 0.000000
0.194604 0.309184 0.000000
0.227327 0.309578 0.000000
0.260125 0.309962 0.000000
0.293018 0.310407 0.000000
0.326418 0.310973 0.000000
0.360364 0.311350 0.000000
0.394735 0.311577 0.000000
0.429445 0.311686 0.000000
0.464434 0.311700 0.000000
0.499658 0.311636 0.000000
0.535082 0.311508 0.000000
0.570680 0.311326 0.000000
0.606430 0.311097 0.000000
0.642315 0.310827 0.000000
0.678322 0.310522 0.000000
0.714439 0.310186 0.000000
0.750656 0.309822 0.000000
0.786964 0.309432 0.000000
0.823356 0.309020 0.000000
0.859827 0.308587 0.000000
0.896370 0.308135 0.000000
0.932980 0.307665 0.000000
0.969652 0.307179 0.000000
1.000000 0.306678 0.000000
1.000000 0.306163 0.000000
1.000000 0.305634 0.000000
1.000000 0.305093 0.000000
0.000000 0.338905 0.000000
0.032364 0.339369 0.000000
0.064814 0.339821 0.000000
0.097348 0.340262 0.000000
0.129961 0.340691 0.000000
0.162650 0.341110 0.000000
0.195414 0.341518 0.000000
0.228249 0.341917 0.000000
0.261153 0.342306 0.000000
0.294123 0.342685 0.000000
0.327203 0.343161 0.000000
0.360788 0.343717 0.000000
0.394871 0.344099 0.000000
0.429347 0.344339 0.000000
0.464144 0.344467 0.000000
0.499208 0.344502 0.000000
0.534497 0.344462 0.000000
0.569980 0.344357 0.000000
0.605631 0.344197 0.000000
0.641432 0.343990 0.000000
0.677365 0.343742 0.000000
0.713416 0.343457 0.000000
0.749575 0.343140 0.000000
0.785831 0.342794 0.000000
0.822176 0.342422 0.000000
0.858603 0.342026 0.000000
0.895105 0.341609 0.000000
0.931677 0.341171 0.000000
0.968314 0.340715 0.000000
1.000000 0.340242 0.000000
1.000000 0.339753 0.000000
1.000000 0.339249 0.000000
1.000000 0.338730 0.000000
0.000000 0.371366 0.000000
0.032505 0.371830 0.000000
0.065089 0.372283 0.000000
0.097749 0.372725 0.000000
0.130483 0.373156 0.000000
0.163287 0.373576 0.000000
0.196160 0.373987 0.000000
0.229099 0.374388 0.000000
0.262101 0.374779 0.000000
0.295164 0.375162 0.000000
0.328287 0.375536 0.000000
0.361539 0.376040 0.000000
0.395288 0.376584 0.000000
0.429493 0.376967 0.000000
0.464064 0.377217 0.000000
0.498937 0.377359 0.000000
0.534065 0.377411 0.000000
0.569411 0.377389 0.000000
0.604943 0.377303 0.000000
0.640640 0.377162 0.000000
0.676481 0.376973 0.000000
0.712451 0.376742 0.000000
0.748537 0.376475 0.000000
0.784727 0.376174 0.000000
0.821012 0.375843 0.000000
0.857384 0.375485 0.000000
0.893835 0.375102 0.000000
0.930359 0.374697 0.000000
0.966950 0.374271 0.000000
1.000000 0.373826 0.000000
1.000000 0.373363 0.000000
1.000000 0.372883 0.000000
1.000000 0.372388 0.000000
0.000000 0.403956 0.000000
0.032634 0.404419 0.000000
0.065341 0.404871 0.000000
0.098118 0.405312 0.000000
0.130964 0.405743 0.000000
0.163874 0.406163 0.000000
0.196848 0.406574 0.000000
0.229883 0.406975 0.000000
0.262976 0.407367 0.000000
0.296126 0.407750 0.000000
0.329331 0.408125 0.000000
0.362589 0.408490 0.000000
0.396001 0.409021 0.000000
0.429894 0.409553 0.000000
0.464206 0.409934 0.000000
0.498861 0.410189 0.000000
0.533803 0.410341 0.000000
0.568987 0.410406 0.000000
0.604379 0.410398 0.000000
0.639953 0.410326 0.000000
0.675685 0.410200 0.000000
0.711558 0.410026 0.000000
0.747556 0.409809 0.000000
0.783667 0.409555 0.000000
0.819879 0.409267 0.000000
0.856183 0.408948 0.000000
0.892572 0.408601 0.000000
0.929037 0.408229 0.000000
0.965573 0.407834 0.000000
1.000000 0.407417 0.000000
1.000000 0.406980 0.000000
1.000000 0.406524 0.000000
1.000000 0.406217 0.000000
0.000000 0.436660 0.000000
0.032753 0.437120 0.000000
0.065574 0.437569 0.000000
0.098460 0.438007 0.000000
0.131408 0.438436 0.000000
0.164417 0.438854 0.000000
0.197484 0.439263 0.000000
0.230608 0.439663 0.000000
0.263786 0.440054 0.000000
0.297016 0.440435 0.000000
0.330298 0.440808 0.000000
0.363628 0.441173 0.000000
0.397005 0.441529 0.000000
0.430565 0.442083 0.000000
0.464584 0.442601 0.000000
0.498991 0.442978 0.000000
0.533720 0.443235 0.000000
0.568720 0.443393 0.000000
0.603951 0.443467 0.000000
0.639383 0.443469 0.000000
0.674989 0.443408 0.000000
0.710748 0.443293 0.000000
0.746644 0.443130 0.000000
0.782661 0.442924 0.000000
0.818788 0.442680 0.000000
0.855013 0.442401 0.000000
0.891327 0.442091 0.000000
0.927723 0.441753 0.000000
0.964193 0.441388 0.000000
1.000000 0.441291 0.000000
1.000000 0.441229 0.000000
1.000000 0.441146 0.000000
1.000000 0.441046 0.000000
0.000000 0.469462 0.000000
0.032863 0.469917 0.000000
0.065789 0.470362 0.000000
0.098775 0.470796 0.000000
0.131819 0.471221 0.000000
0.164919 0.471636 0.000000
0.198072 0.472042 0.000000
0.231278 0.472438 0.000000
0.264535 0.472825 0.000000
0.297840 0.473203 0.000000
0.331192 0.473573 0.000000
0.364589 0.473934 0.000000
0.398029 0.474287 0.000000
0.431511 0.474632 0.000000
0.465208 0.475207 0.000000
0.499337 0.475710 0.000000
0.533828 0.476080 0.000000
0.568620 0.476336 0.000000
0.603669 0.476497 0.000000
0.638940 0.476575 0.000000
0.674402 0.476584 0.000000
0.710032 0.476530 0.000000
0.745810 0.476422 0.000000
0.781720 0.476267 0.000000
0.817748 0.476068 0.000000
0.854053 0.475900 0.000000
0.891127 0.475974 0.000000
0.928285 0.476017 0.000000
0.965520 0.476031 0.000000
1.000000 0.476019 0.000000
1.000000 0.475983 0.000000
1.000000 0.475925 0.000000
1.000000 0.475846 0.000000
0.000000 0.502349 0.000000
0.032965 0.502798 0.000000
0.065988 0.503237 0.000000
0.099067 0.503666 0.000000
0.132199 0.504085 0.000000
0.165383 0.504495 0.000000
0.198617 0.504895 0.000000
0.231899 0.505286 0.000000
0.265228 0.505668 0.000000
0.298601 0.506041 0.000000
0.332018 0.506405 0.000000
0.365477 0.506761 0.000000
0.398975 0.507109 0.000000
0.432513 0.507448 0.000000
0.466087 0.507780 0.000000
0.499909 0.508374 0.000000
0.534134 0.508861 0.000000
0.568696 0.509220 0.000000
0.603542 0.509472 0.000000
0.638632 0.509632 0.000000
0.673933 0.509712 0.000000
0.709417 0.509723 0.000000
0.745544 0.509869 0.000000
0.782181 0.510110 0.000000
0.818944 0.510303 0.000000
0.855819 0.510454 0.000000
0.892795 0.510567 0.000000
0.929861 0.510644 0.000000
0.967008 0.510691 0.000000
1.000000 0.510708 0.000000
1.000000 0.510698 0.000000
1.000000 0.510664 0.000000
1.000000 0.510606 0.000000
0.000000 0.535308 0.000000
0.033060 0.535750 0.000000
0.066172 0.536182 0.000000
0.099337 0.536603 0.000000
0.132550 0.537015 0.000000
0.165812 0.537417 0.000000
0.199120 0.537811 0.000000
0.232473 0.538194 0.000000
0.265868 0.538569 0.000000
0.299305 0.538936 0.000000
0.332782 0.539293 0.000000
0.366297 0.539642 0.000000
0.399848 0.539982 0.000000
0.433436 0.540314 0.000000
0.467057 0.540638 0.000000
0.500715 0.540984 0.000000
0.534647 0.541566 0.000000
0.568955 0.542034 0.000000
0.603577 0.542381 0.000000
0.639254 0.542948 0.000000
0.675224 0.543448 0.000000
0.711396 0.543870 0.000000
0.747744 0.544225 0.000000
0.784246 0.544519 0.000000
0.820885 0.544761 0.000000
0.857644 0.544955 0.000000
0.894511 0.545107 0.000000
0.931474 0.545220 0.000000
0.968523 0.545299 0.000000
1.000000 0.545345 0.000000
1.000000 0.545361 0.000000
1.000000 0.545350 0.000000
1.000000 0.545314 0.000000
0.000000 0.568328 0.000000
0.033147 0.568760 0.000000
0.066343 0.569183 0.000000
0.099586 0.569596 0.000000
0.132875 0.569999 0.000000
0.166209 0.570392 0.000000
0.199585 0.570776 0.000000
0.233002 0.571152 0.000000
0.266459 0.571518 0.000000
0.299954 0.571875 0.000000
0.333485 0.572224 0.000000
0.367052 0.572564 0.000000
0.400652 0.572895 0.000000
0.434284 0.573218 0.000000
0.467948 0.573533 0.000000
0.501885 0.573941 0.000000
0.536453 0.574661 0.000000
0.571322 0.575565 0.000000
0.606549 0.576357 0.000000
0.642074 0.577033 0.000000
0.677853 0.577609 0.000000
0.713851 0.578100 0.000000
0.750040 0.578515 0.000000
0.786395 0.578864 0.000000
0.822897 0.579155 0.000000
0.859529 0.579393 0.000000
0.896276 0.579584 0.000000
0.933126 0.579733 0.000000
0.970068 0.579843 0.000000
1.000000 0.579918 0.000000
1.000000 0.579960 0.000000
1.000000 0.579972 0.000000
1.000000 0.579957 0.000000
0.000000 0.601396 0.000000
0.033227 0.601818 0.000000
0.066500 0.602229 0.000000
0.099817 0.602632 0.000000
0.133176 0.603024 0.000000
0.166575 0.603407 0.000000
0.200014 0.603781 0.000000
0.233491 0.604145 0.000000
0.267004 0.604501 0.000000
0.300551 0.604848 0.000000
0.334132 0.605185 0.000000
0.367745 0.605515 0.000000
0.401935 0.606063 0.000000
0.436437 0.606720 0.000000
0.470968 0.607369 0.000000
0.505524 0.608010 0.000000
0.540106 0.608643 0.000000
0.574757 0.609403 0.000000
0.609728 0.610275 0.000000
0.645027 0.611038 0.000000
0.680601 0.611692 0.000000
0.716413 0.612251 0.000000
0.752430 0.612728 0.000000
0.788627 0.613133 0.000000
0.824981 0.613473 0.000000
0.861474 0.613755 0.000000
0.898091 0.613986 0.000000
0.934817 0.614171 0.000000
0.971641 0.614313 0.000000
1.000000 0.614416 0.000000
1.000000 0.614484 0.000000
1.000000 0.614518 0.000000
1.000000 0.614522 0.000000
0.000000 0.634501 0.000000
0.033302 0.634910 0.000000
0.066645 0.635310 0.000000
0.100029 0.635700 0.000000
0.133452 0.636080 0.000000
0.166912 0.636451 0.000000
0.200409 0.636812 0.000000
0.233939 0.637165 0.000000
0.267522 0.637515 0.000000
0.301947 0.638195 0.000000
0.336402 0.638866 0.000000
0.370886 0.639528 0.000000
0.405398 0.640181 0.000000
0.439936 0.640825 0.000000
0.474499 0.641461 0.000000
0.509086 0.642089 0.000000
0.543695 0.642707 0.000000
0.578325 0.643318 0.000000
0.613057 0.644114 0.000000
0.648111 0.644952 0.000000
0.683468 0.645685 0.000000
0.719080 0.646314 0.000000
0.754914 0.646854 0.000000
0.790940 0.647314 0.000000
0.827135 0.647704 0.000000
0.863479 0.648031 0.000000
0.899955 0.648302 0.000000
0.936548 0.648522 0.000000
0.973244 0.648695 0.000000
1.000000 0.648826 0.000000
1.000000 0.648919 0.000000
1.000000 0.648975 0.000000
1.000000 0.648998 0.000000
0.000000 0.667631 0.000000
0.033370 0.668027 0.000000
0.066779 0.668413 0.000000
0.100225 0.668789 0.000000
0.133706 0.669155 0.000000
0.167542 0.669645 0.000000
0.201920 0.670338 0.000000
0.236329 0.671022 0.000000
0.270768 0.671696 0.000000
0.305236 0.672361 0.000000
0.339731 0.673018 0.000000
0.374252 0.673665 0.000000
0.408798 0.674303 0.000000
0.443367 0.674932 0.000000
0.477958 0.675553 0.000000
0.512570 0.676165 0.000000
0.547202 0.676768 0.000000
0.581852 0.677362 0.000000
0.616519 0.677948 0.000000
0.651329 0.678775 0.000000
0.686450 0.679578 0.000000
0.721851 0.680278 0.000000
0.757489 0.680881 0.000000
0.793333 0.681397 0.000000
0.829358 0.681837 0.000000
0.865542 0.682209 0.000000
0.901867 0.682519 0.000000
0.938316 0.682774 0.000000
0.974876 0.682978 0.000000
1.000000 0.683137 0.000000
1.000000 0.683253 0.000000
1.000000 0.683330 0.000000
1.000000 0.683371 0.000000
0.000000 0.700777 0.000000
0.033433 0.701157 0.000000
0.067524 0.701786 0.000000
0.101855 0.702492 0.000000
0.136219 0.703188 0.000000
0.170614 0.703875 0.000000
0.205039 0.704552 0.000000
0.239492 0.705219 0.000000
0.273972 0.705878 0.000000
0.308478 0.706526 0.000000
0.343008 0.707166 0.000000
0.377561 0.707796 0.000000
0.412136 0.708417 0.000000
0.446732 0.709029 0.000000
0.481346 0.709633 0.000000
0.515979 0.710227 0.000000
0.550629 0.710812 0.000000
0.585294 0.711388 0.000000
0.619973 0.711955 0.000000
0.654665 0.712517 0.000000
0.689548 0.713367 0.000000
0.724721 0.714132 0.000000
0.760152 0.714798 0.000000
0.795804 0.715371 0.000000
0.831648 0.715860 0.000000
0.867662 0.716276 0.000000
0.903825 0.716626 0.000000
0.940121 0.716915 0.000000
0.976533 0.717150 0.000000
1.000000 0.717335 0.000000
1.000000 0.717474 0.000000
1.000000 0.717571 0.000000
1.000000 0.717629 0.000000
0.001753 0.734657 0.000000
0.036073 0.735365 0.000000
0.070425 0.736063 0.000000
0.104807 0.736752 0.000000
0.139219 0.737430 0.000000
0.173659 0.738099 0.000000
0.208126 0.738758 0.000000
0.242618 0.739408 0.000000
0.277134 0.740047 0.000000
0.311673 0.740678 0.000000
0.346233 0.741299 0.000000
0.380814 0.741910 0.000000
0.415413 0.742512 0.000000
0.450030 0.743105 0.000000
0.484664 0.743688 0.000000
0.519313 0.744262 0.000000
0.553976 0.744827 0.000000
0.588651 0.745383 0.000000
0.623338 0.745929 0.000000
0.658035 0.746466 0.000000
0.692754 0.747062 0.000000
0.727692 0.747870 0.000000
0.762901 0.748594 0.000000
0.798349 0.749223 0.000000
0.834002 0.749762 0.000000
0.869835 0.750222 0.000000
0.905827 0.750610 0.000000
0.941958 0.750933 0.000000
0.978214 0.751198 0.000000
1.000000 0.751408 0.000000
1.000000 0.751569 0.000000
1.000000 0.751684 0.000000
1.000000 0.751757 0.000000
0.004542 0.768961 0.000000
0.038914 0.769651 0.000000
0.073314 0.770330 0.000000
0.107743 0.770999 0.000000
0.142198 0.771658 0.000000
0.176677 0.772307 0.000000
0.211181 0.772946 0.000000
0.245707 0.773575 0.000000
0.280254 0.774195 0.000000
0.314821 0.774804 0.000000
0.349407 0.775404 0.000000
0.384010 0.775994 0.000000
0.418630 0.776575 0.000000
0.453264 0.777146 0.000000
0.487911 0.777707 0.000000
0.522572 0.778259 0.000000
0.557243 0.778801 0.000000
0.591924 0.779334 0.000000
0.626614 0.779857 0.000000
0.661311 0.780370 0.000000
0.696015 0.780874 0.000000
0.730757 0.781497 0.000000
0.765734 0.782260 0.000000
0.800965 0.782942 0.000000
0.836416 0.783530 0.000000
0.872058 0.784033 0.000000
0.907867 0.784459 0.000000
0.943825 0.784815 0.000000
0.979914 0.785107 0.000000
1.000000 0.785341 0.000000
1.000000 0.785522 0.000000
1.000000 0.785654 0.000000
1.000000 0.785740 0.000000
0.007329 0.803248 0.000000
0.041748 0.803916 0.000000
0.076192 0.804574 0.000000
0.110661 0.805221 0.000000
0.145154 0.805859 0.000000
0.179669 0.806486 0.000000
0.214204 0.807103 0.000000
0.248759 0.807710 0.000000
0.283333 0.808307 0.000000
0.317923 0.808893 0.000000
0.352530 0.809470 0.000000
0.387151 0.810037 0.000000
0.421785 0.810594 0.000000
0.456431 0.811140 0.000000
0.491088 0.811677 0.000000
0.525755 0.812204 0.000000
0.560430 0.812721 0.000000
0.595112 0.813228 0.000000
0.629800 0.813725 0.000000
0.664492 0.814212 0.000000
0.699188 0.814689 0.000000
0.733886 0.815155 0.000000
0.768648 0.815801 0.000000
0.803648 0.816516 0.000000
0.838885 0.817151 0.000000
0.874326 0.817696 0.000000
0.909943 0.818158 0.000000
0.945717 0.818545 0.000000
0.981629 0.818864 0.000000
1.000000 0.819121 0.000000
1.000000 0.819320 0.000000
1.000000 0.819466 0.000000
1.000000 0.819563 0.000000
0.010114 0.837504 0.000000
0.044574 0.838149 0.000000
0.079057 0.838784 0.000000
0.113562 0.839408 0.000000
0.148087 0.840022 0.000000
0.182632 0.840625 0.000000
0.217195 0.841218 0.000000
0.251774 0.841800 0.000000
0.286369 0.842372 0.000000
0.320978 0.842933 0.000000
0.355600 0.843484 0.000000
0.390234 0.844025 0.000000
0.424879 0.844556 0.000000
0.459532 0.845076 0.000000
0.494194 0.845585 0.000000
0.528862 0.846085 0.000000
0.563536 0.846574 0.000000
0.598214 0.847052 0.000000
0.632895 0.847520 0.000000
0.667578 0.847978 0.000000
0.702261 0.848425 0.000000
0.736943 0.848861 0.000000
0.771622 0.849287 0.000000
0.806398 0.849949 0.000000
0.841406 0.850612 0.000000
0.876633 0.851197 0.000000
0.912049 0.851693 0.000000
