mini_run_pipeline/luts/kodak_2383_print.cube
TITLE "Kodak Vision Color Print Film 2383 Emulation"
LUT_3D_SIZE 33
DOMAIN_MIN 0.0 0.0 0.0
DOMAIN_MAX 1.0 1.0 1.0
0.000000 0.000000 0.000000
0.024668 0.000000 0.009603
0.037918 0.000000 0.009054
0.052987 0.000000 0.008432
0.069376 0.000000 0.007758
0.086820 0.000000 0.007043
0.105145 0.000000 0.006294
0.124228 0.000000 0.005518
0.143972 0.000000 0.004717
0.164300 0.000000 0.003896
0.185150 0.000000 0.003057
0.206467 0.000000 0.002204
0.228202 0.000000 0.001338
0.250315 0.000000 0.000462
0.272766 0.000000 0.000000
0.295523 0.000000 0.000000
0.318553 0.000000 0.000000
0.341828 0.000000 0.000000
0.365321 0.000000 0.000000
0.389006 0.000000 0.000000
0.412860 0.000000 0.000000
0.436861 0.000000 0.000000
0.460987 0.000000 0.000000
0.485220 0.000000 0.000000
0.509540 0.000000 0.000000
0.533930 0.000000 0.000000
0.558371 0.000000 0.000000
0.582849 0.000000 0.000000
0.607348 0.000000 0.000000
0.631853 0.000000 0.000000
0.656350 0.000000 0.000000
0.680826 0.000000 0.000000
0.705268 0.000000 0.000000
0.000000 0.027082 0.038191
0.000000 0.027710 0.037502
0.021146 0.018158 0.021774
0.046118 0.015166 0.016015
0.067939 0.013758 0.012729
0.088946 0.012952 0.010420
0.109857 0.012427 0.008592
0.130940 0.012048 0.007034
0.152301 0.011750 0.005640
0.173976 0.011499 0.004353
0.195974 0.011275 0.003140
0.218286 0.011066 0.001980
0.240895 0.010866 0.000859
0.263782 0.010669 0.000000
0.286925 0.010473 0.000000
0.310303 0.010275 0.000000
0.333894 0.010075 0.000000
0.357676 0.009873 0.000000
0.381628 0.009667 0.000000
0.405730 0.009458 0.000000
0.429963 0.009246 0.000000
0.454308 0.009031 0.000000
0.478747 0.008813 0.000000
0.503262 0.008593 0.000000
0.527838 0.008371 0.000000
0.552457 0.008147 0.000000
0.577106 0.007922 0.000000
0.601769 0.007697 0.000000
0.626433 0.007471 0.000000
0.651084 0.007245 0.000000
0.675709 0.007020 0.000000
0.700297 0.006796 0.000000
0.724835 0.006573 0.000000
0.000000 0.043918 0.035731
0.000000 0.044782 0.034936
0.002896 0.045546 0.034121
0.037423 0.039461 0.023287
0.064554 0.036630 0.017437
0.089095 0.035065 0.013574
0.112604 0.034108 0.010701
0.135720 0.033481 0.008390
0.158737 0.033046 0.006428
0.181803 0.032729 0.004699
0.204993 0.032487 0.003133
0.228343 0.032291 0.001686
0.251867 0.032126 0.000329
0.275567 0.031980 0.000000
0.299439 0.031845 0.000000
0.323472 0.031716 0.000000
0.347655 0.031590 0.000000
0.371973 0.031464 0.000000
0.396413 0.031336 0.000000
0.420958 0.031206 0.000000
0.445594 0.031072 0.000000
0.470305 0.030934 0.000000
0.495077 0.030793 0.000000
0.519895 0.030647 0.000000
0.544745 0.030497 0.000000
0.569613 0.030344 0.000000
0.594486 0.030187 0.000000
0.619351 0.030027 0.000000
0.644195 0.029864 0.000000
0.669007 0.029699 0.000000
0.693776 0.029532 0.000000
0.718489 0.029364 0.000000
0.743138 0.029194 0.000000
0.000000 0.063351 0.032979
0.000000 0.064394 0.032124
0.008408 0.065358 0.031257
0.028280 0.066256 0.030380
0.060449 0.061908 0.021995
0.088353 0.059496 0.016603
0.114349 0.058024 0.012706
0.139421 0.057071 0.009662
0.164043 0.056426 0.007153
0.188464 0.055975 0.005000
0.212822 0.055649 0.003098
0.237193 0.055407 0.001380
0.261621 0.055222 0.000000
0.286127 0.055073 0.000000
0.310723 0.054950 0.000000
0.335410 0.054843 0.000000
0.360185 0.054746 0.000000
0.385042 0.054654 0.000000
0.409971 0.054565 0.000000
0.434962 0.054475 0.000000
0.460005 0.054383 0.000000
0.485087 0.054288 0.000000
0.510197 0.054190 0.000000
0.535322 0.054087 0.000000
0.560452 0.053980 0.000000
0.585573 0.053868 0.000000
0.610676 0.053751 0.000000
0.635748 0.053631 0.000000
0.660779 0.053506 0.000000
0.685759 0.053377 0.000000
0.710676 0.053244 0.000000
0.735523 0.053109 0.000000
0.760289 0.052971 0.000000
0.000000 0.084757 0.030059
0.000000 0.085951 0.029171
0.013497 0.087082 0.028277
0.034461 0.088155 0.027378
0.056082 0.089178 0.026477
0.087166 0.085867 0.019574
0.115516 0.083830 0.014671
0.142446 0.082502 0.010913
0.168597 0.081600 0.007871
0.194314 0.080970 0.005309
0.219791 0.080519 0.003086
0.245145 0.080189 0.001111
0.270444 0.079942 0.000000
0.295731 0.079754 0.000000
0.321030 0.079606 0.000000
0.346353 0.079485 0.000000
0.371705 0.079384 0.000000
0.397086 0.079294 0.000000
0.422494 0.079211 0.000000
0.447923 0.079131 0.000000
0.473364 0.079053 0.000000
0.498811 0.078973 0.000000
0.524253 0.078891 0.000000
0.549682 0.078806 0.000000
0.575088 0.078716 0.000000
0.600461 0.078622 0.000000
0.625791 0.078523 0.000000
0.651070 0.078419 0.000000
0.676287 0.078311 0.000000
0.701434 0.078198 0.000000
0.726503 0.078080 0.000000
0.751483 0.077959 0.000000
0.776368 0.077834 0.000000
0.000000 0.107788 0.027050
0.000000 0.109118 0.026148
0.018281 0.110394 0.025245
0.040195 0.111620 0.024343
0.062696 0.112801 0.023442
0.085760 0.113941 0.022545
0.116330 0.111305 0.016651
0.145014 0.109567 0.012192
0.172611 0.108374 0.008632
0.199555 0.107531 0.005674
0.226096 0.106921 0.003143
0.252384 0.106472 0.000923
0.278515 0.106134 0.000000
0.304548 0.105875 0.000000
0.330519 0.105673 0.000000
0.356451 0.105511 0.000000
0.382356 0.105377 0.000000
0.408243 0.105263 0.000000
0.434111 0.105162 0.000000
0.459961 0.105068 0.000000
0.485787 0.104979 0.000000
0.511586 0.104891 0.000000
0.537350 0.104803 0.000000
0.563072 0.104713 0.000000
0.588746 0.104621 0.000000
0.614362 0.104524 0.000000
0.639915 0.104423 0.000000
0.665394 0.104317 0.000000
0.690793 0.104207 0.000000
0.716105 0.104092 0.000000
0.741320 0.103972 0.000000
0.766433 0.103848 0.000000
0.791436 0.103720 0.000000
0.000000 0.132211 0.024015
0.000607 0.133665 0.023115
0.022805 0.135071 0.022219
0.045556 0.136433 0.021327
0.068840 0.137754 0.020441
0.092634 0.139038 0.019562
0.116922 0.140286 0.018692
0.147256 0.138112 0.013544
0.176214 0.136601 0.009478
0.204314 0.135519 0.006138
0.231858 0.134724 0.003310
0.259031 0.134129 0.000858
0.285948 0.133674 0.000000
0.312686 0.133321 0.000000
0.339295 0.133041 0.000000
0.365805 0.132814 0.000000
0.392237 0.132626 0.000000
0.418603 0.132464 0.000000
0.444910 0.132323 0.000000
0.471160 0.132194 0.000000
0.497354 0.132074 0.000000
0.523488 0.131959 0.000000
0.549558 0.131845 0.000000
0.575561 0.131732 0.000000
0.601491 0.131618 0.000000
0.627341 0.131501 0.000000
0.653105 0.131381 0.000000
0.678777 0.131257 0.000000
0.704351 0.131129 0.000000
0.729820 0.130996 0.000000
0.755177 0.130859 0.000000
0.780417 0.130718 0.000000
0.805534 0.130573 0.000000
0.000000 0.157849 0.021004
0.004090 0.159416 0.020120
0.027082 0.160941 0.019244
0.050578 0.162425 0.018377
0.074559 0.163873 0.017519
0.099008 0.165285 0.016671
0.123911 0.166666 0.015835
0.149251 0.168015 0.015011
0.179486 0.166164 0.010451
0.208672 0.164820 0.006739
0.237158 0.163818 0.003625
0.265160 0.163055 0.000951
0.292817 0.162463 0.000000
0.320220 0.161994 0.000000
0.347429 0.161615 0.000000
0.374483 0.161303 0.000000
0.401412 0.161040 0.000000
0.428231 0.160813 0.000000
0.454951 0.160612 0.000000
0.481580 0.160430 0.000000
0.508120 0.160261 0.000000
0.534570 0.160100 0.000000
0.560931 0.159945 0.000000
0.587199 0.159793 0.000000
0.613370 0.159641 0.000000
0.639440 0.159488 0.000000
0.665405 0.159334 0.000000
0.691259 0.159176 0.000000
0.716998 0.159016 0.000000
0.742616 0.158852 0.000000
0.768108 0.158684 0.000000
0.793469 0.158513 0.000000
0.818694 0.158338 0.000000
0.000000 0.184561 0.018063
0.007415 0.186232 0.017209
0.031112 0.187864 0.016365
0.055271 0.189460 0.015533
0.079877 0.191022 0.014715
0.104914 0.192551 0.013910
0.130368 0.194050 0.013119
0.156228 0.195520 0.012345
0.182480 0.196963 0.011586
0.212680 0.195337 0.007512
0.242046 0.194109 0.004123
0.270825 0.193160 0.001238
0.299174 0.192411 0.000000
0.327198 0.191808 0.000000
0.354969 0.191312 0.000000
0.382534 0.190897 0.000000
0.409926 0.190542 0.000000
0.437169 0.190232 0.000000
0.464277 0.189955 0.000000
0.491261 0.189703 0.000000
0.518124 0.189470 0.000000
0.544872 0.189248 0.000000
0.571504 0.189036 0.000000
0.598019 0.188829 0.000000
0.624417 0.188625 0.000000
0.650693 0.188423 0.000000
0.676845 0.188220 0.000000
0.702870 0.188017 0.000000
0.728763 0.187811 0.000000
0.754520 0.187603 0.000000
0.780138 0.187392 0.000000
0.805612 0.187179 0.000000
0.830938 0.186962 0.000000
0.000000 0.212226 0.015234
0.010559 0.213993 0.014420
0.034886 0.215724 0.013620
0.059638 0.217421 0.012835
0.084802 0.219087 0.012067
0.110366 0.220722 0.011315
0.136315 0.222328 0.010580
0.162640 0.223906 0.009865
0.189329 0.225459 0.009168
0.216371 0.226986 0.008492
0.246557 0.225515 0.004837
0.276058 0.224362 0.001748
0.305051 0.223439 0.000000
0.333654 0.222685 0.000000
0.361948 0.222056 0.000000
0.389988 0.221522 0.000000
0.417813 0.221059 0.000000
0.445450 0.220651 0.000000
0.472918 0.220283 0.000000
0.500231 0.219947 0.000000
0.527396 0.219634 0.000000
0.554419 0.219338 0.000000
0.581303 0.219055 0.000000
0.608048 0.218780 0.000000
0.634655 0.218511 0.000000
0.661122 0.218246 0.000000
0.687448 0.217983 0.000000
0.713630 0.217721 0.000000
0.739665 0.217458 0.000000
0.765551 0.217195 0.000000
0.791285 0.216930 0.000000
0.816863 0.216663 0.000000
0.842282 0.216394 0.000000
0.000000 0.240741 0.012554
0.013500 0.242596 0.011791
0.038390 0.244417 0.011045
0.063673 0.246206 0.010318
0.089337 0.247966 0.009609
0.115371 0.249696 0.008920
0.141763 0.251399 0.008251
0.168504 0.253075 0.007603
0.195582 0.254726 0.006978
0.222988 0.256353 0.006375
0.250713 0.257957 0.005795
0.280883 0.256585 0.002512
0.310472 0.255473 0.000000
0.339610 0.254552 0.000000
0.368388 0.253776 0.000000
0.396867 0.253108 0.000000
0.425091 0.252523 0.000000
0.453093 0.252002 0.000000
0.480894 0.251530 0.000000
0.508511 0.251096 0.000000
0.535954 0.250690 0.000000
0.563231 0.250307 0.000000
0.590346 0.249940 0.000000
0.617302 0.249585 0.000000
0.644102 0.249240 0.000000
0.670744 0.248900 0.000000
0.697228 0.248565 0.000000
0.723554 0.248233 0.000000
0.749719 0.247902 0.000000
0.775722 0.247573 0.000000
0.801565 0.247241 0.000000
0.827268 0.246897 0.000000
0.852832 0.246540 0.000000
0.000000 0.270013 0.010057
0.016217 0.271948 0.009356
0.041610 0.273851 0.008674
0.067367 0.275724 0.008013
0.093477 0.277568 0.007373
0.119930 0.279384 0.006756
0.146716 0.281174 0.006161
0.173826 0.282938 0.005590
0.201250 0.284677 0.005043
0.228978 0.286393 0.004522
0.257002 0.288086 0.004025
0.285313 0.289757 0.003555
0.315450 0.288441 0.000612
0.345081 0.287341 0.000000
0.374303 0.286403 0.000000
0.403186 0.285588 0.000000
0.431777 0.284868 0.000000
0.460113 0.284222 0.000000
0.488220 0.283632 0.000000
0.516115 0.283087 0.000000
0.543812 0.282577 0.000000
0.571320 0.282094 0.000000
0.598646 0.281632 0.000000
0.625795 0.281185 0.000000
0.652769 0.280752 0.000000
0.679570 0.280327 0.000000
0.706197 0.279909 0.000000
0.732665 0.279491 0.000000
0.758989 0.279064 0.000000
0.785167 0.278628 0.000000
0.811200 0.278180 0.000000
0.837085 0.277721 0.000000
0.862821 0.277250 0.000000
0.000000 0.299958 0.007777
0.018688 0.301965 0.007146
0.044529 0.303942 0.006536
0.070708 0.305890 0.005950
0.097215 0.307810 0.005388
0.124041 0.309704 0.004850
0.151176 0.311571 0.004338
0.178612 0.313413 0.003851
0.206339 0.315232 0.003391
0.234350 0.317026 0.002958
0.262635 0.318798 0.002552
0.291186 0.320548 0.002174
0.319995 0.322277 0.001825
0.350076 0.320983 0.000000
0.379704 0.319870 0.000000
0.408954 0.318896 0.000000
0.437880 0.318028 0.000000
0.466521 0.317244 0.000000
0.494904 0.316526 0.000000
0.523051 0.315859 0.000000
0.550978 0.315232 0.000000
0.578696 0.314638 0.000000
0.606213 0.314070 0.000000
0.633536 0.313520 0.000000
0.660690 0.312978 0.000000
0.687684 0.312435 0.000000
0.714522 0.311889 0.000000
0.741203 0.311339 0.000000
0.767728 0.310781 0.000000
0.794098 0.310216 0.000000
0.820311 0.309642 0.000000
0.846368 0.309057 0.000000
0.872268 0.308462 0.000000
0.000000 0.330499 0.005743
0.020892 0.332571 0.005189
0.047132 0.334615 0.004661
0.073686 0.336630 0.004158
0.100545 0.338618 0.003681
0.127700 0.340579 0.003230
0.155142 0.342515 0.002807
0.182864 0.344427 0.002411
0.210856 0.346314 0.002044
0.239111 0.348178 0.001706
0.267621 0.350019 0.001396
0.296377 0.351838 0.001117
0.325373 0.353635 0.000868
0.354600 0.355412 0.000649
0.384596 0.354112 0.000000
0.414179 0.352966 0.000000
0.443406 0.351939 0.000000
0.472321 0.351006 0.000000
0.500954 0.350147 0.000000
0.529328 0.349347 0.000000
0.557468 0.348591 0.000000
0.585406 0.347861 0.000000
0.613156 0.347148 0.000000
0.640723 0.346447 0.000000
0.668114 0.345754 0.000000
0.695332 0.345063 0.000000
0.722381 0.344372 0.000000
0.749261 0.343679 0.000000
0.775975 0.342981 0.000000
0.802524 0.342277 0.000000
0.828907 0.341566 0.000000
0.855124 0.340848 0.000000
0.881177 0.340120 0.000000
0.000000 0.361566 0.003981
0.022810 0.363696 0.003513
0.049403 0.365797 0.003073
0.076289 0.367871 0.002660
0.103457 0.369919 0.002274
0.130901 0.371940 0.001917
0.158612 0.373936 0.001590
0.186582 0.375908 0.001291
0.214803 0.377855 0.001023
0.243268 0.379779 0.000785
0.271968 0.381680 0.000577
0.300897 0.383558 0.000401
0.330048 0.385414 0.000257
0.359412 0.387248 0.000144
0.388982 0.389061 0.000063
0.418863 0.387732 0.000000
0.448360 0.386535 0.000000
0.477535 0.385436 0.000000
0.506434 0.384407 0.000000
0.535083 0.383431 0.000000
0.563501 0.382496 0.000000
0.591704 0.381592 0.000000
0.619701 0.380711 0.000000
0.647502 0.379845 0.000000
0.675112 0.378989 0.000000
0.702538 0.378141 0.000000
0.729782 0.377295 0.000000
0.756848 0.376449 0.000000
0.783737 0.375602 0.000000
0.810450 0.374751 0.000000
0.836989 0.373895 0.000000
0.863355 0.373032 0.000000
0.889547 0.372164 0.000000
0.000000 0.393091 0.002516
0.024424 0.395271 0.002141
0.051330 0.397424 0.001795
0.078506 0.399549 0.001478
0.105946 0.401647 0.001190
0.133641 0.403720 0.000933
0.161584 0.405768 0.000706
0.189767 0.407790 0.000510
0.218183 0.409788 0.000345
0.246825 0.411763 0.000212
0.275684 0.413714 0.000111
0.304755 0.415642 0.000042
0.334030 0.417547 0.000006
0.363505 0.419428 0.000000
0.393192 0.421278 0.000000
0.423093 0.423093 0.000000
0.452912 0.421679 0.000000
0.482400 0.420367 0.000000
0.511593 0.419134 0.000000
0.540517 0.417962 0.000000
0.569194 0.416837 0.000000
0.597638 0.415749 0.000000
0.625863 0.414688 0.000000
0.653879 0.413647 0.000000
0.681691 0.412621 0.000000
0.709307 0.411604 0.000000
0.736731 0.410594 0.000000
0.763965 0.409587 0.000000
0.791014 0.408581 0.000000
0.817877 0.407574 0.000000
0.844559 0.406565 0.000000
0.871058 0.405551 0.000000
0.897377 0.404533 0.000000
0.000000 0.425013 0.001369
0.025720 0.427236 0.001093
0.052899 0.429431 0.000846
0.080329 0.431600 0.000631
0.108003 0.433741 0.000446
0.135915 0.435857 0.000293
0.164056 0.437947 0.000171
0.192420 0.440012 0.000082
0.220999 0.442052 0.000025
0.249787 0.444068 0.000001
0.278785 0.446056 0.000000
0.308006 0.448008 0.000000
0.337443 0.449924 0.000000
0.367091 0.451804 0.000000
0.396942 0.453649 0.000000
0.426991 0.455457 0.000000
0.457231 0.457231 0.000000
0.487004 0.455696 0.000000
0.516464 0.454248 0.000000
0.545639 0.452870 0.000000
0.574551 0.451546 0.000000
0.603216 0.450264 0.000000
0.631648 0.449014 0.000000
0.659859 0.447789 0.000000
0.687854 0.446582 0.000000
0.715642 0.445390 0.000000
0.743228 0.444206 0.000000
0.770615 0.443030 0.000000
0.797806 0.441857 0.000000
0.824804 0.440685 0.000000
0.851612 0.439513 0.000000
0.878230 0.438340 0.000000
0.904660 0.437164 0.000000
0.000000 0.457272 0.000560
0.026684 0.459531 0.000387
0.054100 0.461761 0.000245
0.081749 0.463965 0.000135
0.109625 0.466141 0.000058
0.137720 0.468291 0.000013
0.166029 0.470415 0.000000
0.194561 0.472506 0.000000
0.223322 0.474559 0.000000
0.252304 0.476574 0.000000
0.281501 0.478551 0.000000
0.310906 0.480491 0.000000
0.340513 0.482394 0.000000
0.370316 0.484259 0.000000
0.400308 0.486088 0.000000
0.430482 0.487880 0.000000
0.460832 0.489634 0.000000
0.491352 0.491352 0.000000
0.521053 0.489682 0.000000
0.550454 0.488087 0.000000
0.579577 0.486554 0.000000
0.608440 0.485068 0.000000
0.637058 0.483621 0.000000
0.665443 0.482203 0.000000
0.693602 0.480807 0.000000
0.721543 0.479430 0.000000
0.749272 0.478065 0.000000
0.776793 0.476710 0.000000
0.804110 0.475362 0.000000
0.831226 0.474018 0.000000
0.858143 0.472677 0.000000
0.884863 0.471336 0.000000
0.911388 0.469995 0.000000
0.000000 0.489813 0.000103
0.027305 0.492099 0.000037
0.054925 0.494357 0.000004
0.082764 0.496586 0.000000
0.110839 0.498777 0.000000
0.139147 0.500928 0.000000
0.167680 0.503040 0.000000
0.196433 0.505112 0.000000
0.225398 0.507146 0.000000
0.254571 0.509141 0.000000
0.283943 0.511097 0.000000
0.313509 0.513015 0.000000
0.343263 0.514894 0.000000
0.373197 0.516735 0.000000
0.403306 0.518537 0.000000
0.433584 0.520301 0.000000
0.464023 0.522026 0.000000
0.494618 0.523713 0.000000
0.525362 0.525362 0.000000
0.554963 0.523543 0.000000
0.584273 0.521792 0.000000
0.613312 0.520094 0.000000
0.642094 0.518440 0.000000
0.670631 0.516820 0.000000
0.698933 0.515228 0.000000
0.727007 0.513657 0.000000
0.754860 0.512103 0.000000
0.782496 0.510562 0.000000
0.809920 0.509031 0.000000
0.837135 0.507506 0.000000
0.864144 0.505987 0.000000
0.890949 0.504471 0.000000
0.917551 0.502957 0.000000
0.000000 0.522578 0.000000
0.027625 0.524866 0.000000
0.055486 0.527114 0.000000
0.083577 0.529321 0.000000
0.111892 0.531487 0.000000
0.140424 0.533613 0.000000
0.169168 0.535698 0.000000
0.198116 0.537743 0.000000
0.227262 0.539748 0.000000
0.256601 0.541713 0.000000
0.286125 0.543638 0.000000
0.315829 0.545523 0.000000
0.345706 0.547368 0.000000
0.375750 0.549173 0.000000
0.405954 0.550938 0.000000
0.436313 0.552664 0.000000
0.466820 0.554349 0.000000
0.497469 0.555995 0.000000
0.528253 0.557601 0.000000
0.559167 0.559167 0.000000
0.588639 0.557189 0.000000
0.617829 0.555271 0.000000
0.646752 0.553402 0.000000
0.675420 0.551573 0.000000
0.703844 0.549775 0.000000
0.732030 0.548003 0.000000
0.759987 0.546252 0.000000
0.787719 0.544516 0.000000
0.815230 0.542794 0.000000
0.842525 0.541081 0.000000
0.869607 0.539377 0.000000
0.896512 0.537692 0.000000
0.923254 0.536029 0.000000
0.000000 0.555416 0.000000
0.027884 0.557674 0.000000
0.055989 0.559890 0.000000
0.084310 0.562064 0.000000
0.112839 0.564196 0.000000
0.141572 0.566287 0.000000
0.170501 0.568336 0.000000
0.199620 0.570343 0.000000
0.228924 0.572310 0.000000
0.258405 0.574234 0.000000
0.288059 0.576118 0.000000
0.317878 0.577960 0.000000
0.347856 0.579760 0.000000
0.377988 0.581520 0.000000
0.408266 0.583238 0.000000
0.438686 0.584914 0.000000
0.469239 0.586549 0.000000
0.499921 0.588143 0.000000
0.530725 0.589695 0.000000
0.561645 0.591205 0.000000
0.592674 0.592674 0.000000
0.621990 0.590528 0.000000
0.651030 0.588436 0.000000
0.679806 0.586389 0.000000
0.708329 0.584378 0.000000
0.736606 0.582397 0.000000
0.764645 0.580440 0.000000
0.792460 0.578506 0.000000
0.820090 0.576605 0.000000
0.847542 0.574736 0.000000
0.874818 0.572894 0.000000
0.901921 0.571079 0.000000
0.928851 0.569288 0.000000
0.000000 0.588236 0.000000
0.028117 0.590454 0.000000
0.056441 0.592629 0.000000
0.084966 0.594761 0.000000
0.113686 0.596850 0.000000
0.142594 0.598896 0.000000
0.171686 0.600900 0.000000
0.200953 0.602860 0.000000
0.230391 0.604778 0.000000
0.259994 0.606652 0.000000
0.289754 0.608484 0.000000
0.319667 0.610273 0.000000
0.349725 0.612019 0.000000
0.379923 0.613722 0.000000
0.410255 0.615382 0.000000
0.440714 0.616999 0.000000
0.471294 0.618573 0.000000
0.501988 0.620103 0.000000
0.532792 0.621590 0.000000
0.563697 0.623034 0.000000
0.594699 0.624434 0.000000
0.625790 0.625790 0.000000
0.654923 0.623468 0.000000
0.683784 0.621195 0.000000
0.712405 0.618972 0.000000
0.740818 0.616801 0.000000
0.769032 0.614677 0.000000
0.797050 0.612593 0.000000
0.824877 0.610546 0.000000
0.852516 0.608532 0.000000
0.879970 0.606549 0.000000
0.907242 0.604592 0.000000
0.934332 0.602660 0.000000
0.000000 0.620988 0.000000
0.028325 0.623158 0.000000
0.056844 0.625282 0.000000
0.085549 0.627363 0.000000
0.114436 0.629399 0.000000
0.143498 0.631391 0.000000
0.172729 0.633339 0.000000
0.202123 0.635242 0.000000
0.231673 0.637101 0.000000
0.261375 0.638916 0.000000
0.291221 0.640686 0.000000
0.321206 0.642412 0.000000
0.351323 0.644093 0.000000
0.381567 0.645729 0.000000
0.411931 0.647320 0.000000
0.442409 0.648867 0.000000
0.472995 0.650368 0.000000
0.503683 0.651825 0.000000
0.534465 0.653236 0.000000
0.565337 0.654601 0.000000
0.596295 0.655922 0.000000
0.627365 0.657213 0.000000
0.658552 0.658475 0.000000
0.687603 0.656021 0.000000
0.716429 0.653630 0.000000
0.745038 0.651295 0.000000
0.773438 0.649008 0.000000
0.801632 0.646765 0.000000
0.829626 0.644561 0.000000
0.857422 0.642392 0.000000
0.885023 0.640254 0.000000
0.912432 0.638144 0.000000
0.939650 0.636060 0.000000
0.000000 0.653623 0.000000
0.028510 0.655734 0.000000
0.057200 0.657800 0.000000
0.086063 0.659819 0.000000
0.115095 0.661793 0.000000
0.144287 0.663722 0.000000
0.173636 0.665604 0.000000
0.203134 0.667440 0.000000
0.232776 0.669231 0.000000
0.262555 0.670975 0.000000
0.292467 0.672673 0.000000
0.322503 0.674325 0.000000
0.352659 0.675930 0.000000
0.382928 0.677489 0.000000
0.413305 0.679001 0.000000
0.443782 0.680466 0.000000
0.474354 0.681884 0.000000
0.505026 0.683260 0.000000
0.535825 0.684606 0.000000
0.566745 0.685923 0.000000
0.597780 0.687210 0.000000
0.628923 0.688467 0.000000
0.660167 0.689694 0.000000
0.691504 0.690890 0.000000
0.720504 0.688320 0.000000
0.749277 0.685809 0.000000
0.777830 0.683349 0.000000
0.806168 0.680935 0.000000
0.834296 0.678562 0.000000
0.862216 0.676224 0.000000
0.889931 0.673919 0.000000
0.917444 0.671643 0.000000
0.944755 0.669394 0.000000
0.000000 0.686093 0.000000
0.028672 0.688137 0.000000
0.057511 0.690134 0.000000
0.086510 0.692083 0.000000
0.115664 0.693985 0.000000
0.144966 0.695839 0.000000
0.174411 0.697646 0.000000
0.203993 0.699405 0.000000
0.233705 0.701116 0.000000
0.263542 0.702780 0.000000
0.293498 0.704395 0.000000
0.323566 0.705962 0.000000
0.353740 0.707481 0.000000
0.384015 0.708951 0.000000
0.414411 0.710383 0.000000
0.444940 0.711785 0.000000
0.475597 0.713155 0.000000
0.506374 0.714495 0.000000
0.537264 0.715802 0.000000
0.568261 0.717078 0.000000
0.599357 0.718321 0.000000
0.630546 0.719530 0.000000
0.661819 0.720706 0.000000
0.693170 0.721847 0.000000
0.724591 0.722954 0.000000
0.753493 0.720255 0.000000
0.782166 0.717609 0.000000
0.810614 0.715011 0.000000
0.838840 0.712455 0.000000
0.866849 0.709937 0.000000
0.894643 0.707451 0.000000
0.922222 0.704995 0.000000
0.949589 0.702565 0.000000
0.000000 0.718352 0.000000
0.028813 0.720319 0.000000
0.057779 0.722236 0.000000
0.086893 0.724105 0.000000
0.116148 0.725925 0.000000
0.145539 0.727695 0.000000
0.175060 0.729416 0.000000
0.204705 0.731088 0.000000
0.234467 0.732710 0.000000
0.264341 0.734281 0.000000
0.294326 0.735805 0.000000
0.324449 0.737294 0.000000
0.354711 0.738750 0.000000
0.385106 0.740174 0.000000
0.415628 0.741566 0.000000
0.446268 0.742923 0.000000
0.477020 0.744247 0.000000
0.507877 0.745536 0.000000
0.538832 0.746790 0.000000
0.569877 0.748008 0.000000
0.601006 0.749190 0.000000
0.632211 0.750336 0.000000
0.663485 0.751444 0.000000
0.694820 0.752514 0.000000
0.726209 0.753545 0.000000
0.757644 0.754537 0.000000
0.786399 0.751693 0.000000
0.814919 0.748897 0.000000
0.843208 0.746145 0.000000
0.871268 0.743431 0.000000
0.899101 0.740750 0.000000
0.926708 0.738098 0.000000
0.954092 0.735473 0.000000
0.000000 0.750353 0.000000
0.028932 0.752232 0.000000
0.058005 0.754061 0.000000
0.087212 0.755840 0.000000
0.116549 0.757567 0.000000
0.146008 0.759243 0.000000
0.175585 0.760867 0.000000
0.205287 0.762446 0.000000
0.235140 0.763991 0.000000
0.265138 0.765503 0.000000
0.295274 0.766980 0.000000
0.325541 0.768422 0.000000
0.355932 0.769829 0.000000
0.386441 0.771201 0.000000
0.417061 0.772536 0.000000
0.447784 0.773834 0.000000
0.478604 0.775095 0.000000
0.509513 0.776318 0.000000
0.540503 0.777502 0.000000
0.571568 0.778647 0.000000
0.602701 0.779752 0.000000
0.633893 0.780816 0.000000
0.665137 0.781839 0.000000
0.696425 0.782819 0.000000
0.727749 0.783757 0.000000
0.759102 0.784651 0.000000
