mini_run_pipeline/luts/kodak_2383_print.cube
TITLE "Kodak Vision Color Print Film 2383 Emulation"
LUT_3D_SIZE 9
DOMAIN_MIN 0.0 0.0 0.0
DOMAIN_MAX 1.0 1.0 1.0
0.000000 0.000000 0.000000
0.069376 0.000000 0.007758
0.143972 0.000000 0.004717
0.228202 0.000000 0.001338
0.318553 0.000000 0.000000
0.412860 0.000000 0.000000
0.509540 0.000000 0.000000
0.607348 0.000000 0.000000
0.705268 0.000000 0.000000
0.000000 0.084757 0.030059
0.056082 0.089178 0.026477
0.168597 0.081600 0.007871
0.270444 0.079942 0.000000
0.371705 0.079384 0.000000
0.473364 0.079053 0.000000
0.575088 0.078716 0.000000
0.676287 0.078311 0.000000
0.776368 0.077834 0.000000
0.000000 0.184561 0.018063
0.079877 0.191022 0.014715
0.182480 0.196963 0.011586
0.299174 0.192411 0.000000
0.409926 0.190542 0.000000
0.518124 0.189470 0.000000
0.624417 0.188625 0.000000
0.728763 0.187811 0.000000
0.830938 0.186962 0.000000
0.000000 0.299958 0.007777
0.097215 0.307810 0.005388
0.206339 0.315232 0.003391
0.319995 0.322277 0.001825
0.437880 0.318028 0.000000
0.550978 0.315232 0.000000
0.660690 0.312978 0.000000
0.767728 0.310781 0.000000
0.872268 0.308462 0.000000
0.000000 0.425013 0.001369
0.108003 0.433741 0.000446
0.220999 0.442052 0.000025
0.337443 0.449924 0.000000
0.457231 0.457231 0.000000
0.574551 0.451546 0.000000
0.687854 0.446582 0.000000
0.797806 0.441857 0.000000
0.904660 0.437164 0.000000
0.000000 0.555416 0.000000
0.112839 0.564196 0.000000
0.228924 0.572310 0.000000
0.347856 0.579760 0.000000
0.469239 0.586549 0.000000
0.592674 0.592674 0.000000
0.708329 0.584378 0.000000
0.820090 0.576605 0.000000
0.928851 0.569288 0.000000
0.000000 0.686093 0.000000
0.115664 0.693985 0.000000
0.233705 0.701116 0.000000
0.353740 0.707481 0.000000
0.475597 0.713155 0.000000
0.599357 0.718321 0.000000
0.724591 0.722954 0.000000
0.838840 0.712455 0.000000
0.949589 0.702565 0.000000
0.000007 0.813398 0.000000
0.117580 0.819950 0.000000
0.237422 0.825894 0.000000
0.359097 0.831190 0.000000
0.482147 0.835795 0.000000
0.606093 0.839661 0.000000
0.730433 0.842731 0.000000
0.854636 0.844944 0.000000
0.964876 0.831495 0.000000
0.004285 0.936002 0.000000
0.124217 0.941141 0.000000
0.245418 0.945409 0.000000
0.367398 0.948742 0.000000
0.489638 0.951065 0.000000
0.611584 0.952289 0.000000
0.732634 0.952310 0.000000
0.852118 0.950989 0.000000
0.969252 0.948133 0.000000
0.000000 0.014780 0.079837
0.024977 0.013792 0.093936
0.125917 0.002599 0.084172
0.219388 0.000000 0.081542
0.314562 0.000000 0.079836
0.411846 0.000000 0.078121
0.510529 0.000000 0.076227
0.609748 0.000000 0.074163
0.708689 0.000000 0.071988
0.000000 0.086364 0.104395
0.060098 0.091661 0.107443
0.175121 0.083977 0.092512
0.279486 0.082267 0.086942
0.383246 0.081690 0.083436
0.487396 0.081364 0.080652
0.591608 0.081049 0.078217
0.695297 0.080678 0.076027
0.797865 0.080245 0.074068
0.000000 0.186821 0.107146
0.083626 0.196204 0.109172
0.188952 0.202182 0.109691
0.308115 0.197623 0.098515
0.421371 0.195763 0.092303
0.532067 0.194711 0.088146
0.640840 0.193894 0.085124
0.747640 0.193112 0.082877
0.852235 0.192298 0.081253
0.000000 0.302677 0.106951
0.100631 0.315884 0.109375
0.212415 0.323363 0.110246
0.328709 0.330457 0.111376
0.448999 0.326198 0.103304
0.564494 0.323393 0.098490
0.676645 0.321094 0.095365
0.786153 0.318814 0.092938
0.893101 0.316406 0.090885
0.000000 0.428026 0.107914
0.110931 0.444675 0.111392
0.226496 0.452992 0.113248
0.345588 0.460785 0.115196
0.467974 0.467974 0.116994
0.587671 0.462132 0.110533
0.703298 0.457002 0.105917
0.815495 0.452101 0.102311
0.924501 0.447223 0.099306
0.000000 0.558473 0.111695
0.115508 0.577540 0.115508
0.234189 0.585472 0.117094
0.355623 0.592705 0.118541
0.479392 0.599240 0.119848
0.605078 0.605078 0.121016
0.722781 0.596497 0.114966
0.836632 0.588485 0.109979
0.947459 0.580954 0.104880
0.000000 0.688858 0.114810
0.118186 0.709114 0.118186
0.238633 0.715900 0.119317
0.360944 0.721881 0.120307
0.485148 0.727225 0.120573
0.611092 0.732028 0.119760
0.738309 0.736260 0.117930
0.854351 0.725406 0.108928
0.966729 0.715138 0.100215
0.000083 0.815689 0.116412
0.120212 0.836265 0.118367
0.242443 0.841765 0.117208
0.366320 0.846573 0.115061
0.491368 0.850648 0.111997
0.617094 0.853940 0.108100
0.742978 0.856397 0.103463
0.868475 0.857956 0.098188
0.979835 0.843935 0.086906
0.005118 0.937841 0.110150
0.127283 0.957941 0.108764
0.250508 0.961538 0.104631
0.374289 0.964152 0.099798
0.498091 0.965709 0.094368
0.621342 0.966121 0.088456
0.743422 0.965273 0.082190
0.863629 0.963018 0.075709
0.981126 0.959131 0.069180
0.000000 0.014480 0.133814
0.028732 0.013402 0.155749
0.107714 0.012167 0.168552
0.210431 0.004185 0.165659
0.310438 0.000000 0.165164
0.410705 0.000000 0.164897
0.511396 0.000000 0.164347
0.612031 0.000000 0.163418
0.711995 0.000000 0.162143
0.000000 0.086783 0.180475
0.061707 0.091738 0.189483
0.156868 0.095051 0.195214
0.269916 0.089849 0.187278
0.378262 0.087488 0.183402
0.485268 0.086075 0.180815
0.591414 0.085031 0.178704
0.696474 0.084141 0.176799
0.800041 0.083325 0.175019
0.000000 0.189012 0.198867
0.085795 0.198284 0.206136
0.195455 0.207476 0.213487
0.317107 0.202908 0.203940
0.432878 0.201053 0.199000
0.546079 0.200016 0.195797
0.657329 0.199222 0.193447
0.766572 0.198465 0.191622
0.873566 0.197678 0.190199
0.000000 0.305341 0.208146
0.102170 0.318470 0.215303
0.218485 0.331572 0.222757
0.337418 0.338701 0.226570
0.460108 0.334421 0.218974
0.577988 0.331595 0.214397
0.692612 0.329216 0.211144
0.804562 0.326841 0.208370
0.913882 0.324330 0.205803
0.000000 0.430988 0.216054
0.111786 0.447548 0.223858
0.231977 0.463954 0.231977
0.353728 0.471638 0.235819
0.478691 0.478691 0.239345
0.600737 0.472674 0.232337
0.718652 0.467362 0.227014
0.833051 0.462269 0.222563
0.944160 0.457190 0.218595
0.000000 0.561452 0.224581
0.116062 0.580312 0.232125
0.239428 0.598570 0.239428
0.363337 0.605561 0.242224
0.489456 0.611820 0.244728
0.617349 0.617349 0.246940
0.737057 0.608467 0.239716
0.853025 0.600232 0.233163
0.965855 0.592471 0.226399
0.000000 0.691536 0.230512
0.118585 0.711508 0.237169
0.243506 0.730519 0.243506
0.368119 0.736119 0.245264
0.494639 0.741117 0.245917
0.622710 0.745535 0.245363
0.751847 0.749344 0.243665
0.869615 0.738117 0.232763
0.983552 0.727454 0.222120
0.000243 0.817913 0.233337
0.120867 0.838208 0.237764
0.247460 0.857392 0.240898
0.373483 0.861687 0.238878
0.500469 0.865208 0.235822
0.627906 0.867906 0.231814
0.755264 0.869730 0.226948
0.881981 0.870615 0.221326
0.994383 0.856004 0.207882
0.006015 0.939584 0.226274
0.128468 0.959269 0.226903
0.255550 0.977299 0.226447
0.381067 0.979172 0.221391
0.506361 0.979943 0.215622
0.630843 0.979519 0.209251
0.753869 0.977780 0.202399
0.874705 0.974559 0.195201
0.992444 0.969592 0.187808
0.000000 0.014139 0.194317
0.031954 0.012996 0.221489
0.111489 0.011727 0.239551
0.201396 0.010395 0.253373
0.306221 0.004042 0.253567
0.409467 0.000000 0.254361
0.512162 0.000000 0.254854
0.614211 0.000000 0.254816
0.715199 0.000000 0.254237
0.000000 0.087009 0.257727
0.063157 0.091662 0.272135
0.158109 0.094703 0.281701
0.260502 0.097400 0.290219
0.373355 0.093265 0.285715
0.483166 0.090773 0.283108
0.591212 0.089005 0.281135
0.697618 0.087601 0.279351
0.802167 0.086407 0.277609
0.000000 0.188091 0.288547
0.086285 0.197071 0.300650
0.195152 0.206009 0.312813
0.308161 0.211354 0.319731
0.427922 0.207695 0.313307
0.543592 0.205545 0.309331
0.656503 0.203995 0.306452
0.766914 0.202692 0.304157
0.874752 0.201496 0.302244
0.000000 0.307954 0.311296
0.103645 0.321008 0.323107
0.220665 0.334036 0.335161
0.346114 0.347001 0.347444
0.471195 0.342689 0.340259
0.591473 0.339818 0.335818
0.708574 0.337336 0.332336
0.822936 0.334852 0.329138
0.934590 0.332226 0.325976
0.000000 0.433901 0.325738
0.112571 0.450370 0.337794
0.233317 0.466635 0.349976
0.361855 0.482474 0.361855
0.489369 0.489369 0.367027
0.613736 0.483163 0.359372
0.733901 0.477652 0.353239
0.850460 0.472353 0.347836
0.963620 0.467058 0.342793
0.000000 0.564355 0.338613
0.116601 0.583004 0.349802
0.240411 0.601026 0.360616
0.370991 0.618318 0.370991
0.499423 0.624279 0.374567
0.629478 0.629478 0.377687
0.751202 0.620303 0.369077
0.869255 0.611836 0.360795
0.984026 0.603828 0.352235
0.000000 0.694126 0.347063
0.118968 0.713810 0.356905
0.244169 0.732506 0.366253
0.375279 0.750192 0.374745
0.504063 0.754819 0.375632
0.634201 0.758830 0.375176
0.765193 0.762196 0.373441
0.884622 0.750579 0.360493
1.000000 0.739505 0.347768
0.000487 0.820068 0.350726
0.121584 0.840074 0.357522
0.248516 0.858935 0.362837
0.380580 0.876520 0.366700
0.509441 0.879465 0.363475
0.638523 0.881549 0.359173
0.767282 0.882720 0.353888
0.895143 0.882914 0.347722
1.000000 0.867694 0.331949
0.006975 0.941229 0.342614
0.129691 0.960488 0.345146
0.256881 0.978054 0.346386
0.387726 0.993794 0.346403
0.514441 0.993757 0.340096
0.640076 0.992476 0.333060
0.763964 0.989819 0.325410
0.885329 0.985597 0.317268
1.000000 0.979492 0.308763
0.000000 0.013771 0.258993
0.034772 0.012575 0.289989
0.114758 0.011280 0.312231
0.204406 0.009936 0.329952
0.301947 0.008584 0.344868
0.408154 0.003254 0.346384
0.512845 0.000000 0.347648
0.616302 0.000000 0.348277
0.718311 0.000000 0.348208
0.000000 0.087060 0.335649
0.064457 0.091444 0.354980
0.159090 0.094237 0.367908
0.260738 0.096735 0.379572
0.368532 0.099023 0.390289
0.481098 0.095459 0.387459
0.591008 0.092973 0.385446
0.698736 0.091061 0.383631
0.804247 0.089492 0.381792
0.000000 0.186974 0.377339
0.086654 0.195684 0.394001
0.194648 0.204388 0.410724
0.306452 0.209477 0.420304
0.423093 0.214310 0.429470
0.541170 0.211054 0.424567
0.655698 0.208753 0.421021
0.767246 0.206909 0.418134
0.875927 0.205297 0.415594
0.000000 0.305005 0.408986
0.103154 0.317797 0.425119
0.218843 0.330587 0.441470
0.342772 0.343334 0.458004
0.466460 0.349872 0.466509
0.588832 0.345833 0.460444
0.707421 0.342503 0.455560
0.822857 0.339379 0.451077
0.935309 0.336250 0.446666
0.000000 0.436767 0.436914
0.113286 0.453144 0.453144
0.234621 0.469242 0.469242
0.363667 0.484889 0.484889
0.500000 0.500000 0.500000
0.626655 0.493587 0.491587
0.749032 0.487863 0.484530
0.867704 0.482342 0.478056
0.982865 0.476817 0.471817
0.000000 0.567180 0.453744
0.117123 0.585614 0.468491
0.241359 0.603398 0.482718
0.372257 0.620428 0.496342
0.509283 0.636604 0.509283
0.641453 0.641453 0.513163
0.765230 0.632003 0.502914
0.885309 0.623289 0.492766
1.000000 0.615017 0.482270
0.000000 0.696628 0.464419
0.119337 0.716020 0.477346
0.244804 0.734397 0.489589
0.376288 0.751831 0.500475
0.513410 0.768321 0.509604
0.645556 0.771903 0.509074
0.778336 0.774807 0.507126
0.899359 0.762783 0.491978
1.000000 0.751282 0.477018
0.000811 0.822152 0.468535
0.122361 0.841862 0.477594
0.249610 0.860392 0.484980
0.381841 0.877614 0.490710
0.518276 0.893411 0.494817
0.648936 0.894861 0.490031
0.779024 0.895361 0.484131
0.907952 0.894844 0.477218
1.000000 0.878998 0.458944
0.007995 0.942774 0.459128
0.130949 0.961596 0.463448
0.258220 0.978687 0.466262
0.388974 0.993914 0.467633
0.522322 1.000000 0.467632
0.649033 1.000000 0.459720
0.773696 1.000000 0.451050
0.895481 0.996115 0.441725
1.000000 0.988794 0.431840
0.000000 0.013380 0.326480
0.037263 0.012143 0.360371
0.117579 0.010827 0.385975
0.206896 0.009477 0.406952
0.303647 0.008129 0.424944
0.406789 0.006813 0.440852
0.513460 0.002221 0.442640
0.618317 0.000000 0.443730
0.721341 0.000000 0.443995
0.000000 0.086950 0.413790
0.065613 0.091094 0.437633
0.159822 0.093662 0.453501
0.260644 0.095976 0.467944
0.367281 0.098114 0.481296
0.479070 0.100134 0.493798
0.590807 0.096937 0.491578
0.699830 0.094520 0.489585
0.806284 0.092581 0.487520
0.000000 0.185673 0.464964
0.086906 0.194135 0.485936
0.193949 0.202622 0.506989
0.304489 0.207474 0.518976
0.419623 0.212102 0.530430
0.538815 0.216545 0.541449
0.654916 0.213497 0.537104
0.767568 0.211116 0.533506
0.877121 0.209069 0.530172
0.000000 0.301873 0.504603
0.102558 0.314424 0.524884
0.216864 0.326995 0.545369
0.339232 0.339543 0.565998
0.461152 0.345864 0.576440
0.586321 0.351793 0.586321
0.706351 0.347618 0.579919
0.822824 0.343858 0.574050
0.936046 0.340227 0.568296
0.000000 0.431464 0.539382
0.111901 0.447605 0.559506
0.231715 0.463430 0.579288
0.359113 0.478817 0.598522
0.493681 0.493681 0.617101
0.624359 0.499487 0.624359
0.747860 0.492890 0.615279
0.867312 0.486704 0.606952
0.983020 0.480650 0.598938
0.000000 0.569929 0.569929
0.117629 0.588144 0.588144
0.242274 0.605685 0.605685
0.373470 0.622450 0.622450
0.510672 0.638340 0.638340
0.653269 0.653267 0.653260
0.779128 0.643558 0.641117
0.901172 0.634580 0.628958
1.000000 0.626028 0.616380
0.000000 0.699043 0.582536
0.119689 0.718136 0.598447
0.245476 0.736219 0.613381
0.377328 0.753401 0.626526
0.514673 0.769612 0.637711
0.656764 0.784745 0.646930
0.791267 0.787167 0.644583
0.913816 0.774721 0.627077
1.000000 0.762778 0.609721
0.001215 0.824165 0.586722
0.123196 0.843570 0.597938
0.250738 0.861761 0.607281
0.383110 0.878612 0.614758
0.519523 0.894006 0.620396
0.659136 0.907833 0.624236
0.790480 0.907643 0.617520
0.920396 0.906398 0.609653
1.000000 0.889907 0.588700
0.009071 0.944216 0.575773
0.132239 0.962591 0.581761
0.259562 0.979197 0.586027
0.390194 0.993899 0.588622
0.523233 1.000000 0.589610
0.657705 1.000000 0.589061
0.783049 1.000000 0.579141
0.905138 1.000000 0.568383
1.000000 0.997449 0.556817
0.000000 0.012973 0.395826
0.039483 0.011702 0.431936
0.120001 0.010370 0.460247
0.208907 0.009017 0.483938
0.304807 0.007677 0.504550
0.406752 0.006378 0.522966
0.514022 0.005145 0.539747
0.620265 0.001145 0.541108
0.724296 0.000000 0.541543
0.000000 0.086694 0.491743
0.066630 0.090622 0.519743
0.160315 0.092984 0.538170
0.260232 0.095131 0.555059
0.365650 0.097132 0.570751
0.475956 0.099040 0.585494
0.590614 0.100897 0.599476
0.700905 0.097980 0.597164
0.808281 0.095674 0.594751
0.000000 0.184198 0.551161
0.087042 0.192432 0.576217
0.193062 0.200720 0.601396
0.302281 0.205352 0.615555
0.415866 0.209791 0.629087
0.533315 0.214074 0.642093
0.654160 0.218227 0.654649
0.767882 0.215313 0.650226
0.878335 0.212811 0.645932
0.000000 0.298570 0.597971
0.101858 0.310899 0.622243
0.214733 0.323270 0.646713
0.335503 0.335635 0.671297
0.455662 0.341746 0.683493
0.579065 0.347439 0.694878
0.705364 0.352682 0.705364
0.822838 0.348289 0.698006
0.936800 0.344159 0.690819
0.000000 0.426021 0.639040
0.110481 0.441923 0.662885
0.228747 0.457494 0.686242
0.354480 0.472640 0.708960
0.487274 0.487274 0.730911
0.616082 0.492866 0.739299
0.746768 0.497846 0.746768
0.866960 0.490999 0.736499
0.983185 0.484420 0.726626
0.000000 0.562053 0.674464
0.116006 0.580028 0.696033
0.238936 0.597340 0.716808
0.368332 0.613886 0.736663
0.503655 0.629568 0.755482
0.644369 0.644325 0.773059
0.778145 0.648125 0.776373
0.900870 0.638553 0.761531
1.000000 0.629534 0.746403
0.000000 0.701370 0.701370
0.120027 0.720159 0.720159
0.246200 0.737976 0.737560
0.378397 0.754901 0.752849
0.515939 0.770827 0.765971
0.658068 0.785648 0.776910
0.803974 0.799268 0.785671
0.927982 0.786386 0.765643
1.000000 0.773985 0.745725
0.001697 0.826105 0.705246
0.124087 0.845197 0.718508
0.251897 0.863040 0.729692
0.384384 0.879512 0.738796
0.520747 0.894497 0.745839
0.660133 0.907882 0.750856
0.801641 0.919560 0.753896
0.932467 0.917568 0.744863
1.000000 0.900413 0.721048
0.010201 0.945552 0.692503
0.133557 0.963470 0.700041
0.260904 0.979580 0.705632
0.391383 0.993745 0.709319
0.524076 1.000000 0.711156
0.657988 1.000000 0.711200
0.792010 1.000000 0.709500
0.914271 1.000000 0.697039
1.000000 1.000000 0.683440
0.000000 0.012552 0.466300
0.041466 0.011255 0.504099
0.122060 0.009911 0.534580
0.210470 0.008559 0.560519
0.305456 0.007230 0.583348
0.406154 0.005950 0.603921
0.511901 0.004746 0.622792
0.622157 0.003638 0.640346
0.727184 0.000147 0.640799
0.000000 0.086301 0.569137
0.067515 0.090037 0.600981
0.160578 0.092210 0.621628
0.259517 0.094203 0.640661
0.363657 0.096080 0.658423
0.472435 0.097888 0.675168
0.585353 0.099665 0.691086
0.701963 0.101442 0.706320
0.810241 0.098772 0.703440
0.000000 0.182560 0.635687
0.087065 0.190585 0.664626
0.191992 0.198691 0.693743
0.299838 0.203119 0.709864
0.411833 0.207386 0.725285
0.527513 0.211523 0.740107
0.646438 0.215556 0.754409
0.768216 0.219490 0.768216
0.879571 0.216524 0.762833
0.000000 0.295106 0.688924
0.101057 0.307233 0.717047
0.212456 0.319421 0.745371
0.331593 0.331621 0.773786
0.450024 0.337518 0.787542
0.571654 0.342992 0.800315
0.696084 0.348042 0.812098
0.822899 0.352671 0.822899
0.937573 0.348045 0.814189
0.000000 0.420449 0.735786
0.109028 0.436110 0.763193
0.225723 0.451446 0.790030
0.349776 0.466368 0.816143
0.480789 0.480789 0.841381
0.607733 0.486186 0.850826
0.736498 0.490999 0.859247
0.866646 0.495226 0.866646
0.983415 0.488149 0.854754
0.000000 0.554081 0.775713
0.114367 0.571835 0.800569
0.235575 0.588938 0.824513
0.363170 0.605284 0.847397
0.496620 0.620775 0.869085
0.635547 0.635412 0.889149
0.767623 0.639186 0.892680
0.900667 0.642468 0.894241
1.000000 0.632981 0.876496
0.000000 0.691077 0.806256
0.118288 0.709684 0.827950
0.242890 0.727416 0.847785
0.373459 0.744264 0.865320
0.509304 0.760112 0.880506
0.649668 0.774855 0.893317
0.793738 0.788391 0.903747
0.927732 0.789547 0.898886
1.000000 0.776611 0.876042
0.002254 0.827970 0.824062
0.125032 0.846740 0.839259
0.253086 0.864229 0.852167
0.385661 0.880314 0.862776
0.521944 0.894880 0.871097
0.661073 0.907816 0.877159
0.802133 0.919011 0.881003
0.944154 0.928346 0.882679
1.000000 0.910505 0.855813
0.011382 0.946781 0.809273
0.134899 0.964230 0.818238
0.262241 0.979832 0.825026
0.392536 0.993447 0.829672
0.524846 1.000000 0.832215
0.658151 1.000000 0.832695
0.791297 1.000000 0.831133
0.922839 1.000000 0.827476
1.000000 1.000000 0.811382
0.000000 0.012119 0.537303
0.043241 0.010801 0.576355
0.123785 0.009451 0.608553
0.211614 0.008103 0.636334
0.305622 0.006788 0.661025
0.405023 0.005532 0.683440
0.509209 0.004358 0.704123
0.617682 0.003287 0.723455
0.730012 0.002340 0.741714
0.000000 0.085783 0.645630
0.068270 0.089346 0.681047
0.160621 0.091346 0.703605
0.258508 0.093200 0.724509
0.361316 0.094964 0.744100
0.468525 0.096682 0.762631
0.579675 0.098389 0.780291
0.694351 0.100113 0.797225
0.812166 0.101877 0.813545
0.000000 0.180768 0.718315
0.086977 0.188601 0.750958
0.190746 0.196541 0.783847
0.297167 0.200783 0.801738
0.407538 0.204892 0.818878
0.521424 0.208899 0.835368
0.638418 0.212824 0.851282
0.758234 0.216638 0.866553
0.880829 0.220207 0.880829
0.000000 0.291492 0.777313
0.100158 0.303436 0.809164
0.210037 0.315459 0.841225
0.327511 0.327511 0.873361
0.444250 0.333188 0.888501
0.564101 0.338460 0.902561
0.686666 0.343333 0.915555
0.811552 0.347808 0.927488
0.938362 0.351886 0.938362
0.000000 0.414745 0.829489
0.107544 0.430176 0.860353
0.222648 0.445295 0.890590
0.345008 0.460011 0.920022
0.474236 0.474236 0.948472
0.599322 0.479457 0.958914
0.726180 0.484120 0.968240
0.854389 0.488222 0.976445
0.983734 0.491846 0.983240
0.000000 0.546025 0.873640
0.112716 0.563578 0.901726
0.232196 0.580490 0.928783
0.357992 0.596653 0.954645
0.489582 0.611972 0.979145
0.626811 0.626534 1.000000
0.757202 0.630299 1.000000
0.888534 0.633585 1.000000
1.000000 0.636368 1.000000
0.000000 0.680770 0.907694
0.116622 0.699242 0.932160
0.239668 0.716911 0.954378
0.368616 0.733694 0.974129
0.502773 0.749476 0.991352
0.641382 0.764148 1.000000
0.783629 0.777608 1.000000
0.915843 0.778778 1.000000
1.000000 0.779140 1.000000
0.002886 0.815854 0.927238
0.124081 0.834564 0.944564
0.250490 0.851984 0.959413
0.381355 0.867991 0.971766
0.515862 0.882467 0.981621
0.653141 0.895296 0.988996
0.792269 0.906364 0.993922
0.932263 0.915542 0.996436
1.000000 0.911468 0.983758
0.012611 0.947898 0.926038
0.136263 0.964868 0.936305
0.263571 0.979950 0.944160
0.393646 0.993001 0.949624
0.525535 1.000000 0.952726
0.658185 1.000000 0.953481
0.790382 1.000000 0.951865
0.920519 1.000000 0.947717
1.000000 1.000000 1.000000
