mini_run_pipeline/luts/kodak_2383_print.cube
TITLE "Kodak Vision Color Print Film 2383 Emulation"
LUT_3D_SIZE 5
DOMAIN_MIN 0.0 0.0 0.0
DOMAIN_MAX 1.0 1.0 1.0
0.000000 0.000000 0.000000
0.143972 0.000000 0.004717
0.318553 0.000000 0.000000
0.509540 0.000000 0.000000
0.705268 0.000000 0.000000
0.000000 0.184561 0.018063
0.182480 0.196963 0.011586
0.409926 0.190542 0.000000
0.624417 0.188625 0.000000
0.830938 0.186962 0.000000
0.000000 0.425013 0.001369
0.220999 0.442052 0.000025
0.457231 0.457231 0.000000
0.687854 0.446582 0.000000
0.904660 0.437164 0.000000
0.000000 0.686093 0.000000
0.233705 0.701116 0.000000
0.475597 0.713155 0.000000
0.724591 0.722954 0.000000
0.949589 0.702565 0.000000
0.004285 0.936002 0.000000
0.245418 0.945409 0.000000
0.489638 0.951065 0.000000
0.732634 0.952310 0.000000
0.969252 0.948133 0.000000
0.000000 0.014480 0.133814
0.107714 0.012167 0.168552
0.310438 0.000000 0.165164
0.511396 0.000000 0.164347
0.711995 0.000000 0.162143
0.000000 0.189012 0.198867
0.195455 0.207476 0.213487
0.432878 0.201053 0.199000
0.657329 0.199222 0.193447
0.873566 0.197678 0.190199
0.000000 0.430988 0.216054
0.231977 0.463954 0.231977
0.478691 0.478691 0.239345
0.718652 0.467362 0.227014
0.944160 0.457190 0.218595
0.000000 0.691536 0.230512
0.243506 0.730519 0.243506
0.494639 0.741117 0.245917
0.751847 0.749344 0.243665
0.983552 0.727454 0.222120
0.006015 0.939584 0.226274
0.255550 0.977299 0.226447
0.506361 0.979943 0.215622
0.753869 0.977780 0.202399
0.992444 0.969592 0.187808
0.000000 0.013771 0.258993
0.114758 0.011280 0.312231
0.301947 0.008584 0.344868
0.512845 0.000000 0.347648
0.718311 0.000000 0.348208
0.000000 0.186974 0.377339
0.194648 0.204388 0.410724
0.423093 0.214310 0.429470
0.655698 0.208753 0.421021
0.875927 0.205297 0.415594
0.000000 0.436767 0.436914
0.234621 0.469242 0.469242
0.500000 0.500000 0.500000
0.749032 0.487863 0.484530
0.982865 0.476817 0.471817
0.000000 0.696628 0.464419
0.244804 0.734397 0.489589
0.513410 0.768321 0.509604
0.778336 0.774807 0.507126
1.000000 0.751282 0.477018
0.007995 0.942774 0.459128
0.258220 0.978687 0.466262
0.522322 1.000000 0.467632
0.773696 1.000000 0.451050
1.000000 0.988794 0.431840
0.000000 0.012973 0.395826
0.120001 0.010370 0.460247
0.304807 0.007677 0.504550
0.514022 0.005145 0.539747
0.724296 0.000000 0.541543
0.000000 0.184198 0.551161
0.193062 0.200720 0.601396
0.415866 0.209791 0.629087
0.654160 0.218227 0.654649
0.878335 0.212811 0.645932
0.000000 0.426021 0.639040
0.228747 0.457494 0.686242
0.487274 0.487274 0.730911
0.746768 0.497846 0.746768
0.983185 0.484420 0.726626
0.000000 0.701370 0.701370
0.246200 0.737976 0.737560
0.515939 0.770827 0.765971
0.803974 0.799268 0.785671
1.000000 0.773985 0.745725
0.010201 0.945552 0.692503
0.260904 0.979580 0.705632
0.524076 1.000000 0.711156
0.792010 1.000000 0.709500
1.000000 1.000000 0.683440
0.000000 0.012119 0.537303
0.123785 0.009451 0.608553
0.305622 0.006788 0.661025
0.509209 0.004358 0.704123
0.730012 0.002340 0.741714
0.000000 0.180768 0.718315
0.190746 0.196541 0.783847
0.407538 0.204892 0.818878
0.638418 0.212824 0.851282
0.880829 0.220207 0.880829
0.000000 0.414745 0.829489
0.222648 0.445295 0.890590
0.474236 0.474236 0.948472
0.726180 0.484120 0.968240
0.983734 0.491846 0.983240
0.000000 0.680770 0.907694
0.239668 0.716911 0.954378
0.502773 0.749476 0.991352
0.783629 0.777608 1.000000
1.000000 0.779140 1.000000
0.012611 0.947898 0.926038
0.263571 0.979950 0.944160
0.525535 1.000000 0.952726
0.790382 1.000000 0.951865
1.000000 1.000000 1.000000
