mini_run_pipeline/luts/moody_dramatic_cinema.cube
TITLE "Moody Dramatic Cinema Noir"
LUT_3D_SIZE 5
DOMAIN_MIN 0.0 0.0 0.0
DOMAIN_MAX 1.0 1.0 1.0
0.000000 0.000000 0.000000
0.061432 0.006950 0.028750
0.191777 0.017465 0.034840
0.349009 0.030204 0.042890
0.527294 0.044720 0.052960
0.024284 0.150466 0.046316
0.170338 0.177101 0.057149
0.337113 0.203632 0.070151
0.520358 0.230067 0.085400
0.716404 0.256286 0.102921
0.090637 0.388215 0.091517
0.265743 0.421683 0.109804
0.453653 0.453653 0.129065
0.651573 0.483917 0.148605
0.856312 0.512238 0.168164
0.155737 0.663829 0.155737
0.348628 0.695408 0.175238
0.547295 0.723741 0.194403
0.748594 0.748594 0.212977
0.949424 0.769745 0.230708
0.219543 0.935799 0.219543
0.416765 0.956342 0.236905
0.611561 0.970986 0.252135
0.799403 0.978028 0.263528
0.977873 0.977873 0.271576
0.000000 0.001698 0.080776
0.073681 0.010230 0.114412
0.208153 0.021569 0.138537
0.368408 0.034951 0.160939
0.548949 0.049999 0.183311
0.030746 0.159533 0.169039
0.180638 0.186119 0.191600
0.354007 0.211589 0.213953
0.543418 0.236808 0.237276
0.740961 0.262805 0.262805
0.097229 0.399738 0.248682
0.274508 0.432718 0.274508
0.464134 0.464134 0.299908
0.700050 0.487716 0.275383
0.909537 0.512463 0.313926
0.162381 0.674903 0.333222
0.356333 0.705406 0.356333
0.555318 0.732583 0.378054
0.756203 0.756203 0.398138
0.975795 0.774591 0.372183
0.225556 0.943317 0.404996
0.422425 0.962169 0.422425
0.615313 0.974212 0.435864
0.800724 0.978762 0.444646
0.976239 0.976239 0.449298
0.000000 0.004184 0.162434
0.085297 0.013820 0.213330
0.223973 0.025907 0.252344
0.387251 0.039889 0.287486
0.569994 0.055438 0.321071
0.037324 0.168575 0.299825
0.190825 0.195128 0.333126
0.362944 0.221603 0.366084
0.549768 0.247909 0.399062
0.748030 0.273879 0.431929
0.103722 0.411101 0.411105
0.283208 0.443573 0.443573
0.474409 0.474409 0.474409
0.678796 0.502116 0.502116
0.888717 0.527660 0.527660
0.169007 0.685620 0.513416
0.363878 0.715020 0.539449
0.563042 0.741014 0.563042
0.763377 0.763377 0.583960
1.000000 0.775433 0.549724
0.231452 0.950280 0.590866
0.427543 0.967129 0.607405
0.618419 0.976573 0.618419
0.801344 0.978684 0.624003
0.973803 0.973803 0.624617
0.000000 0.007123 0.259051
0.096550 0.017686 0.323427
0.239354 0.030461 0.375297
0.405595 0.045008 0.421917
0.590455 0.061026 0.465771
0.043994 0.177601 0.438126
0.200885 0.204130 0.481291
0.375416 0.230563 0.523051
0.563793 0.256777 0.563806
0.763223 0.282584 0.603010
0.110162 0.422299 0.578367
0.291835 0.454239 0.616643
0.484469 0.484469 0.652216
0.684861 0.512750 0.684861
0.889841 0.538841 0.714341
0.175602 0.695972 0.695972
0.371253 0.724241 0.724241
0.570458 0.749027 0.749027
0.770106 0.770106 0.770106
0.971731 0.785602 0.785602
0.237222 0.956682 0.776817
0.432085 0.971188 0.791487
0.620899 0.978090 0.799495
0.801277 0.977803 0.801277
0.970541 0.970541 0.797139
0.000000 0.010422 0.367505
0.107575 0.021804 0.443367
0.254370 0.035219 0.506645
0.423476 0.050296 0.563702
0.610349 0.066754 0.616982
0.050729 0.186618 0.583459
0.210805 0.213122 0.635686
0.387576 0.239498 0.685517
0.577399 0.265597 0.733300
0.777999 0.291217 0.777999
0.116659 0.433324 0.749989
0.300380 0.464709 0.793367
0.494304 0.494304 0.832981
0.695239 0.521869 0.868609
0.900022 0.547159 0.900022
0.182159 0.705949 0.880545
0.378448 0.733061 0.910367
0.577555 0.756612 0.935669
0.776383 0.776383 0.956240
0.970925 0.791209 0.970925
0.242809 0.962468 0.962468
0.436070 0.974365 0.974365
0.622773 0.978779 0.978779
0.800533 0.976125 0.976125
1.000000 1.000000 1.000000
