mini_run_pipeline/luts/moody_dramatic_cinema.cube
TITLE "Moody Dramatic Cinema Noir"
LUT_3D_SIZE 33
DOMAIN_MIN 0.0 0.0 0.0
DOMAIN_MAX 1.0 1.0 1.0
0.000000 0.000000 0.000000
0.000000 0.000468 0.025245
0.000000 0.001143 0.025601
0.000000 0.001931 0.026020
0.009917 0.002806 0.026487
0.021695 0.003753 0.026998
0.034256 0.004763 0.027546
0.047521 0.005831 0.028131
0.061432 0.006950 0.028750
0.075942 0.008119 0.029402
0.091013 0.009333 0.030086
0.106616 0.010591 0.030802
0.122723 0.011890 0.031548
0.139311 0.013228 0.032326
0.156361 0.014604 0.033134
0.173855 0.016017 0.033972
0.191777 0.017465 0.034840
0.210112 0.018948 0.035739
0.228846 0.020463 0.036668
0.247968 0.022011 0.037628
0.267466 0.023590 0.038619
0.287329 0.025199 0.039640
0.307547 0.026839 0.040692
0.328110 0.028507 0.041775
0.349009 0.030204 0.042890
0.370236 0.031928 0.044036
0.391780 0.033679 0.045213
0.413635 0.035457 0.046423
0.435793 0.037260 0.047665
0.458245 0.039089 0.048940
0.480984 0.040942 0.050247
0.504003 0.042819 0.051587
0.527294 0.044720 0.052960
0.000000 0.009549 0.026185
0.000000 0.011046 0.026669
0.000000 0.012530 0.027193
0.009156 0.014019 0.027755
0.021266 0.015521 0.028353
0.034113 0.017041 0.028984
0.047631 0.018584 0.029648
0.061771 0.020149 0.030343
0.076492 0.021740 0.031070
0.091761 0.023355 0.031828
0.107548 0.024996 0.032616
0.123829 0.026663 0.033435
0.140583 0.028356 0.034284
0.157790 0.030074 0.035164
0.175433 0.031818 0.036074
0.193497 0.033587 0.037014
0.211967 0.035381 0.037985
0.230830 0.037200 0.038987
0.250074 0.039043 0.040019
0.269688 0.040910 0.041083
0.289661 0.042801 0.042177
0.309983 0.044715 0.043303
0.330643 0.046652 0.044461
0.351634 0.048612 0.045650
0.372945 0.050593 0.046872
0.394569 0.052597 0.048125
0.416497 0.054622 0.049412
0.438721 0.056667 0.050731
0.461233 0.058734 0.052083
0.484027 0.060820 0.053468
0.507093 0.062926 0.054886
0.530425 0.065051 0.056339
0.554017 0.067196 0.057824
0.000000 0.023593 0.027969
0.000000 0.025503 0.028579
0.005979 0.027404 0.029222
0.018557 0.029303 0.029897
0.031808 0.031206 0.030604
0.045684 0.033117 0.031342
0.060145 0.035039 0.032111
0.075158 0.036974 0.032911
0.090694 0.038923 0.033741
0.106729 0.040889 0.034601
0.123240 0.042871 0.035492
0.140209 0.044871 0.036413
0.157617 0.046888 0.037364
0.175450 0.048924 0.038346
0.193691 0.050978 0.039359
0.212329 0.053050 0.040403
0.231351 0.055142 0.041477
0.250744 0.057251 0.042583
0.270498 0.059379 0.043721
0.290603 0.061526 0.044890
0.311048 0.063691 0.046091
0.331824 0.065873 0.047324
0.352923 0.068074 0.048590
0.374334 0.070292 0.049888
0.396051 0.072528 0.051219
0.418064 0.074781 0.052583
0.440365 0.077050 0.053980
0.462948 0.079336 0.055411
0.485804 0.081638 0.056876
0.508926 0.083957 0.058374
0.532306 0.086290 0.059906
0.555938 0.088639 0.061473
0.579814 0.091003 0.063074
0.000000 0.040269 0.030151
0.001144 0.042497 0.030869
0.014208 0.044717 0.031619
0.027890 0.046936 0.032399
0.042154 0.049156 0.033210
0.056968 0.051381 0.034051
0.072303 0.053613 0.034922
0.088137 0.055853 0.035823
0.104448 0.058102 0.036756
0.121216 0.060363 0.037718
0.138425 0.062636 0.038711
0.156058 0.064921 0.039735
0.174102 0.067219 0.040790
0.192542 0.069530 0.041876
0.211366 0.071855 0.042994
0.230562 0.074194 0.044143
0.250120 0.076547 0.045324
0.270028 0.078914 0.046536
0.290278 0.081295 0.047781
0.310858 0.083690 0.049059
0.331761 0.086099 0.050369
0.352977 0.088522 0.051712
0.374497 0.090959 0.053088
0.396314 0.093409 0.054497
0.418419 0.095873 0.055940
0.440805 0.098350 0.057417
0.463464 0.100840 0.058928
0.486387 0.103342 0.060473
0.509569 0.105857 0.062052
0.533001 0.108384 0.063666
0.556677 0.110923 0.065314
0.580589 0.113473 0.066997
0.604730 0.116034 0.068715
0.000000 0.059041 0.032691
0.008551 0.061539 0.033512
0.022662 0.064032 0.034364
0.037318 0.066524 0.035247
0.052491 0.069016 0.036159
0.068160 0.071510 0.037102
0.084302 0.074010 0.038076
0.100900 0.076515 0.039081
0.117937 0.079026 0.040116
0.135397 0.081546 0.041182
0.153266 0.084074 0.042280
0.171531 0.086611 0.043409
0.190179 0.089157 0.044569
0.209199 0.091714 0.045761
0.228580 0.094280 0.046986
0.248310 0.096857 0.048243
0.268380 0.099444 0.049532
0.288781 0.102041 0.050854
0.309504 0.104649 0.052209
0.330538 0.107268 0.053597
0.351877 0.109897 0.055019
0.373511 0.112536 0.056474
0.395432 0.115185 0.057963
0.417633 0.117845 0.059486
0.440106 0.120514 0.061044
0.462843 0.123193 0.062635
0.485836 0.125881 0.064262
0.509079 0.128579 0.065923
0.532564 0.131285 0.067619
0.556284 0.134000 0.069349
0.580232 0.136723 0.071116
0.604401 0.139454 0.072917
0.628785 0.142193 0.074753
0.001782 0.079619 0.035575
0.016312 0.082357 0.036499
0.031352 0.085092 0.037453
0.046882 0.087825 0.038438
0.062882 0.090558 0.039454
0.079335 0.093293 0.040500
0.096222 0.096030 0.041578
0.113531 0.098771 0.042687
0.131246 0.101517 0.043827
0.149355 0.104268 0.045000
0.167846 0.107025 0.046204
0.186706 0.109788 0.047440
0.205925 0.112557 0.048708
0.225493 0.115333 0.050009
0.245400 0.118117 0.051344
0.265635 0.120908 0.052711
0.286191 0.123706 0.054111
0.307057 0.126511 0.055545
0.328226 0.129323 0.057012
0.349689 0.132143 0.058514
0.371438 0.134970 0.060049
0.393465 0.137804 0.061619
0.415763 0.140645 0.063223
0.438323 0.143493 0.064862
0.461138 0.146347 0.066536
0.484201 0.149208 0.068245
0.507505 0.152074 0.069988
0.531042 0.154947 0.071767
0.554805 0.157824 0.073581
0.578789 0.160708 0.075431
0.602984 0.163595 0.077316
0.627385 0.166488 0.079236
0.651986 0.169385 0.081193
0.008964 0.101807 0.038804
0.024379 0.104764 0.039831
0.040257 0.107718 0.040889
0.056583 0.110670 0.041978
0.073341 0.113621 0.043099
0.090516 0.116572 0.044250
0.108095 0.119524 0.045434
0.126064 0.122478 0.046650
0.144412 0.125435 0.047898
0.163128 0.128395 0.049178
0.182201 0.131358 0.050491
0.201620 0.134325 0.051837
0.221375 0.137296 0.053217
0.241458 0.140271 0.054629
0.261858 0.143250 0.056075
0.282568 0.146234 0.057555
0.303579 0.149222 0.059069
0.324882 0.152215 0.060617
0.346469 0.155212 0.062199
0.368332 0.158213 0.063816
0.390464 0.161218 0.065468
0.412857 0.164227 0.067154
0.435503 0.167240 0.068875
0.458395 0.170257 0.070632
0.481526 0.173277 0.072424
0.504889 0.176300 0.074251
0.528476 0.179325 0.076113
0.552281 0.182354 0.078011
0.576297 0.185384 0.079944
0.600516 0.188417 0.081913
0.624933 0.191451 0.083918
0.649540 0.194486 0.085958
0.674330 0.197522 0.088034
0.016486 0.125462 0.042382
0.032702 0.128620 0.043514
0.049346 0.131773 0.044678
0.066403 0.134924 0.045873
0.083859 0.138073 0.047100
0.101703 0.141221 0.048360
0.119923 0.144368 0.049652
0.138507 0.147516 0.050978
0.157445 0.150664 0.052336
0.176727 0.153813 0.053727
0.196343 0.156963 0.055152
0.216284 0.160114 0.056610
0.236541 0.163267 0.058102
0.257105 0.166422 0.059628
0.277967 0.169578 0.061189
0.299119 0.172736 0.062784
0.320554 0.175895 0.064413
0.342263 0.179056 0.066078
0.364238 0.182218 0.067777
0.386472 0.185382 0.069511
0.408958 0.188547 0.071280
0.431688 0.191712 0.073085
0.454654 0.194879 0.074925
0.477851 0.198045 0.076800
0.501270 0.201212 0.078711
0.524904 0.204379 0.080657
0.548747 0.207546 0.082639
0.572792 0.210711 0.084657
0.597032 0.213876 0.086710
0.621460 0.217039 0.088799
0.646070 0.220201 0.090923
0.670855 0.223360 0.093083
0.695807 0.226517 0.095278
0.024284 0.150466 0.046316
0.041235 0.153807 0.047555
0.058583 0.157144 0.048827
0.076313 0.160476 0.050131
0.094416 0.163806 0.051468
0.112880 0.167133 0.052838
0.131695 0.170457 0.054242
0.150851 0.173780 0.055679
0.170338 0.177101 0.057149
0.190147 0.180421 0.058654
0.210270 0.183740 0.060193
0.230697 0.187058 0.061766
0.251420 0.190375 0.063373
0.272431 0.193691 0.065015
0.293722 0.197006 0.066692
0.315285 0.200319 0.068404
0.337113 0.203632 0.070151
0.359196 0.206943 0.071933
0.381530 0.210253 0.073750
0.404105 0.213560 0.075603
0.426914 0.216867 0.077492
0.449952 0.220170 0.079415
0.473209 0.223472 0.081375
0.496681 0.226771 0.083370
0.520358 0.230067 0.085400
0.544236 0.233359 0.087466
0.568306 0.236648 0.089568
0.592563 0.239933 0.091705
0.616998 0.243214 0.093878
0.641607 0.246490 0.096086
0.666382 0.249761 0.098329
0.691316 0.253027 0.100607
0.716404 0.256286 0.102921
0.032303 0.176718 0.050614
0.049931 0.180227 0.051963
0.067928 0.183730 0.053345
0.086282 0.187228 0.054761
0.104984 0.190722 0.056210
0.124023 0.194211 0.057693
0.143391 0.197696 0.059210
0.163078 0.201177 0.060761
0.183075 0.204654 0.062347
0.203374 0.208128 0.063967
0.223967 0.211599 0.065622
0.244845 0.215066 0.067311
0.266001 0.218529 0.069036
0.287426 0.221988 0.070796
0.309113 0.225444 0.072591
0.331054 0.228896 0.074421
0.353242 0.232344 0.076287
0.375670 0.235788 0.078188
0.398330 0.239227 0.080124
0.421215 0.242662 0.082097
0.444319 0.246091 0.084105
0.467634 0.249516 0.086148
0.491153 0.252935 0.088227
0.514870 0.256348 0.090342
0.538777 0.259755 0.092492
0.562869 0.263155 0.094677
0.587137 0.266549 0.096898
0.611576 0.269935 0.099154
0.636180 0.273314 0.101445
0.660940 0.276685 0.103771
0.685854 0.280047 0.106129
0.710935 0.283400 0.108500
0.736179 0.286745 0.110879
0.040492 0.204124 0.055285
0.058746 0.207786 0.056746
0.077343 0.211441 0.058241
0.096275 0.215089 0.059771
0.115531 0.218731 0.061334
0.135104 0.222366 0.062933
0.154985 0.225995 0.064565
0.175164 0.229618 0.066233
0.195635 0.233235 0.067935
0.216388 0.236846 0.069672
0.237415 0.240451 0.071445
0.258710 0.244050 0.073253
0.280264 0.247643 0.075096
0.302069 0.251229 0.076975
0.324120 0.254809 0.078889
0.346407 0.258382 0.080838
0.368925 0.261948 0.082824
0.391665 0.265507 0.084845
0.414622 0.269058 0.086901
0.437787 0.272602 0.088993
0.461154 0.276137 0.091120
0.484717 0.279665 0.093283
0.508468 0.283183 0.095482
0.532400 0.286693 0.097716
0.556508 0.290193 0.099984
0.580784 0.293683 0.102288
0.605222 0.297163 0.104627
0.629824 0.300633 0.106991
0.654600 0.304092 0.109365
0.679543 0.307539 0.111747
0.704649 0.310975 0.114137
0.729910 0.314398 0.116535
0.755320 0.317809 0.118940
0.048802 0.232600 0.060336
0.067634 0.236400 0.061912
0.086788 0.240191 0.063523
0.106255 0.243974 0.065168
0.126026 0.247748 0.066848
0.146093 0.251513 0.068564
0.166448 0.255271 0.070314
0.187083 0.259019 0.072099
0.207990 0.262759 0.073920
0.229162 0.266491 0.075776
0.250590 0.270214 0.077667
0.272267 0.273928 0.079594
0.294186 0.277633 0.081557
0.316340 0.281329 0.083555
0.338722 0.285016 0.085589
0.361324 0.288692 0.087658
0.384139 0.292359 0.089763
0.407161 0.296016 0.091904
0.430383 0.299662 0.094080
0.453798 0.303297 0.096291
0.477399 0.306921 0.098537
0.501179 0.310533 0.100819
0.525132 0.314134 0.103136
0.549251 0.317722 0.105486
0.573548 0.321297 0.107855
0.598023 0.324860 0.110231
0.622671 0.328409 0.112617
0.647484 0.331944 0.115009
0.672458 0.335464 0.117410
0.697585 0.338970 0.119817
0.722860 0.342461 0.122230
0.748275 0.345936 0.124649
0.773826 0.349395 0.127073
0.057187 0.262064 0.065776
0.076555 0.265987 0.067469
0.096224 0.269899 0.069197
0.116186 0.273801 0.070960
0.136433 0.277691 0.072758
0.156957 0.281571 0.074591
0.177750 0.285440 0.076460
0.198805 0.289298 0.078365
0.220114 0.293145 0.080305
0.241669 0.296981 0.082280
0.263464 0.300805 0.084292
0.285491 0.304617 0.086338
0.307743 0.308418 0.088421
0.330213 0.312206 0.090539
0.352894 0.315982 0.092692
0.375779 0.319745 0.094881
0.398862 0.323496 0.097105
0.422135 0.327233 0.099364
0.445591 0.330956 0.101658
0.469225 0.334665 0.103988
0.493034 0.338359 0.106348
0.517029 0.342039 0.108719
0.541208 0.345704 0.111099
0.565563 0.349353 0.113487
0.590089 0.352986 0.115882
0.614779 0.356602 0.118285
0.639627 0.360202 0.120694
0.664626 0.363784 0.123110
0.689772 0.367348 0.125531
0.715056 0.370895 0.127957
0.740474 0.374422 0.130388
0.766018 0.377931 0.132822
0.791684 0.381419 0.135261
0.065604 0.292436 0.071610
0.085467 0.296467 0.073421
0.105613 0.300485 0.075268
0.126032 0.304489 0.077150
0.146718 0.308481 0.079067
0.167663 0.312459 0.081020
0.188858 0.316423 0.083008
0.210298 0.320374 0.085033
0.231975 0.324311 0.087092
0.253881 0.328234 0.089188
0.276010 0.332142 0.091318
0.298354 0.336036 0.093485
0.320907 0.339915 0.095686
0.343661 0.343779 0.097923
0.366611 0.347627 0.100195
0.389748 0.351459 0.102502
0.413067 0.355275 0.104844
0.436572 0.359075 0.107210
0.460270 0.362858 0.109584
0.484156 0.366623 0.111967
0.508223 0.370370 0.114358
0.532465 0.374100 0.116756
0.556875 0.377811 0.119162
0.581448 0.381502 0.121573
0.606177 0.385175 0.123991
0.631055 0.388827 0.126414
0.656077 0.392459 0.128841
0.681237 0.396071 0.131274
0.706527 0.399661 0.133710
0.731943 0.403229 0.136149
0.757477 0.406775 0.138592
0.783124 0.410299 0.141036
0.808877 0.413799 0.143483
0.074010 0.323638 0.077844
0.094332 0.327761 0.079774
0.114916 0.331868 0.081740
0.135757 0.335960 0.083741
0.156846 0.340036 0.085778
0.178177 0.344096 0.087851
0.199741 0.348139 0.089959
0.221533 0.352166 0.092103
0.243544 0.356176 0.094282
0.265769 0.360169 0.096497
0.288200 0.364145 0.098746
0.310829 0.368103 0.101031
0.333652 0.372043 0.103351
0.356661 0.375965 0.105704
0.379868 0.379868 0.108073
0.403274 0.383752 0.110451
0.426871 0.387616 0.112837
0.450653 0.391461 0.115230
0.474615 0.395285 0.117631
0.498750 0.399089 0.120039
0.523051 0.402872 0.122453
0.547513 0.406633 0.124872
0.572128 0.410371 0.127297
0.596892 0.414088 0.129726
0.621797 0.417782 0.132160
0.646838 0.421452 0.134597
0.672007 0.425098 0.137038
0.697300 0.428721 0.139481
0.722710 0.432318 0.141927
0.748230 0.435890 0.144374
0.773854 0.439437 0.146822
0.799577 0.442957 0.149271
0.825391 0.446451 0.151720
0.082367 0.355590 0.084479
0.103110 0.359789 0.086529
0.124099 0.363971 0.088614
0.145326 0.368133 0.090736
0.166785 0.372277 0.092892
0.188468 0.376402 0.095084
0.210368 0.380508 0.097312
0.232478 0.384594 0.099574
0.254793 0.388661 0.101872
0.277304 0.392707 0.104204
0.300010 0.396733 0.106566
0.322924 0.400738 0.108938
0.346041 0.404721 0.111319
0.369353 0.408684 0.113707
0.392856 0.412624 0.116104
0.416542 0.416542 0.118507
0.440405 0.420437 0.120917
0.464438 0.424308 0.123333
0.488637 0.428156 0.125754
0.512994 0.431980 0.128181
0.537503 0.435780 0.130612
0.562157 0.439554 0.133047
0.586952 0.443304 0.135486
0.611880 0.447027 0.137927
0.636935 0.450723 0.140371
0.662111 0.454393 0.142818
0.687401 0.458036 0.145265
0.712801 0.461651 0.147714
0.738302 0.465238 0.150163
0.763900 0.468795 0.152612
0.789588 0.472324 0.155060
0.815359 0.475823 0.157508
0.841208 0.479292 0.159954
0.090637 0.388215 0.091517
0.111767 0.392474 0.093686
0.133126 0.396713 0.095891
0.154706 0.400930 0.098131
0.176501 0.405125 0.100407
0.198503 0.409298 0.102717
0.220707 0.413449 0.105062
0.243119 0.417577 0.107428
0.265743 0.421683 0.109804
0.288575 0.425765 0.112187
0.311607 0.429823 0.114579
0.334833 0.433858 0.116978
0.358247 0.437867 0.119384
0.381842 0.441852 0.121796
0.405612 0.445812 0.124214
0.429551 0.449746 0.126637
0.453653 0.453653 0.129065
0.477912 0.457534 0.131498
0.502320 0.461388 0.133934
0.526872 0.465215 0.136374
0.551562 0.469013 0.138817
0.576383 0.472783 0.141262
0.601329 0.476524 0.143708
0.626395 0.480235 0.146156
0.651573 0.483917 0.148605
0.676857 0.487568 0.151054
0.702242 0.491189 0.153503
0.727721 0.494778 0.155952
0.753288 0.498335 0.158398
0.778937 0.501861 0.160844
0.804661 0.505353 0.163287
0.830455 0.508812 0.165727
0.856312 0.512238 0.168164
0.098785 0.421434 0.098955
0.120268 0.425736 0.101244
0.141963 0.430015 0.103567
0.163866 0.434269 0.105922
0.185988 0.438499 0.108292
0.208327 0.442703 0.110671
0.230878 0.446882 0.113057
0.253633 0.451035 0.115451
0.276587 0.455162 0.117853
0.299732 0.459262 0.120261
0.323064 0.463336 0.122675
0.346575 0.467382 0.125095
0.370259 0.471400 0.127521
0.394110 0.475389 0.129951
0.418121 0.479350 0.132385
0.442287 0.483282 0.134822
0.466601 0.487184 0.137263
0.491056 0.491056 0.139707
0.515648 0.494898 0.142152
0.540368 0.498708 0.144600
0.565212 0.502487 0.147048
0.590173 0.506234 0.149497
0.615244 0.509949 0.151946
0.640420 0.513631 0.154395
0.665694 0.517279 0.156843
0.691060 0.520893 0.159289
0.716513 0.524474 0.161733
0.742045 0.528019 0.164175
0.767650 0.531529 0.166614
0.793323 0.535003 0.169050
0.819057 0.538441 0.171482
0.844846 0.541842 0.173909
0.870685 0.545206 0.176331
0.106784 0.455166 0.106784
0.128620 0.459496 0.109157
0.150678 0.463797 0.111539
0.172952 0.468072 0.113928
0.195435 0.472318 0.116325
0.218120 0.476536 0.118729
0.241001 0.480725 0.121139
0.264073 0.484886 0.123556
0.287328 0.489016 0.125978
0.310761 0.493117 0.128405
0.334365 0.497188 0.130836
0.358133 0.501227 0.133272
0.382060 0.505235 0.135711
0.406140 0.509212 0.138152
0.430365 0.513156 0.140597
0.454730 0.517068 0.143043
0.479229 0.520946 0.145491
0.503855 0.524791 0.147940
0.528602 0.528602 0.150389
0.553464 0.532379 0.152838
0.578435 0.536120 0.155286
0.603508 0.539826 0.157733
0.628678 0.543496 0.160179
0.653937 0.547130 0.162623
0.679281 0.550727 0.165064
0.704702 0.554286 0.167502
0.730195 0.557807 0.169936
0.755753 0.561291 0.172366
0.781370 0.564735 0.174791
0.807041 0.568140 0.177212
0.832758 0.571505 0.179626
0.858516 0.574830 0.182035
0.884309 0.578115 0.184436
0.114800 0.489333 0.114800
0.137014 0.493671 0.117199
0.159435 0.497979 0.119606
0.182056 0.502256 0.122018
0.204872 0.506502 0.124437
0.227875 0.510716 0.126861
0.251061 0.514898 0.129290
0.274421 0.519047 0.131722
0.297951 0.523164 0.134159
0.321643 0.527247 0.136599
0.345492 0.531297 0.139042
0.369491 0.535312 0.141487
0.393634 0.539292 0.143934
0.417915 0.543237 0.146382
0.442327 0.547147 0.148831
0.466864 0.551020 0.151280
0.491521 0.554857 0.153729
0.516290 0.558657 0.156177
0.541167 0.562419 0.158624
0.566143 0.566143 0.161069
0.591214 0.569829 0.163512
0.616373 0.573475 0.165952
0.641613 0.577083 0.168388
0.666930 0.580650 0.170821
0.692316 0.584177 0.173249
0.717765 0.587663 0.175673
0.743271 0.591108 0.178091
0.768829 0.594510 0.180504
0.794432 0.597871 0.182910
0.820073 0.601189 0.185309
0.845747 0.604463 0.187701
0.871448 0.607694 0.190085
0.897169 0.610881 0.192461
0.122898 0.523853 0.122898
0.145462 0.528183 0.125319
0.168218 0.532479 0.127745
0.191160 0.536741 0.130175
0.214281 0.540968 0.132609
0.237575 0.545160 0.135047
0.261037 0.549317 0.137488
0.284659 0.553438 0.139932
0.308436 0.557522 0.142378
0.332360 0.561570 0.144825
0.356427 0.565580 0.147274
0.380629 0.569553 0.149723
0.404961 0.573487 0.152172
0.429416 0.577383 0.154620
0.453988 0.581239 0.157068
0.478671 0.585056 0.159514
0.503458 0.588833 0.161959
0.528344 0.592569 0.164400
0.553322 0.596265 0.166839
0.578386 0.599918 0.169274
0.603530 0.603530 0.171706
0.628747 0.607099 0.174132
0.654032 0.610625 0.176554
0.679379 0.614108 0.178970
0.704780 0.617547 0.181381
0.730231 0.620942 0.183784
0.755725 0.624292 0.186181
0.781255 0.627596 0.188570
0.806816 0.630855 0.190951
0.832402 0.634068 0.193324
0.858007 0.637233 0.195687
0.883624 0.640352 0.198041
0.909247 0.643424 0.200385
0.131061 0.558645 0.131061
0.153946 0.562948 0.133496
0.177010 0.567215 0.135936
0.200244 0.571443 0.138378
0.223644 0.575634 0.140822
0.247202 0.579787 0.143269
0.270912 0.583900 0.145717
0.294768 0.587974 0.148165
0.318764 0.592008 0.150614
0.342894 0.596002 0.153063
0.367152 0.599955 0.155512
0.391530 0.603867 0.157959
0.416023 0.607738 0.160404
0.440625 0.611566 0.162848
0.465330 0.615351 0.165289
0.490131 0.619093 0.167726
0.515022 0.622792 0.170160
0.539998 0.626446 0.172590
0.565051 0.630056 0.175015
0.590175 0.633622 0.177434
0.615365 0.637141 0.179849
0.640615 0.640615 0.182256
0.665917 0.644042 0.184658
0.691267 0.647422 0.187051
0.716658 0.650755 0.189438
0.742083 0.654041 0.191816
0.767538 0.657278 0.194185
0.793015 0.660466 0.196545
0.818508 0.663605 0.198896
0.844012 0.666695 0.201236
0.869521 0.669734 0.203565
0.895028 0.672723 0.205884
0.920527 0.675661 0.208191
0.139267 0.593626 0.139267
0.162448 0.597885 0.141713
0.185791 0.602104 0.144160
0.209291 0.606282 0.146608
0.232941 0.610418 0.149057
0.256735 0.614513 0.151506
0.280667 0.618565 0.153955
0.304730 0.622574 0.156403
0.328919 0.626540 0.158849
0.353227 0.630462 0.161294
0.377647 0.634340 0.163737
0.402175 0.638173 0.166176
0.426802 0.641961 0.168613
0.451525 0.645703 0.171045
0.476335 0.649399 0.173473
0.501227 0.653048 0.175896
0.526195 0.656651 0.178314
0.551233 0.660206 0.180726
0.576334 0.663712 0.183131
0.601493 0.667171 0.185530
0.626702 0.670580 0.187921
0.651957 0.673940 0.190304
0.677251 0.677251 0.192679
0.702577 0.680511 0.195045
0.727931 0.683720 0.197402
0.753305 0.686878 0.199749
0.778693 0.689984 0.202085
0.804090 0.693039 0.204411
0.829490 0.696041 0.206725
0.854886 0.698989 0.209027
0.880273 0.701885 0.211317
0.905644 0.704727 0.213595
0.930994 0.707514 0.215859
0.147499 0.628715 0.147499
0.170947 0.632912 0.149949
0.194543 0.637065 0.152398
0.218280 0.641174 0.154846
0.242154 0.645238 0.157294
0.266156 0.649256 0.159740
0.290282 0.653229 0.162184
0.314526 0.657155 0.164625
0.338880 0.661034 0.167064
0.363338 0.664866 0.169499
0.387895 0.668650 0.171930
0.412544 0.672386 0.174356
0.437280 0.676074 0.176777
0.462095 0.679712 0.179193
0.486984 0.683301 0.181602
0.511941 0.686839 0.184005
0.536959 0.690328 0.186401
0.562032 0.693765 0.188790
0.587155 0.697150 0.191170
0.612320 0.700484 0.193542
0.637523 0.703766 0.195904
0.662757 0.706995 0.198258
0.688015 0.710170 0.200601
0.713292 0.713292 0.202933
0.738582 0.716360 0.205255
0.763878 0.719373 0.207565
0.789175 0.722331 0.209863
0.814466 0.725234 0.212148
0.839746 0.728081 0.214420
0.865009 0.730872 0.216679
0.890248 0.733606 0.218924
0.915457 0.736282 0.221155
0.940631 0.738902 0.223370
0.155737 0.663829 0.155737
0.179425 0.667946 0.158184
0.203245 0.672015 0.160630
0.227193 0.676037 0.163073
0.251263 0.680010 0.165513
0.275447 0.683934 0.167951
0.299740 0.687809 0.170384
0.324136 0.691634 0.172813
0.348628 0.695408 0.175238
0.373210 0.699132 0.177657
0.397877 0.702805 0.180071
0.422621 0.706426 0.182478
0.447437 0.709995 0.184879
0.472318 0.713512 0.187272
0.497259 0.716975 0.189657
0.522253 0.720385 0.192035
0.547295 0.723741 0.194403
0.572377 0.727042 0.196762
0.597495 0.730289 0.199112
0.622641 0.733481 0.201451
0.647810 0.736617 0.203780
0.672996 0.739696 0.206097
0.698193 0.742719 0.208403
0.723394 0.745686 0.210696
0.748594 0.748594 0.212977
0.773787 0.751445 0.215244
0.798966 0.754238 0.217498
0.824126 0.756972 0.219738
0.849260 0.759646 0.221963
0.874363 0.762261 0.224173
0.899429 0.764817 0.226368
0.924451 0.767311 0.228546
0.949424 0.769745 0.230708
0.163962 0.698886 0.163962
0.187861 0.702904 0.166401
0.211880 0.706872 0.168837
0.236011 0.710788 0.171269
0.260250 0.714652 0.173697
0.284588 0.718464 0.176119
0.309021 0.722223 0.178537
0.333542 0.725929 0.180948
0.358146 0.729581 0.183353
0.382825 0.733179 0.185751
0.407573 0.736722 0.188141
0.432386 0.740210 0.190524
0.457255 0.743643 0.192898
0.482176 0.747019 0.195263
0.507142 0.750340 0.197619
0.532148 0.753603 0.199965
0.557186 0.756809 0.202300
0.582251 0.759958 0.204625
0.607337 0.763048 0.206938
0.632438 0.766079 0.209239
0.657547 0.769052 0.211528
0.682659 0.771965 0.213804
0.707768 0.774819 0.216067
0.732868 0.777612 0.218315
0.757952 0.780344 0.220550
0.783015 0.783015 0.222770
0.808051 0.785625 0.224974
0.833053 0.788172 0.227163
0.858016 0.790657 0.229335
0.882934 0.793080 0.231491
0.907800 0.795439 0.233629
0.932610 0.797734 0.235750
0.957356 0.799965 0.237853
0.172153 0.733802 0.172153
0.196238 0.737704 0.174579
0.220427 0.741552 0.177000
0.244715 0.745345 0.179415
0.269095 0.749082 0.181824
0.293561 0.752764 0.184227
0.318107 0.756389 0.186622
0.342726 0.759958 0.189010
0.367414 0.763469 0.191389
0.392163 0.766923 0.193760
0.416967 0.770319 0.196122
0.441821 0.773657 0.198474
0.466717 0.776935 0.200816
0.491651 0.780155 0.203148
0.516616 0.783314 0.205468
0.541606 0.786414 0.207777
0.566614 0.789452 0.210074
0.591636 0.792430 0.212358
0.616664 0.795346 0.214629
0.641693 0.798201 0.216887
0.666717 0.800993 0.219131
0.691729 0.803722 0.221360
0.716724 0.806388 0.223574
0.741696 0.808991 0.225773
0.766639 0.811529 0.227955
0.791546 0.814003 0.230122
0.816413 0.816413 0.232271
