mini_run_pipeline/luts/moody_dramatic_cinema.cube
TITLE "Moody Dramatic Cinema Noir"
LUT_3D_SIZE 9
DOMAIN_MIN 0.0 0.0 0.0
DOMAIN_MAX 1.0 1.0 1.0
0.000000 0.000000 0.000000
0.009917 0.002806 0.026487
0.061432 0.006950 0.028750
0.122723 0.011890 0.031548
0.191777 0.017465 0.034840
0.267466 0.023590 0.038619
0.349009 0.030204 0.042890
0.435793 0.037260 0.047665
0.527294 0.044720 0.052960
0.000000 0.059041 0.032691
0.052491 0.069016 0.036159
0.117937 0.079026 0.040116
0.190179 0.089157 0.044569
0.268380 0.099444 0.049532
0.351877 0.109897 0.055019
0.440106 0.120514 0.061044
0.532564 0.131285 0.067619
0.628785 0.142193 0.074753
0.024284 0.150466 0.046316
0.094416 0.163806 0.051468
0.170338 0.177101 0.057149
0.251420 0.190375 0.063373
0.337113 0.203632 0.070151
0.426914 0.216867 0.077492
0.520358 0.230067 0.085400
0.616998 0.243214 0.093878
0.716404 0.256286 0.102921
0.057187 0.262064 0.065776
0.136433 0.277691 0.072758
0.220114 0.293145 0.080305
0.307743 0.308418 0.088421
0.398862 0.323496 0.097105
0.493034 0.338359 0.106348
0.590089 0.352986 0.115882
0.689772 0.367348 0.125531
0.791684 0.381419 0.135261
0.090637 0.388215 0.091517
0.176501 0.405125 0.100407
0.265743 0.421683 0.109804
0.358247 0.437867 0.119384
0.453653 0.453653 0.129065
0.551562 0.469013 0.138817
0.651573 0.483917 0.148605
0.753288 0.498335 0.158398
0.856312 0.512238 0.168164
0.122898 0.523853 0.122898
0.214281 0.540968 0.132609
0.308436 0.557522 0.142378
0.404961 0.573487 0.152172
0.503458 0.588833 0.161959
0.603530 0.603530 0.171706
0.704780 0.617547 0.181381
0.806816 0.630855 0.190951
0.909247 0.643424 0.200385
0.155737 0.663829 0.155737
0.251263 0.680010 0.165513
0.348628 0.695408 0.175238
0.447437 0.709995 0.184879
0.547295 0.723741 0.194403
0.647810 0.736617 0.203780
0.748594 0.748594 0.212977
0.849260 0.759646 0.221963
0.949424 0.769745 0.230708
0.188361 0.802888 0.188361
0.286285 0.816980 0.197836
0.385128 0.830071 0.207150
0.484500 0.842135 0.216274
0.584015 0.853144 0.225176
0.683287 0.863072 0.233825
0.781907 0.871865 0.242164
0.878991 0.878991 0.249658
0.974032 0.884298 0.256155
0.219543 0.935799 0.219543
0.318146 0.946675 0.228356
0.416765 0.956342 0.236905
0.514867 0.964625 0.245012
0.611561 0.970986 0.252135
0.706503 0.975434 0.258285
0.799403 0.978028 0.263528
0.889964 0.978826 0.267933
0.977873 0.977873 0.271576
0.000000 0.000694 0.047786
0.014682 0.004108 0.060846
0.067661 0.008549 0.069747
0.130061 0.013717 0.077691
0.200044 0.019487 0.085353
0.276538 0.025784 0.093010
0.358783 0.032552 0.100809
0.446176 0.039750 0.108844
0.538200 0.047339 0.117178
0.000000 0.062433 0.080495
0.056679 0.072406 0.088132
0.123330 0.082451 0.095827
0.197113 0.092487 0.103558
0.277003 0.102603 0.111469
0.361398 0.113064 0.119876
0.449621 0.123900 0.128854
0.541635 0.134975 0.138311
0.638256 0.145924 0.147924
0.027499 0.155004 0.106633
0.098683 0.168324 0.114880
0.175501 0.181611 0.123461
0.271961 0.192492 0.113023
0.360269 0.204573 0.128133
0.443693 0.219104 0.145301
0.531399 0.233688 0.159780
0.624839 0.247663 0.172352
0.724469 0.260704 0.183410
0.060584 0.267391 0.135770
0.140603 0.282959 0.145269
0.224936 0.298353 0.155190
0.313107 0.313561 0.165542
0.413085 0.327952 0.157631
0.510577 0.341498 0.172419
0.602112 0.356817 0.193287
0.696606 0.372161 0.209939
0.798707 0.386126 0.221094
0.093944 0.393996 0.169419
0.180354 0.410788 0.180363
0.270133 0.427222 0.191588
0.363121 0.443274 0.202815
0.458919 0.458919 0.214008
0.560541 0.474141 0.214939
0.661000 0.488443 0.229608
0.759164 0.503116 0.247069
0.862205 0.516836 0.257810
0.126188 0.529726 0.206895
0.218068 0.546654 0.218068
0.312626 0.563011 0.229164
0.409461 0.578770 0.240152
0.508174 0.593899 0.251000
0.608368 0.608368 0.261674
0.710618 0.622216 0.268609
0.811622 0.635208 0.282379
0.913899 0.647519 0.292346
0.159061 0.669410 0.244119
0.254908 0.685328 0.254908
0.352500 0.700455 0.265512
0.451443 0.714759 0.275900
0.551343 0.728212 0.286040
0.651809 0.740786 0.295902
0.752453 0.752453 0.305454
0.852888 0.763184 0.314665
0.952732 0.772953 0.323507
0.191595 0.807784 0.279622
0.289664 0.821539 0.289664
0.388561 0.834285 0.299417
0.487897 0.845994 0.308848
0.587284 0.856638 0.317929
0.686338 0.866193 0.326627
0.784540 0.874492 0.334777
0.880994 0.880994 0.341833
0.975347 0.885697 0.347796
0.222564 0.939626 0.312196
0.321141 0.950095 0.321141
0.419644 0.959345 0.329693
0.517342 0.967004 0.337477
0.613519 0.972708 0.344127
0.707886 0.976520 0.349708
0.800152 0.978498 0.354287
0.890016 0.978697 0.357933
0.977155 0.977155 0.360715
0.000000 0.001698 0.080776
0.019180 0.005523 0.100155
0.073681 0.010230 0.114412
0.137223 0.015613 0.126883
0.208153 0.021569 0.138537
0.285459 0.028032 0.149809
0.368408 0.034951 0.160939
0.456409 0.042285 0.172073
0.548949 0.049999 0.183311
0.000445 0.065818 0.131191
0.060878 0.075805 0.142670
0.128698 0.085892 0.153869
0.202920 0.096126 0.164986
0.282797 0.106525 0.176148
0.367717 0.117091 0.187443
0.457142 0.127814 0.198930
0.550585 0.138680 0.210654
0.647588 0.149669 0.222647
0.030746 0.159533 0.169039
0.102951 0.172839 0.180241
0.180638 0.186119 0.191600
0.265073 0.198881 0.202669
0.354007 0.211589 0.213953
0.446945 0.224236 0.225482
0.543418 0.236808 0.237276
0.641985 0.249555 0.249614
0.740961 0.262805 0.262805
0.063984 0.272697 0.207441
0.144750 0.288207 0.219359
0.229715 0.303539 0.231559
0.318406 0.318681 0.244057
0.427172 0.330873 0.234574
0.533568 0.342269 0.246619
0.635705 0.355200 0.261699
0.735181 0.369250 0.277767
0.830572 0.384629 0.295440
0.097229 0.399738 0.248682
0.184171 0.416411 0.261584
0.274508 0.432718 0.274508
0.367963 0.448634 0.287292
0.464134 0.464134 0.299908
0.576463 0.478174 0.281596
0.700050 0.487716 0.275383
0.812915 0.498392 0.288710
0.909537 0.512463 0.313926
0.129486 0.535537 0.291907
0.221847 0.552274 0.304454
0.316790 0.568432 0.316790
0.413916 0.583980 0.328885
0.512827 0.598888 0.340706
0.613126 0.613126 0.352223
0.725258 0.626708 0.331058
0.847613 0.635829 0.318153
0.957350 0.645166 0.332982
0.162381 0.674903 0.333222
0.258531 0.690556 0.344936
0.356333 0.705406 0.356333
0.455393 0.719425 0.367383
0.555318 0.732583 0.378054
0.655718 0.744851 0.388316
0.756203 0.756203 0.398138
0.864494 0.767185 0.377949
0.975795 0.774591 0.372183
0.194812 0.812567 0.371313
0.293010 0.825982 0.381839
0.391944 0.838379 0.391944
0.491225 0.849729 0.401599
0.590467 0.860007 0.410774
0.689286 0.869185 0.419438
0.786972 0.876906 0.427234
0.882790 0.882790 0.433780
0.981158 0.887505 0.419238
0.225556 0.943317 0.404996
0.324091 0.953375 0.413989
0.422425 0.962169 0.422425
0.519659 0.969157 0.429759
0.615313 0.974212 0.435864
0.709099 0.977394 0.440804
0.800724 0.978762 0.444646
0.889882 0.978367 0.447456
0.976239 0.976239 0.449298
0.000000 0.002875 0.119424
0.023530 0.007037 0.143561
0.079547 0.011989 0.162368
0.144241 0.017576 0.178903
0.216124 0.023710 0.194243
0.294244 0.030332 0.208907
0.377895 0.037397 0.223191
0.466498 0.044864 0.237279
0.559546 0.052699 0.251295
0.003269 0.069203 0.184592
0.065088 0.079216 0.199641
0.134041 0.089349 0.214140
0.209216 0.099639 0.228335
0.289901 0.110095 0.242385
0.375505 0.120715 0.256398
0.465502 0.131489 0.270451
0.559412 0.142399 0.284597
0.656781 0.153425 0.298874
0.034022 0.164056 0.233460
0.107216 0.177351 0.247486
0.185746 0.190624 0.261507
0.269043 0.203881 0.275588
0.356595 0.217115 0.289778
0.447926 0.230315 0.304109
0.542584 0.243461 0.318600
0.640132 0.256531 0.333262
0.740278 0.269502 0.347964
0.067383 0.277984 0.280740
0.148873 0.293434 0.294978
0.234446 0.308703 0.309365
0.323637 0.323777 0.323918
0.418127 0.338064 0.338064
0.515722 0.352088 0.352088
0.616147 0.365826 0.365826
0.718993 0.379252 0.379252
0.823852 0.392339 0.392339
0.100489 0.405440 0.329258
0.187985 0.421991 0.343989
0.278867 0.438168 0.358517
0.372772 0.453946 0.372772
0.469298 0.469298 0.386723
0.586390 0.481196 0.376003
0.699189 0.492048 0.388478
0.805601 0.504363 0.403951
0.911117 0.516784 0.418201
0.132793 0.541284 0.377888
0.225615 0.557828 0.391722
0.320926 0.573782 0.405211
0.418326 0.589116 0.418326
0.517418 0.603800 0.431035
0.617804 0.617804 0.443307
0.733694 0.630030 0.422701
0.859668 0.637319 0.414970
0.977956 0.644584 0.422336
0.165697 0.680307 0.423002
0.262132 0.695690 0.435555
0.360126 0.710262 0.447660
0.459286 0.723991 0.459286
0.559218 0.736850 0.470402
0.659534 0.748811 0.480979
0.759845 0.759845 0.490988
0.870866 0.769970 0.467283
0.994115 0.774927 0.446147
0.198012 0.817235 0.463394
0.296322 0.830308 0.474317
0.395275 0.842352 0.484690
0.494484 0.853341 0.494484
0.593564 0.863248 0.503670
0.692101 0.872016 0.512187
0.789205 0.879107 0.519497
0.884380 0.884380 0.525459
0.984624 0.888414 0.503572
0.228520 0.946868 0.497900
0.326995 0.956512 0.506857
0.425057 0.964763 0.515008
0.521820 0.971088 0.521820
0.616946 0.975499 0.527307
0.710144 0.978059 0.531533
0.801120 0.978824 0.534564
0.889563 0.977838 0.536463
0.975122 0.975122 0.537281
0.000000 0.004184 0.162434
0.027792 0.008640 0.190525
0.085297 0.013820 0.213330
0.151139 0.019601 0.233572
0.223973 0.025907 0.252344
0.302904 0.032684 0.270205
0.387251 0.039889 0.287486
0.476448 0.047485 0.304394
0.569994 0.055438 0.321071
0.006157 0.072594 0.240540
0.069309 0.082641 0.258931
0.139362 0.092825 0.276551
0.215464 0.103171 0.293676
0.296937 0.113684 0.310486
0.383206 0.124358 0.327106
0.473757 0.135180 0.343620
0.568116 0.146132 0.360090
0.665834 0.157192 0.376557
0.037324 0.168575 0.299825
0.111477 0.181861 0.316554
0.190825 0.195128 0.333126
0.274814 0.208378 0.349618
0.362944 0.221603 0.366084
0.454745 0.234786 0.382557
0.549768 0.247909 0.399062
0.647585 0.260949 0.415603
0.748030 0.273879 0.431929
0.070779 0.283251 0.355614
0.152970 0.298640 0.372079
0.239129 0.313845 0.388562
0.328799 0.328849 0.405080
0.421590 0.343630 0.421590
0.517389 0.358165 0.437777
0.615843 0.372427 0.453565
0.716552 0.386386 0.468927
0.819118 0.400013 0.483834
0.103722 0.411101 0.411105
0.191800 0.427528 0.427528
0.283208 0.443573 0.443573
0.377545 0.459209 0.459209
0.474409 0.474409 0.474409
0.575246 0.488644 0.488644
0.678796 0.502116 0.502116
0.783267 0.515172 0.515172
0.888717 0.527660 0.527660
0.136106 0.546967 0.464795
0.229372 0.563314 0.479828
0.325033 0.579060 0.494385
0.422690 0.594177 0.508433
0.521944 0.608634 0.521944
0.622400 0.622400 0.534885
0.742968 0.632294 0.521620
0.857294 0.640897 0.532698
0.963374 0.650826 0.546643
0.169007 0.685620 0.513416
0.265709 0.700731 0.526722
0.363878 0.715020 0.539449
0.463120 0.728457 0.551566
0.563042 0.741014 0.563042
0.663257 0.752663 0.573850
0.763377 0.763377 0.583960
0.877936 0.772036 0.560235
1.000000 0.775433 0.549724
0.201194 0.821788 0.555819
0.299597 0.834515 0.567056
0.398553 0.846204 0.577613
0.497673 0.856828 0.587462
0.596575 0.866362 0.596575
0.694728 0.874632 0.604776
0.791241 0.881099 0.611527
0.885769 0.885769 0.616833
0.985929 0.888735 0.597155
0.231452 0.950280 0.590866
0.329850 0.959508 0.599704
0.427543 0.967129 0.607405
0.523829 0.972797 0.613623
0.618419 0.976573 0.618419
0.711023 0.978518 0.621858
0.801344 0.978684 0.624003
0.889060 0.977110 0.624910
0.973803 0.973803 0.624617
0.000000 0.005604 0.209120
0.032005 0.010326 0.240672
0.090959 0.015721 0.267077
0.157935 0.021687 0.290739
0.231713 0.028158 0.312728
0.311448 0.035085 0.333616
0.396483 0.042427 0.353750
0.486263 0.050148 0.373355
0.580296 0.058214 0.392581
0.009104 0.075993 0.298902
0.073541 0.086083 0.320438
0.144661 0.096320 0.341020
0.221666 0.106723 0.360940
0.303906 0.117291 0.380392
0.390821 0.128017 0.399509
0.481908 0.138886 0.418385
0.576698 0.149877 0.437084
0.674746 0.160968 0.455650
0.040649 0.173089 0.368068
0.115732 0.186368 0.387385
0.195872 0.199630 0.406405
0.280532 0.212873 0.425210
0.369219 0.226085 0.443857
0.461469 0.239251 0.462383
0.556838 0.252348 0.480812
0.654944 0.265354 0.499108
0.755678 0.278240 0.516959
0.074170 0.288497 0.432015
0.157037 0.303826 0.450614
0.243761 0.318964 0.469103
0.333890 0.333895 0.487500
0.427131 0.348595 0.505666
0.523329 0.363041 0.523329
0.622090 0.377203 0.540461
0.723012 0.391053 0.557032
0.825698 0.404560 0.573015
0.106936 0.416721 0.494167
0.195614 0.433021 0.512157
0.287531 0.448930 0.529629
0.382283 0.464421 0.546560
0.479466 0.479466 0.562921
0.578682 0.494034 0.578682
0.679534 0.508096 0.593815
0.781625 0.521620 0.608288
0.884561 0.534575 0.622072
0.139424 0.552584 0.552584
0.233117 0.568730 0.568730
0.329110 0.584266 0.584266
0.427005 0.599162 0.599162
0.526404 0.613388 0.613388
0.626913 0.626913 0.626913
0.729270 0.639403 0.639403
0.834568 0.650427 0.650427
0.938534 0.661007 0.661007
0.172309 0.690843 0.604420
0.269261 0.705678 0.618394
0.367587 0.719680 0.631657
0.466894 0.732822 0.644179
0.566789 0.745074 0.655931
0.666886 0.756408 0.666886
0.766798 0.766798 0.677014
0.885818 0.773001 0.660185
0.996761 0.777563 0.667963
0.204356 0.826225 0.648548
0.302836 0.838602 0.660013
0.401776 0.849933 0.670670
0.500791 0.860190 0.680490
0.599497 0.869347 0.689447
0.697167 0.877033 0.697167
0.793085 0.882883 0.703286
0.886957 0.886957 0.707865
0.987659 0.888645 0.690619
0.234353 0.953552 0.683853
0.332617 0.962319 0.692446
0.429885 0.969270 0.699577
0.525688 0.974289 0.705128
0.619736 0.977436 0.709161
0.711740 0.978771 0.711740
0.801395 0.978343 0.712921
0.888372 0.976182 0.712753
0.972277 0.972277 0.711254
0.000000 0.007123 0.259051
0.036191 0.012089 0.293727
0.096550 0.017686 0.323427
0.164644 0.023830 0.350277
0.239354 0.030461 0.375297
0.319883 0.037534 0.399059
0.405595 0.045008 0.421917
0.495948 0.052850 0.444101
0.590455 0.061026 0.465771
0.012107 0.079405 0.359561
0.077782 0.089541 0.384072
0.149939 0.099834 0.407471
0.227822 0.110293 0.430061
0.310807 0.120917 0.452043
0.398349 0.131693 0.473556
0.489953 0.142605 0.494696
0.585157 0.153633 0.515531
0.683518 0.164753 0.536108
0.043994 0.177601 0.438126
0.119977 0.190874 0.459924
0.200885 0.204130 0.481291
0.286193 0.217364 0.502314
0.375416 0.230563 0.523051
0.468096 0.243707 0.543541
0.563793 0.256777 0.563806
0.662216 0.269744 0.583722
0.763223 0.282584 0.603010
0.077552 0.293723 0.509894
0.161074 0.308989 0.530537
0.248341 0.324059 0.550944
0.338914 0.338914 0.571125
0.432627 0.353531 0.590818
0.529208 0.367883 0.609871
0.628257 0.381943 0.628257
0.729375 0.395680 0.645952
0.832165 0.409064 0.662924
0.110162 0.422299 0.578367
0.199427 0.438469 0.597830
0.291835 0.454239 0.616643
0.386983 0.469582 0.634781
0.484469 0.484469 0.652216
0.583894 0.498868 0.668919
0.684861 0.512750 0.684861
0.786974 0.526085 0.700011
0.889841 0.538841 0.714341
0.142746 0.558134 0.641211
0.236848 0.574076 0.658383
0.333155 0.589398 0.674812
0.431270 0.604070 0.690470
0.530797 0.618061 0.705325
0.631341 0.631341 0.719348
0.732511 0.643882 0.732511
0.833916 0.655653 0.744785
0.935171 0.666627 0.756142
0.175602 0.695972 0.695972
0.272787 0.710528 0.710528
0.371253 0.724241 0.724241
0.470606 0.737084 0.737084
0.570458 0.749027 0.749027
0.670419 0.760044 0.760044
0.770106 0.770106 0.770106
0.869699 0.779035 0.779035
0.971731 0.785602 0.785602
0.207497 0.830544 0.741537
0.306036 0.842569 0.753147
0.404944 0.853538 0.763819
0.503836 0.863424 0.773527
0.602294 0.872166 0.782209
0.699422 0.879223 0.789323
0.794737 0.884463 0.794737
0.887947 0.887947 0.798514
0.988967 0.888070 0.787174
0.237222 0.956682 0.776817
0.335248 0.964900 0.784999
0.432085 0.971188 0.791487
0.527398 0.975565 0.796298
0.620899 0.978090 0.799495
0.712295 0.978821 0.801137
0.801277 0.977803 0.801277
0.887501 0.975054 0.799947
0.970541 0.970541 0.797139
0.000000 0.008731 0.311921
0.040364 0.013924 0.349478
0.102086 0.019715 0.382232
0.171276 0.026030 0.412073
0.246904 0.032816 0.439963
0.328214 0.040029 0.466461
0.414591 0.047632 0.491921
0.505504 0.055591 0.516576
0.600472 0.063874 0.540589
0.015160 0.082831 0.422417
0.082032 0.093018 0.449749
0.155195 0.103367 0.475836
0.233932 0.113883 0.500980
0.317641 0.124560 0.525386
0.405790 0.135385 0.549194
0.497893 0.146339 0.572505
0.593492 0.157400 0.595386
0.692146 0.168545 0.617884
0.047355 0.182111 0.509942
0.124212 0.195378 0.534117
0.205864 0.208627 0.557734
0.291798 0.221851 0.580882
0.381536 0.235034 0.603619
0.474625 0.248155 0.625985
0.570635 0.261193 0.647995
0.669400 0.274121 0.669400
0.770664 0.286910 0.690038
0.080924 0.298928 0.589205
0.165077 0.314130 0.611803
0.252867 0.329129 0.634040
0.343906 0.343906 0.655876
0.438078 0.358436 0.677004
0.535025 0.372692 0.697357
0.634346 0.386646 0.716912
0.735642 0.400266 0.735642
0.838517 0.413523 0.753518
0.113404 0.427833 0.663656
0.203237 0.443871 0.684504
0.296118 0.459499 0.704570
0.391644 0.474690 0.723828
0.489415 0.489415 0.742250
0.589031 0.503642 0.759808
0.690096 0.517342 0.776473
0.792215 0.530483 0.792215
0.894995 0.543035 0.807005
0.146071 0.563615 0.730633
0.240563 0.579350 0.748744
0.337167 0.594455 0.765980
0.435486 0.608899 0.782312
0.535123 0.622652 0.797711
0.635685 0.635685 0.812147
0.736780 0.647967 0.825593
0.838021 0.659471 0.838021
0.939021 0.670168 0.849403
0.178886 0.701008 0.788028
0.276286 0.715281 0.803080
0.374873 0.728702 0.817159
0.474257 0.741242 0.830237
0.574047 0.752874 0.842287
0.673856 0.763569 0.853282
0.773302 0.773302 0.863196
0.871971 0.782013 0.871971
0.968982 0.789167 0.879074
0.210616 0.834744 0.834744
0.309197 0.846414 0.846414
0.408056 0.857018 0.857018
0.506808 0.866531 0.866531
0.604917 0.874770 0.874770
0.701494 0.881203 0.881203
0.796200 0.885840 0.885840
0.888743 0.888743 0.888743
0.978877 0.889956 0.889956
0.240055 0.959669 0.869718
0.337747 0.967254 0.877324
0.434146 0.972886 0.883096
0.528964 0.976627 0.887094
0.621911 0.978537 0.889380
0.712691 0.978670 0.890010
0.800989 0.977064 0.889026
0.886443 0.973723 0.886443
0.968586 0.968586 0.882211
0.000000 0.010422 0.367505
0.044533 0.015828 0.407753
0.107575 0.021804 0.443367
0.177839 0.028284 0.476030
0.254370 0.035219 0.506645
0.336447 0.042569 0.535753
0.423476 0.050296 0.563702
0.514935 0.058369 0.590724
0.610349 0.066754 0.616982
0.018260 0.086274 0.487379
0.086289 0.096514 0.517396
0.160429 0.106920 0.546049
0.239995 0.117492 0.573637
0.324407 0.128220 0.600366
0.413144 0.139091 0.626375
0.505727 0.150084 0.651765
0.601702 0.161177 0.676602
0.700632 0.172344 0.700933
0.050729 0.186618 0.583459
0.128433 0.199880 0.609912
0.210805 0.213122 0.635686
0.297343 0.226333 0.660868
0.387576 0.239498 0.685517
0.481056 0.252594 0.709671
0.577399 0.265597 0.733300
0.676496 0.278481 0.756099
0.777999 0.291217 0.777999
0.084282 0.304112 0.669901
0.169044 0.319247 0.694367
0.257336 0.334174 0.718346
0.348870 0.348870 0.741703
0.443483 0.363310 0.764177
0.540778 0.377466 0.785745
0.640353 0.391310 0.806381
0.741810 0.404811 0.826060
0.844753 0.417937 0.844753
0.116659 0.433324 0.749989
0.207043 0.449225 0.772135
0.300380 0.464709 0.793367
0.396266 0.479745 0.813658
0.494304 0.494304 0.832981
0.594093 0.508355 0.851307
0.695239 0.521869 0.868609
0.797346 0.534813 0.884857
0.900022 0.547159 0.900022
0.149398 0.569028 0.820806
0.244262 0.584552 0.839770
0.341145 0.599436 0.857727
0.439649 0.613649 0.874648
0.539379 0.627160 0.890505
0.639941 0.639941 0.905269
0.740946 0.651963 0.918912
0.842005 0.663196 0.931409
0.942733 0.673612 0.942733
0.182159 0.705949 0.880545
0.279756 0.719936 0.896008
0.378448 0.733061 0.910367
0.477844 0.745295 0.923596
0.577555 0.756612 0.935669
0.677196 0.766984 0.946559
0.776383 0.776383 0.956240
0.874590 0.784638 0.964542
0.970925 0.791209 0.970925
0.213712 0.838825 0.928127
0.312317 0.850136 0.939772
0.411109 0.860372 0.950225
0.509705 0.869508 0.959459
0.607366 0.877160 0.967092
0.703386 0.882976 0.972771
0.797477 0.887017 0.976557
0.889345 0.889345 0.978512
0.978688 0.890014 0.978688
0.242809 0.962468 0.962468
0.340115 0.969382 0.969382
0.436070 0.974365 0.974365
0.530386 0.977478 0.977478
0.622773 0.978779 0.978779
0.712931 0.978318 0.978318
0.800533 0.976125 0.976125
0.885196 0.972187 0.972187
1.000000 1.000000 1.000000
