mini_run_pipeline/luts/sci_netone_balanced.cube
TITLE "Sci-Netone Balanced Skin Tone Reference"
LUT_3D_SIZE 5
DOMAIN_MIN 0.0 0.0 0.0
DOMAIN_MAX 1.0 1.0 1.0
0.000000 0.000000 0.000000
0.200749 0.000000 0.000000
0.428833 0.000000 0.000000
0.669909 0.000000 0.000000
0.920004 0.000000 0.000000
0.000000 0.225934 0.000000
0.232082 0.232082 0.000000
0.474132 0.237066 0.000000
0.723590 0.241197 0.000000
0.978592 0.244648 0.000000
0.000000 0.485050 0.000000
0.245758 0.491517 0.000000
0.496899 0.496899 0.000000
0.751977 0.501318 0.000000
1.000000 0.504852 0.000000
0.000000 0.754055 0.000000
0.252965 0.758894 0.000000
0.508333 0.762500 0.000000
0.764904 0.764904 0.000000
1.000000 0.766104 0.000000
0.000000 1.000000 0.000000
0.255404 1.000000 0.000000
0.509407 1.000000 0.000000
0.759982 1.000000 0.000000
1.000000 1.000000 0.000000
0.000000 0.000000 0.182491
0.206294 0.000000 0.206294
0.435546 0.000000 0.217773
0.677295 0.000000 0.225765
0.927787 0.000000 0.231947
0.000000 0.228181 0.228181
0.233885 0.233885 0.233885
0.478860 0.238225 0.238368
0.729992 0.242003 0.242291
0.984729 0.245438 0.245726
0.000000 0.487377 0.243689
0.246730 0.493459 0.246730
0.498503 0.498503 0.249252
0.757063 0.502796 0.258427
1.000000 0.506446 0.259006
0.000000 0.755840 0.251947
0.253418 0.760255 0.253418
0.508967 0.763451 0.254484
0.765448 0.765448 0.255149
1.000000 0.766399 0.265349
0.000000 1.000000 0.255292
0.255232 1.000000 0.255232
0.508332 1.000000 0.253257
0.757691 1.000000 0.249185
1.000000 1.000000 0.243151
0.000000 0.000000 0.387691
0.210795 0.000000 0.421590
0.441512 0.000000 0.441512
0.684075 0.000000 0.456050
0.935038 0.000000 0.467519
0.000000 0.230257 0.460514
0.235571 0.235571 0.471143
0.479904 0.239952 0.479904
0.730822 0.243607 0.487214
0.986647 0.246662 0.493323
0.000000 0.489568 0.489568
0.247641 0.495283 0.495283
0.500000 0.500000 0.500000
0.756046 0.503866 0.504010
1.000000 0.506969 0.507257
0.000000 0.757478 0.504986
0.253825 0.761475 0.507650
0.509509 0.764264 0.509509
0.765852 0.765852 0.510568
1.000000 0.766962 0.522551
0.000000 1.000000 0.510752
0.254804 1.000000 0.510146
0.506958 1.000000 0.506958
0.755033 1.000000 0.501191
0.996987 0.996987 0.492780
0.000000 0.000000 0.603282
0.214614 0.000000 0.643842
0.446891 0.000000 0.670336
0.690338 0.000000 0.690338
0.941814 0.000000 0.706361
0.000000 0.232185 0.696554
0.237151 0.237151 0.711453
0.482535 0.241267 0.723802
0.734122 0.244707 0.734122
0.990310 0.247578 0.742733
0.000000 0.491628 0.737441
0.248496 0.496991 0.745487
0.501392 0.501392 0.752088
0.757365 0.504910 0.757365
1.000000 0.507595 0.761392
0.000000 0.758973 0.758973
0.254186 0.762557 0.762557
0.509959 0.764938 0.764938
0.766115 0.766115 0.766115
1.000000 0.765761 0.765905
0.000000 1.000000 0.766226
0.254125 1.000000 0.764585
0.505288 1.000000 0.759864
0.751993 1.000000 0.751993
0.991707 0.991707 0.740466
0.000000 0.000000 0.826264
0.217947 0.000000 0.871788
0.451791 0.000000 0.903581
0.696151 0.000000 0.928202
0.948162 0.000000 0.948162
0.000000 0.233982 0.935927
0.238634 0.238634 0.954535
0.485010 0.242505 0.970020
0.737225 0.245742 0.982967
0.993744 0.248436 0.993744
0.000000 0.493563 0.987127
0.249295 0.498589 0.997178
0.502683 0.502683 1.000000
0.758870 0.505913 1.000000
1.000000 0.508322 1.000000
0.000000 0.760326 1.000000
0.254500 0.763500 1.000000
0.510316 0.765474 1.000000
0.766227 0.766227 1.000000
1.000000 0.764662 1.000000
0.000000 1.000000 1.000000
0.253199 1.000000 1.000000
0.503321 1.000000 1.000000
0.748549 1.000000 1.000000
1.000000 1.000000 1.000000
