mini_run_pipeline/luts/sci_netone_balanced.cube
TITLE "Sci-Netone Balanced Skin Tone Reference"
LUT_3D_SIZE 33
DOMAIN_MIN 0.0 0.0 0.0
DOMAIN_MAX 1.0 1.0 1.0
0.000000 0.000000 0.000000
0.020981 0.000000 0.000000
0.044453 0.000000 0.000000
0.069017 0.000000 0.000000
0.094341 0.000000 0.000000
0.120262 0.000000 0.000000
0.146679 0.000000 0.000000
0.173525 0.000000 0.000000
0.200749 0.000000 0.000000
0.228315 0.000000 0.000000
0.256192 0.000000 0.000000
0.284355 0.000000 0.000000
0.312783 0.000000 0.000000
0.341459 0.000000 0.000000
0.370368 0.000000 0.000000
0.399497 0.000000 0.000000
0.428833 0.000000 0.000000
0.458366 0.000000 0.000000
0.488087 0.000000 0.000000
0.517986 0.000000 0.000000
0.548057 0.000000 0.000000
0.578291 0.000000 0.000000
0.608682 0.000000 0.000000
0.639223 0.000000 0.000000
0.669909 0.000000 0.000000
0.700734 0.000000 0.000000
0.731694 0.000000 0.000000
0.762782 0.000000 0.000000
0.793995 0.000000 0.000000
0.825327 0.000000 0.000000
0.856776 0.000000 0.000000
0.888336 0.000000 0.000000
0.920004 0.000000 0.000000
0.000000 0.023234 0.000000
0.023766 0.023766 0.000000
0.048406 0.024203 0.000000
0.073729 0.024576 0.000000
0.099616 0.024904 0.000000
0.125984 0.025197 0.000000
0.152773 0.025462 0.000000
0.179938 0.025705 0.000000
0.207443 0.025930 0.000000
0.235259 0.026140 0.000000
0.263361 0.026336 0.000000
0.291730 0.026521 0.000000
0.320348 0.026696 0.000000
0.349199 0.026861 0.000000
0.378270 0.027019 0.000000
0.407550 0.027170 0.000000
0.437028 0.027314 0.000000
0.466693 0.027453 0.000000
0.496538 0.027585 0.000000
0.526554 0.027713 0.000000
0.556734 0.027837 0.000000
0.587071 0.027956 0.000000
0.617558 0.028071 0.000000
0.648190 0.028182 0.000000
0.678962 0.028290 0.000000
0.709867 0.028395 0.000000
0.740901 0.028496 0.000000
0.772059 0.028595 0.000000
0.803336 0.028691 0.000000
0.834729 0.028784 0.000000
0.866233 0.028874 0.000000
0.897845 0.028963 0.000000
0.929560 0.029049 0.000000
0.000000 0.049401 0.000000
0.025014 0.050028 0.000000
0.050592 0.050592 0.000000
0.076659 0.051106 0.000000
0.103157 0.051579 0.000000
0.130042 0.052017 0.000000
0.157277 0.052426 0.000000
0.184833 0.052809 0.000000
0.212685 0.053171 0.000000
0.240813 0.053514 0.000000
0.269198 0.053840 0.000000
0.297825 0.054150 0.000000
0.326679 0.054446 0.000000
0.355748 0.054730 0.000000
0.385021 0.055003 0.000000
0.414489 0.055265 0.000000
0.444140 0.055518 0.000000
0.473969 0.055761 0.000000
0.503966 0.055996 0.000000
0.534124 0.056224 0.000000
0.564437 0.056444 0.000000
0.594899 0.056657 0.000000
0.625503 0.056864 0.000000
0.656245 0.057065 0.000000
0.687119 0.057260 0.000000
0.718120 0.057450 0.000000
0.749244 0.057634 0.000000
0.780485 0.057814 0.000000
0.811841 0.057989 0.000000
0.843306 0.058159 0.000000
0.874877 0.058325 0.000000
0.906551 0.058487 0.000000
0.938323 0.058645 0.000000
0.000000 0.076924 0.000000
0.025871 0.077613 0.000000
0.052169 0.078253 0.000000
0.078852 0.078852 0.000000
0.105887 0.079415 0.000000
0.133245 0.079947 0.000000
0.160903 0.080452 0.000000
0.188840 0.080931 0.000000
0.217038 0.081389 0.000000
0.245481 0.081827 0.000000
0.274155 0.082246 0.000000
0.303048 0.082649 0.000000
0.332149 0.083037 0.000000
0.361447 0.083411 0.000000
0.390933 0.083771 0.000000
0.420599 0.084120 0.000000
0.450436 0.084457 0.000000
0.480438 0.084783 0.000000
0.510598 0.085100 0.000000
0.540909 0.085407 0.000000
0.571365 0.085705 0.000000
0.601961 0.085994 0.000000
0.632691 0.086276 0.000000
0.663551 0.086550 0.000000
0.694535 0.086817 0.000000
0.725640 0.087077 0.000000
0.756860 0.087330 0.000000
0.788192 0.087577 0.000000
0.819632 0.087818 0.000000
0.851175 0.088053 0.000000
0.882819 0.088282 0.000000
0.914559 0.088506 0.000000
0.946392 0.088724 0.000000
0.000000 0.105415 0.000000
0.026537 0.106150 0.000000
0.053423 0.106845 0.000000
0.080629 0.107505 0.000000
0.108134 0.108134 0.000000
0.135918 0.108734 0.000000
0.163963 0.109309 0.000000
0.192255 0.109860 0.000000
0.220779 0.110390 0.000000
0.249524 0.110900 0.000000
0.278478 0.111391 0.000000
0.307632 0.111866 0.000000
0.336975 0.112325 0.000000
0.366500 0.112769 0.000000
0.396198 0.113199 0.000000
0.426062 0.113617 0.000000
0.456086 0.114022 0.000000
0.486263 0.114415 0.000000
0.516587 0.114797 0.000000
0.547052 0.115169 0.000000
0.577654 0.115531 0.000000
0.608386 0.115883 0.000000
0.639245 0.116226 0.000000
0.670225 0.116561 0.000000
0.701322 0.116887 0.000000
0.732532 0.117205 0.000000
0.763851 0.117516 0.000000
0.795276 0.117819 0.000000
0.826801 0.118114 0.000000
0.858425 0.118403 0.000000
0.890143 0.118686 0.000000
0.921951 0.118961 0.000000
0.953847 0.119231 0.000000
0.000000 0.134672 0.000000
0.027089 0.135445 0.000000
0.054473 0.136183 0.000000
0.082134 0.136890 0.000000
0.110055 0.137569 0.000000
0.138222 0.138222 0.000000
0.166621 0.138851 0.000000
0.195241 0.139458 0.000000
0.224070 0.140044 0.000000
0.253099 0.140610 0.000000
0.282318 0.141159 0.000000
0.311720 0.141691 0.000000
0.341296 0.142207 0.000000
0.371040 0.142708 0.000000
0.400943 0.143194 0.000000
0.431001 0.143667 0.000000
0.461207 0.144127 0.000000
0.491555 0.144575 0.000000
0.522041 0.145011 0.000000
0.552658 0.145436 0.000000
0.583403 0.145851 0.000000
0.614270 0.146255 0.000000
0.645255 0.146649 0.000000
0.676354 0.147033 0.000000
0.707563 0.147409 0.000000
0.738878 0.147776 0.000000
0.770295 0.148134 0.000000
0.801811 0.148484 0.000000
0.833422 0.148825 0.000000
0.865124 0.149159 0.000000
0.896915 0.149486 0.000000
0.928792 0.149805 0.000000
0.960750 0.150117 0.000000
0.000000 0.164569 0.000000
0.027562 0.165372 0.000000
0.055381 0.166144 0.000000
0.083445 0.166889 0.000000
0.111739 0.167608 0.000000
0.140252 0.168303 0.000000
0.168975 0.168975 0.000000
0.197897 0.169626 0.000000
0.227009 0.170257 0.000000
0.256303 0.170869 0.000000
0.285773 0.171464 0.000000
0.315409 0.172041 0.000000
0.345207 0.172603 0.000000
0.375158 0.173150 0.000000
0.405259 0.173682 0.000000
0.435502 0.174201 0.000000
0.465883 0.174706 0.000000
0.496396 0.175199 0.000000
0.527037 0.175679 0.000000
0.557802 0.176148 0.000000
0.588685 0.176605 0.000000
0.619682 0.177052 0.000000
0.650791 0.177488 0.000000
0.682005 0.177914 0.000000
0.713323 0.178331 0.000000
0.744739 0.178737 0.000000
0.776251 0.179135 0.000000
0.807856 0.179524 0.000000
0.839549 0.179903 0.000000
0.871328 0.180275 0.000000
0.903190 0.180638 0.000000
0.935131 0.180993 0.000000
0.967149 0.181340 0.000000
0.000000 0.195013 0.000000
0.027977 0.195841 0.000000
0.056183 0.196641 0.000000
0.084607 0.197416 0.000000
0.113238 0.198167 0.000000
0.142068 0.198895 0.000000
0.171087 0.199602 0.000000
0.200288 0.200288 0.000000
0.229664 0.200956 0.000000
0.259206 0.201605 0.000000
0.288909 0.202236 0.000000
0.318766 0.202851 0.000000
0.348772 0.203451 0.000000
0.378922 0.204035 0.000000
0.409208 0.204604 0.000000
0.439628 0.205160 0.000000
0.470175 0.205702 0.000000
0.500846 0.206231 0.000000
0.531636 0.206747 0.000000
0.562541 0.207252 0.000000
0.593557 0.207745 0.000000
0.624679 0.208226 0.000000
0.655905 0.208697 0.000000
0.687230 0.209157 0.000000
0.718651 0.209607 0.000000
0.750165 0.210046 0.000000
0.781768 0.210476 0.000000
0.813457 0.210896 0.000000
0.845229 0.211307 0.000000
0.877081 0.211709 0.000000
0.909009 0.212102 0.000000
0.941012 0.212487 0.000000
0.973085 0.212862 0.000000
0.000000 0.225934 0.000000
0.028348 0.226783 0.000000
0.056901 0.227606 0.000000
0.085652 0.228405 0.000000
0.114591 0.229181 0.000000
0.143710 0.229936 0.000000
0.173003 0.230670 0.000000
0.202462 0.231385 0.000000
0.232082 0.232082 0.000000
0.261855 0.232760 0.000000
0.291777 0.233421 0.000000
0.321841 0.234066 0.000000
0.352043 0.234695 0.000000
0.382378 0.235310 0.000000
0.412841 0.235909 0.000000
0.443427 0.236494 0.000000
0.474132 0.237066 0.000000
0.504952 0.237625 0.000000
0.535883 0.238170 0.000000
0.566921 0.238704 0.000000
0.598063 0.239225 0.000000
0.629303 0.239735 0.000000
0.660641 0.240233 0.000000
0.692070 0.240720 0.000000
0.723590 0.241197 0.000000
0.755195 0.241662 0.000000
0.786883 0.242118 0.000000
0.818652 0.242564 0.000000
0.850497 0.242999 0.000000
0.882417 0.243425 0.000000
0.914408 0.243842 0.000000
0.946467 0.244250 0.000000
0.978592 0.244648 0.000000
0.000000 0.257276 0.000000
0.028682 0.258141 0.000000
0.057551 0.258981 0.000000
0.086600 0.259800 0.000000
0.115820 0.260596 0.000000
0.145207 0.261372 0.000000
0.174752 0.262128 0.000000
0.204451 0.262865 0.000000
0.234297 0.263584 0.000000
0.264286 0.264286 0.000000
0.294412 0.264971 0.000000
0.324670 0.265639 0.000000
0.355056 0.266292 0.000000
0.385565 0.266930 0.000000
0.416193 0.267553 0.000000
0.446936 0.268162 0.000000
0.477790 0.268757 0.000000
0.508750 0.269338 0.000000
0.539814 0.269907 0.000000
0.570977 0.270463 0.000000
0.602237 0.271007 0.000000
0.633589 0.271538 0.000000
0.665031 0.272058 0.000000
0.696559 0.272567 0.000000
0.728170 0.273064 0.000000
0.759861 0.273550 0.000000
0.791629 0.274025 0.000000
0.823471 0.274490 0.000000
0.855385 0.274945 0.000000
0.887367 0.275390 0.000000
0.919414 0.275824 0.000000
0.951525 0.276249 0.000000
0.983696 0.276665 0.000000
0.000000 0.288991 0.000000
0.028987 0.289868 0.000000
0.058144 0.290722 0.000000
0.087466 0.291554 0.000000
0.116946 0.292366 0.000000
0.146579 0.293157 0.000000
0.176358 0.293930 0.000000
0.206279 0.294684 0.000000
0.236337 0.295421 0.000000
0.266526 0.296140 0.000000
0.296843 0.296843 0.000000
0.327282 0.297529 0.000000
0.357840 0.298200 0.000000
0.388512 0.298856 0.000000
0.419295 0.299497 0.000000
0.450185 0.300123 0.000000
0.481177 0.300736 0.000000
0.512270 0.301335 0.000000
0.543458 0.301921 0.000000
0.574738 0.302494 0.000000
0.606108 0.303054 0.000000
0.637565 0.303602 0.000000
0.669104 0.304138 0.000000
0.700723 0.304662 0.000000
0.732419 0.305175 0.000000
0.764189 0.305676 0.000000
0.796031 0.306166 0.000000
0.827940 0.306645 0.000000
0.859916 0.307113 0.000000
0.891954 0.307571 0.000000
0.924053 0.308018 0.000000
0.956210 0.308455 0.000000
0.988422 0.308882 0.000000
0.000000 0.321037 0.000000
0.029266 0.321922 0.000000
0.058688 0.322785 0.000000
0.088262 0.323627 0.000000
0.117982 0.324450 0.000000
0.147842 0.325253 0.000000
0.177839 0.326037 0.000000
0.207966 0.326804 0.000000
0.238220 0.327553 0.000000
0.268596 0.328284 0.000000
0.299091 0.329000 0.000000
0.329699 0.329699 0.000000
0.360417 0.330383 0.000000
0.391242 0.331051 0.000000
0.422170 0.331705 0.000000
0.453197 0.332344 0.000000
0.484319 0.332969 0.000000
0.515534 0.333581 0.000000
0.546838 0.334179 0.000000
0.578227 0.334763 0.000000
0.609700 0.335335 0.000000
0.641252 0.335894 0.000000
0.672882 0.336441 0.000000
0.704585 0.336975 0.000000
0.736359 0.337498 0.000000
0.768202 0.338009 0.000000
0.800110 0.338508 0.000000
0.832081 0.338996 0.000000
0.864112 0.339473 0.000000
0.896201 0.339938 0.000000
0.928344 0.340393 0.000000
0.960541 0.340837 0.000000
0.992787 0.341271 0.000000
0.000000 0.353377 0.000000
0.029522 0.354267 0.000000
0.059189 0.355135 0.000000
0.088996 0.355984 0.000000
0.118938 0.356813 0.000000
0.149009 0.357623 0.000000
0.179207 0.358415 0.000000
0.209527 0.359188 0.000000
0.239963 0.359945 0.000000
0.270514 0.360685 0.000000
0.301174 0.361408 0.000000
0.331939 0.362116 0.000000
0.362807 0.362807 0.000000
0.393774 0.363484 0.000000
0.424836 0.364145 0.000000
0.455990 0.364792 0.000000
0.487233 0.365425 0.000000
0.518562 0.366044 0.000000
0.549973 0.366649 0.000000
0.581464 0.367240 0.000000
0.613031 0.367819 0.000000
0.644672 0.368384 0.000000
0.676384 0.368937 0.000000
0.708164 0.369477 0.000000
0.740009 0.370004 0.000000
0.771917 0.370520 0.000000
0.803885 0.371024 0.000000
0.835910 0.371515 0.000000
0.867990 0.371996 0.000000
0.900122 0.372464 0.000000
0.932305 0.372922 0.000000
0.964534 0.373368 0.000000
0.996809 0.373803 0.000000
0.000000 0.385978 0.000000
0.029759 0.386869 0.000000
0.059652 0.387739 0.000000
0.089675 0.388590 0.000000
0.119822 0.389421 0.000000
0.150090 0.390234 0.000000
0.180475 0.391029 0.000000
0.210973 0.391807 0.000000
0.241579 0.392567 0.000000
0.272291 0.393310 0.000000
0.303105 0.394037 0.000000
0.334017 0.394748 0.000000
0.365024 0.395443 0.000000
0.396123 0.396123 0.000000
0.427310 0.396788 0.000000
0.458582 0.397438 0.000000
0.489936 0.398073 0.000000
0.521370 0.398695 0.000000
0.552880 0.399302 0.000000
0.584463 0.399896 0.000000
0.616117 0.400476 0.000000
0.647839 0.401043 0.000000
0.679625 0.401597 0.000000
0.711474 0.402138 0.000000
0.743383 0.402666 0.000000
0.775349 0.403182 0.000000
0.807370 0.403685 0.000000
0.839443 0.404176 0.000000
0.871565 0.404655 0.000000
0.903734 0.405122 0.000000
0.935948 0.405578 0.000000
0.968205 0.406021 0.000000
1.000000 0.406453 0.000000
0.000000 0.418810 0.000000
0.029978 0.419698 0.000000
0.060081 0.420566 0.000000
0.090303 0.421415 0.000000
0.120642 0.422246 0.000000
0.151092 0.423058 0.000000
0.181651 0.423852 0.000000
0.212314 0.424628 0.000000
0.243079 0.425387 0.000000
0.273941 0.426130 0.000000
0.304897 0.426856 0.000000
0.335945 0.427566 0.000000
0.367081 0.428261 0.000000
0.398301 0.428940 0.000000
0.429603 0.429603 0.000000
0.460984 0.430252 0.000000
0.492441 0.430886 0.000000
0.523971 0.431506 0.000000
0.555572 0.432111 0.000000
0.587239 0.432703 0.000000
0.618972 0.433280 0.000000
0.650766 0.433844 0.000000
0.682620 0.434395 0.000000
0.714531 0.434932 0.000000
0.746496 0.435456 0.000000
0.778513 0.435967 0.000000
0.810579 0.436466 0.000000
0.842692 0.436951 0.000000
0.874849 0.437425 0.000000
0.907049 0.437885 0.000000
0.939287 0.438334 0.000000
0.971564 0.438771 0.000000
1.000000 0.439195 0.000000
0.000000 0.451843 0.000000
0.030182 0.452725 0.000000
0.060478 0.453588 0.000000
0.090886 0.454432 0.000000
0.121402 0.455257 0.000000
0.152021 0.456064 0.000000
0.182741 0.456853 0.000000
0.213558 0.457625 0.000000
0.244469 0.458380 0.000000
0.275471 0.459118 0.000000
0.306559 0.459839 0.000000
0.337732 0.460544 0.000000
0.368987 0.461234 0.000000
0.400320 0.461907 0.000000
0.431728 0.462566 0.000000
0.463209 0.463209 0.000000
0.494759 0.463837 0.000000
0.526377 0.464450 0.000000
0.558059 0.465049 0.000000
0.589803 0.465634 0.000000
0.621606 0.466204 0.000000
0.653465 0.466761 0.000000
0.685379 0.467304 0.000000
0.717343 0.467833 0.000000
0.749357 0.468348 0.000000
0.781418 0.468851 0.000000
0.813522 0.469340 0.000000
0.845668 0.469815 0.000000
0.877853 0.470278 0.000000
0.910075 0.470729 0.000000
0.942332 0.471166 0.000000
0.974621 0.471591 0.000000
1.000000 0.472003 0.000000
0.000000 0.485050 0.000000
0.030370 0.485923 0.000000
0.060847 0.486777 0.000000
0.091427 0.487612 0.000000
0.122107 0.488429 0.000000
0.152883 0.489227 0.000000
0.183753 0.490008 0.000000
0.214712 0.490771 0.000000
0.245758 0.491517 0.000000
0.276888 0.492246 0.000000
0.308099 0.492959 0.000000
0.339388 0.493655 0.000000
0.370751 0.494335 0.000000
0.402187 0.494999 0.000000
0.433692 0.495648 0.000000
0.465264 0.496281 0.000000
0.496899 0.496899 0.000000
0.528596 0.497502 0.000000
0.560352 0.498091 0.000000
0.592164 0.498664 0.000000
0.624029 0.499223 0.000000
0.655946 0.499768 0.000000
0.687911 0.500299 0.000000
0.719922 0.500815 0.000000
0.751977 0.501318 0.000000
0.784073 0.501807 0.000000
0.816208 0.502282 0.000000
0.848380 0.502743 0.000000
0.880585 0.503192 0.000000
0.912823 0.503626 0.000000
0.945090 0.504048 0.000000
0.977384 0.504456 0.000000
1.000000 0.504852 0.000000
0.000000 0.518406 0.000000
0.030545 0.519266 0.000000
0.061189 0.520108 0.000000
0.091929 0.520930 0.000000
0.122761 0.521735 0.000000
0.153683 0.522521 0.000000
0.184690 0.523289 0.000000
0.215781 0.524040 0.000000
0.246952 0.524773 0.000000
0.278201 0.525490 0.000000
0.309523 0.526190 0.000000
0.340918 0.526873 0.000000
0.372381 0.527540 0.000000
0.403911 0.528191 0.000000
0.435504 0.528826 0.000000
0.467157 0.529445 0.000000
0.498870 0.530049 0.000000
0.530637 0.530637 0.000000
0.562458 0.531211 0.000000
0.594330 0.531769 0.000000
0.626250 0.532312 0.000000
0.658215 0.532841 0.000000
0.690224 0.533355 0.000000
0.722274 0.533855 0.000000
0.754362 0.534340 0.000000
0.786487 0.534811 0.000000
0.818645 0.535268 0.000000
0.850834 0.535711 0.000000
0.883053 0.536139 0.000000
0.915299 0.536554 0.000000
0.947569 0.536956 0.000000
0.979861 0.537343 0.000000
1.000000 0.537717 0.000000
0.000000 0.551886 0.000000
0.030707 0.552730 0.000000
0.061506 0.553556 0.000000
0.092394 0.554362 0.000000
0.123367 0.555151 0.000000
0.154422 0.555921 0.000000
0.185558 0.556673 0.000000
0.216770 0.557407 0.000000
0.248055 0.558125 0.000000
0.279412 0.558824 0.000000
0.310838 0.559508 0.000000
0.342328 0.560174 0.000000
0.373882 0.560824 0.000000
0.405497 0.561457 0.000000
0.437169 0.562074 0.000000
0.468896 0.562675 0.000000
0.500676 0.563261 0.000000
0.532507 0.563830 0.000000
0.564385 0.564385 0.000000
0.596308 0.564923 0.000000
0.628274 0.565447 0.000000
0.660281 0.565955 0.000000
0.692326 0.566448 0.000000
0.724406 0.566927 0.000000
0.756520 0.567390 0.000000
0.788665 0.567839 0.000000
0.820838 0.568273 0.000000
0.853038 0.568692 0.000000
0.885262 0.569097 0.000000
0.917508 0.569488 0.000000
0.949774 0.569864 0.000000
0.982056 0.570226 0.000000
1.000000 0.570574 0.000000
0.000000 0.585465 0.000000
0.030857 0.586290 0.000000
0.061800 0.587096 0.000000
0.092824 0.587884 0.000000
0.123927 0.588652 0.000000
0.155106 0.589402 0.000000
0.186358 0.590135 0.000000
0.217681 0.590849 0.000000
0.249072 0.591546 0.000000
0.280528 0.592226 0.000000
0.312046 0.592888 0.000000
0.343625 0.593533 0.000000
0.375260 0.594162 0.000000
0.406951 0.594774 0.000000
0.438693 0.595369 0.000000
0.470485 0.595948 0.000000
0.502325 0.596511 0.000000
0.534209 0.597058 0.000000
0.566136 0.597588 0.000000
0.598103 0.598103 0.000000
0.630108 0.598602 0.000000
0.662148 0.599086 0.000000
0.694220 0.599554 0.000000
0.726324 0.600006 0.000000
0.758455 0.600444 0.000000
0.790613 0.600866 0.000000
0.822794 0.601272 0.000000
0.854996 0.601664 0.000000
0.887218 0.602041 0.000000
0.919456 0.602402 0.000000
0.951709 0.602749 0.000000
0.983973 0.603080 0.000000
1.000000 0.603397 0.000000
0.000000 0.619122 0.000000
0.030996 0.619924 0.000000
0.062071 0.620707 0.000000
0.093221 0.621471 0.000000
0.124443 0.622216 0.000000
0.155736 0.622943 0.000000
0.187095 0.623651 0.000000
0.218520 0.624342 0.000000
0.250006 0.625015 0.000000
0.281552 0.625670 0.000000
0.313154 0.626308 0.000000
0.344811 0.626928 0.000000
0.376519 0.627531 0.000000
0.408276 0.628118 0.000000
0.440081 0.628687 0.000000
0.471930 0.629240 0.000000
0.503820 0.629776 0.000000
0.535751 0.630295 0.000000
0.567718 0.630798 0.000000
0.599720 0.631285 0.000000
0.631755 0.631755 0.000000
0.663820 0.632210 0.000000
0.695913 0.632648 0.000000
0.728031 0.633070 0.000000
0.760172 0.633477 0.000000
0.792334 0.633867 0.000000
0.824515 0.634242 0.000000
0.856712 0.634601 0.000000
0.888923 0.634945 0.000000
0.921145 0.635273 0.000000
0.953377 0.635585 0.000000
0.985616 0.635881 0.000000
1.000000 0.636162 0.000000
0.000000 0.652831 0.000000
0.031124 0.653607 0.000000
0.062320 0.654363 0.000000
0.093586 0.655100 0.000000
0.124918 0.655819 0.000000
0.156314 0.656518 0.000000
0.187771 0.657200 0.000000
0.219288 0.657863 0.000000
0.250860 0.658507 0.000000
0.282486 0.659134 0.000000
0.314163 0.659743 0.000000
0.345890 0.660335 0.000000
0.377662 0.660908 0.000000
0.409478 0.661465 0.000000
0.441336 0.662004 0.000000
0.473233 0.662526 0.000000
0.505166 0.663031 0.000000
0.537134 0.663519 0.000000
0.569134 0.663990 0.000000
0.601163 0.664444 0.000000
0.633220 0.664881 0.000000
0.665302 0.665302 0.000000
0.697406 0.665706 0.000000
0.729531 0.666094 0.000000
0.761674 0.666465 0.000000
0.793832 0.666819 0.000000
0.826004 0.667157 0.000000
0.858187 0.667479 0.000000
0.890379 0.667784 0.000000
0.922578 0.668073 0.000000
0.954780 0.668346 0.000000
0.986985 0.668602 0.000000
1.000000 0.668842 0.000000
0.000000 0.686572 0.000000
0.031242 0.687317 0.000000
0.062549 0.688043 0.000000
0.093920 0.688750 0.000000
0.125352 0.689437 0.000000
0.156842 0.690106 0.000000
0.188388 0.690756 0.000000
0.219987 0.691387 0.000000
0.251636 0.692000 0.000000
0.283334 0.692595 0.000000
0.315078 0.693171 0.000000
0.346865 0.693729 0.000000
0.378692 0.694269 0.000000
0.410559 0.694792 0.000000
0.442461 0.695296 0.000000
0.474398 0.695783 0.000000
0.506366 0.696253 0.000000
0.538363 0.696705 0.000000
0.570386 0.697139 0.000000
0.602435 0.697556 0.000000
0.634505 0.697956 0.000000
0.666596 0.698338 0.000000
0.698703 0.698703 0.000000
0.730827 0.699051 0.000000
0.762962 0.699382 0.000000
0.795109 0.699696 0.000000
0.827264 0.699992 0.000000
0.859425 0.700272 0.000000
0.891589 0.700534 0.000000
0.923754 0.700779 0.000000
0.955919 0.701007 0.000000
0.988080 0.701218 0.000000
1.000000 0.701412 0.000000
0.000000 0.720321 0.000000
0.031349 0.721032 0.000000
0.062759 0.721724 0.000000
0.094226 0.722396 0.000000
0.125748 0.723049 0.000000
0.157322 0.723683 0.000000
0.188947 0.724298 0.000000
0.220620 0.724893 0.000000
0.252337 0.725470 0.000000
0.284098 0.726028 0.000000
0.315899 0.726567 0.000000
0.347738 0.727088 0.000000
0.379613 0.727591 0.000000
0.411520 0.728075 0.000000
0.443459 0.728540 0.000000
0.475427 0.728988 0.000000
0.507421 0.729417 0.000000
0.539439 0.729829 0.000000
0.571478 0.730222 0.000000
0.603537 0.730597 0.000000
0.635613 0.730955 0.000000
0.667703 0.731294 0.000000
0.699806 0.731615 0.000000
0.731919 0.731919 0.000000
0.764039 0.732204 0.000000
0.796165 0.732472 0.000000
0.828294 0.732722 0.000000
0.860424 0.732953 0.000000
0.892551 0.733167 0.000000
0.924675 0.733363 0.000000
0.956792 0.733541 0.000000
0.988900 0.733700 0.000000
1.000000 0.733842 0.000000
0.000000 0.754055 0.000000
0.031447 0.754729 0.000000
0.062949 0.755383 0.000000
0.094502 0.756017 0.000000
0.126105 0.756632 0.000000
0.157756 0.757226 0.000000
0.189450 0.757802 0.000000
0.221188 0.758357 0.000000
0.252965 0.758894 0.000000
0.284779 0.759411 0.000000
0.316629 0.759909 0.000000
0.348511 0.760388 0.000000
0.380424 0.760848 0.000000
0.412365 0.761290 0.000000
0.444332 0.761712 0.000000
0.476322 0.762115 0.000000
0.508333 0.762500 0.000000
0.540364 0.762866 0.000000
0.572410 0.763213 0.000000
0.604471 0.763542 0.000000
0.636543 0.763852 0.000000
0.668625 0.764143 0.000000
0.700714 0.764416 0.000000
0.732808 0.764669 0.000000
0.764904 0.764904 0.000000
0.797001 0.765121 0.000000
0.829095 0.765318 0.000000
0.861184 0.765497 0.000000
0.893266 0.765656 0.000000
0.925338 0.765797 0.000000
0.957398 0.765918 0.000000
0.989444 0.766021 0.000000
1.000000 0.766104 0.000000
0.000000 0.787754 0.000000
0.031535 0.788386 0.000000
0.063120 0.788998 0.000000
0.094751 0.789590 0.000000
0.126426 0.790161 0.000000
0.158143 0.790713 0.000000
0.189899 0.791244 0.000000
0.221692 0.791756 0.000000
0.253519 0.792248 0.000000
0.285379 0.792720 0.000000
0.317269 0.793172 0.000000
0.349186 0.793605 0.000000
0.381129 0.794018 0.000000
0.413094 0.794412 0.000000
0.445080 0.794786 0.000000
0.477085 0.795141 0.000000
0.509105 0.795476 0.000000
0.541138 0.795792 0.000000
0.573183 0.796088 0.000000
0.605237 0.796365 0.000000
0.637298 0.796622 0.000000
0.669362 0.796860 0.000000
0.701428 0.797078 0.000000
0.733494 0.797276 0.000000
0.765557 0.797455 0.000000
0.797614 0.797614 0.000000
0.829664 0.797754 0.000000
0.861703 0.797873 0.000000
0.893729 0.797972 0.000000
0.925740 0.798051 0.000000
0.957732 0.798110 0.000000
0.989704 0.798148 0.000000
1.000000 0.798147 0.000000
0.000000 0.821392 0.000000
0.031615 0.821979 0.000000
0.063273 0.822545 0.000000
0.094972 0.823090 0.000000
0.126710 0.823615 0.000000
0.158484 0.824119 0.000000
0.190293 0.824603 0.000000
0.222133 0.825066 0.000000
0.254003 0.825508 0.000000
0.285899 0.825931 0.000000
0.317820 0.826333 0.000000
0.349764 0.826714 0.000000
0.381727 0.827076 0.000000
0.413709 0.827417 0.000000
0.445705 0.827738 0.000000
0.477715 0.828039 0.000000
0.509735 0.828319 0.000000
0.541763 0.828579 0.000000
0.573798 0.828819 0.000000
0.605836 0.829038 0.000000
0.637875 0.829237 0.000000
0.669913 0.829416 0.000000
0.701947 0.829574 0.000000
0.733975 0.829711 0.000000
0.765995 0.829828 0.000000
0.798003 0.829924 0.000000
