mini_run_pipeline/luts/sci_netone_balanced.cube
TITLE "Sci-Netone Balanced Skin Tone Reference"
LUT_3D_SIZE 9
DOMAIN_MIN 0.0 0.0 0.0
DOMAIN_MAX 1.0 1.0 1.0
0.000000 0.000000 0.000000
0.094341 0.000000 0.000000
0.200749 0.000000 0.000000
0.312783 0.000000 0.000000
0.428833 0.000000 0.000000
0.548057 0.000000 0.000000
0.669909 0.000000 0.000000
0.793995 0.000000 0.000000
0.920004 0.000000 0.000000
0.000000 0.105415 0.000000
0.108134 0.108134 0.000000
0.220779 0.110390 0.000000
0.336975 0.112325 0.000000
0.456086 0.114022 0.000000
0.577654 0.115531 0.000000
0.701322 0.116887 0.000000
0.826801 0.118114 0.000000
0.953847 0.119231 0.000000
0.000000 0.225934 0.000000
0.114591 0.229181 0.000000
0.232082 0.232082 0.000000
0.352043 0.234695 0.000000
0.474132 0.237066 0.000000
0.598063 0.239225 0.000000
0.723590 0.241197 0.000000
0.850497 0.242999 0.000000
0.978592 0.244648 0.000000
0.000000 0.353377 0.000000
0.118938 0.356813 0.000000
0.239963 0.359945 0.000000
0.362807 0.362807 0.000000
0.487233 0.365425 0.000000
0.613031 0.367819 0.000000
0.740009 0.370004 0.000000
0.867990 0.371996 0.000000
0.996809 0.373803 0.000000
0.000000 0.485050 0.000000
0.122107 0.488429 0.000000
0.245758 0.491517 0.000000
0.370751 0.494335 0.000000
0.496899 0.496899 0.000000
0.624029 0.499223 0.000000
0.751977 0.501318 0.000000
0.880585 0.503192 0.000000
1.000000 0.504852 0.000000
0.000000 0.619122 0.000000
0.124443 0.622216 0.000000
0.250006 0.625015 0.000000
0.376519 0.627531 0.000000
0.503820 0.629776 0.000000
0.631755 0.631755 0.000000
0.760172 0.633477 0.000000
0.888923 0.634945 0.000000
1.000000 0.636162 0.000000
0.000000 0.754055 0.000000
0.126105 0.756632 0.000000
0.252965 0.758894 0.000000
0.380424 0.760848 0.000000
0.508333 0.762500 0.000000
0.636543 0.763852 0.000000
0.764904 0.764904 0.000000
0.893266 0.765656 0.000000
1.000000 0.766104 0.000000
0.000000 0.888399 0.000000
0.127171 0.890198 0.000000
0.254757 0.891648 0.000000
0.382607 0.892749 0.000000
0.510570 0.893497 0.000000
0.638492 0.893889 0.000000
0.766059 0.893760 0.000000
0.892813 0.892813 0.000000
1.000000 0.891040 0.000000
0.000000 1.000000 0.000000
0.127669 1.000000 0.000000
0.255404 1.000000 0.000000
0.382752 1.000000 0.000000
0.509407 1.000000 0.000000
0.635209 1.000000 0.000000
0.759982 1.000000 0.000000
0.883516 1.000000 0.000000
1.000000 1.000000 0.000000
0.000000 0.000000 0.086078
0.096803 0.000000 0.096803
0.203686 0.000000 0.101843
0.316021 0.000000 0.105340
0.432295 0.000000 0.108074
0.551694 0.000000 0.110339
0.673685 0.000000 0.112281
0.797877 0.000000 0.113982
0.923966 0.000000 0.115496
0.000000 0.106403 0.106403
0.108943 0.108943 0.108943
0.222763 0.110939 0.110964
0.340668 0.112501 0.112589
0.460630 0.114026 0.114152
0.581668 0.115662 0.115758
0.704507 0.117194 0.117234
0.829537 0.118505 0.118505
0.956698 0.119587 0.119587
0.000000 0.227080 0.113540
0.115101 0.230202 0.115101
0.232999 0.232999 0.116499
0.361574 0.234520 0.112416
0.483654 0.236605 0.116161
0.603763 0.239297 0.119095
0.726708 0.241643 0.120750
0.852515 0.243576 0.121788
0.980700 0.245175 0.122588
0.000000 0.354580 0.118193
0.119303 0.357909 0.119303
0.240631 0.360946 0.120315
0.363723 0.363723 0.121241
0.490678 0.366170 0.121693
0.616937 0.368385 0.123133
0.742455 0.370626 0.123851
0.869469 0.372630 0.124210
0.998339 0.374377 0.124792
0.000000 0.486231 0.121558
0.122377 0.489509 0.122377
0.246252 0.492503 0.123126
0.371425 0.495234 0.123808
0.497715 0.497715 0.124429
0.625352 0.499960 0.126180
0.753307 0.501988 0.126401
0.881613 0.503779 0.125945
1.000000 0.505368 0.126342
0.000000 0.620206 0.124041
0.124640 0.623199 0.124640
0.250360 0.625901 0.125180
0.376994 0.628324 0.125665
0.504382 0.630477 0.126095
0.632369 0.632369 0.126474
0.760834 0.633998 0.127477
0.889541 0.635386 0.127077
1.000000 0.636519 0.127304
0.000000 0.754966 0.125828
0.126239 0.757435 0.126239
0.253197 0.759592 0.126599
0.380722 0.761443 0.126907
0.508662 0.762993 0.127165
0.636869 0.764243 0.127374
0.765194 0.765194 0.127532
0.893483 0.765843 0.127640
1.000000 0.766186 0.127698
0.000000 0.889049 0.127007
0.127247 0.890730 0.127247
0.254875 0.892061 0.127437
0.382732 0.893042 0.127577
0.510669 0.893671 0.127667
0.638522 0.893933 0.127700
0.765840 0.893531 0.127386
0.892304 0.892304 0.126576
1.000000 0.890249 0.125289
0.000000 1.000000 0.127616
0.127687 1.000000 0.127687
0.255350 1.000000 0.127644
0.382492 1.000000 0.127148
0.508907 1.000000 0.126162
0.634432 1.000000 0.124706
0.758882 1.000000 0.122802
0.882039 1.000000 0.120475
1.000000 1.000000 0.117757
0.000000 0.000000 0.182491
0.098786 0.000000 0.197572
0.206294 0.000000 0.206294
0.319004 0.000000 0.212669
0.435546 0.000000 0.217773
0.555148 0.000000 0.222059
0.677295 0.000000 0.225765
0.801608 0.000000 0.229031
0.927787 0.000000 0.231947
0.000000 0.107322 0.214644
0.109706 0.109706 0.219412
0.223467 0.111733 0.223467
0.340499 0.113500 0.227000
0.460259 0.115065 0.230129
0.582335 0.116467 0.232934
0.706401 0.117734 0.235467
0.832188 0.118884 0.237768
0.959462 0.119933 0.239866
0.000000 0.228181 0.228181
0.115592 0.231185 0.231185
0.233885 0.233885 0.233885
0.355490 0.236133 0.236205
0.478860 0.238225 0.238368
0.603763 0.240177 0.240393
0.729992 0.242003 0.242291
0.857092 0.243753 0.244079
0.984729 0.245438 0.245726
0.000000 0.355745 0.237164
0.119657 0.358971 0.239314
0.241278 0.361917 0.241278
0.364611 0.364611 0.243074
0.493807 0.366707 0.244556
0.621685 0.368758 0.246916
0.748619 0.370934 0.248900
0.875581 0.373028 0.250431
1.000000 0.374924 0.251392
0.000000 0.487377 0.243689
0.122639 0.490556 0.245278
0.246730 0.493459 0.246730
0.372078 0.496104 0.248052
0.498503 0.498503 0.249252
0.627343 0.500678 0.254156
0.757063 0.502796 0.258427
0.885678 0.504807 0.259936
1.000000 0.506446 0.259006
0.000000 0.621256 0.248502
0.124830 0.624148 0.249659
0.250702 0.626754 0.250702
0.377451 0.629085 0.251634
0.504919 0.631149 0.252459
0.632952 0.632952 0.253181
0.761690 0.634498 0.260108
0.890587 0.636145 0.265809
1.000000 0.637505 0.265732
0.000000 0.755840 0.251947
0.126367 0.758202 0.252734
0.253418 0.760255 0.253418
0.381002 0.762003 0.254001
0.508967 0.763451 0.254484
0.637166 0.764599 0.254866
0.765448 0.765448 0.255149
0.893601 0.765928 0.261941
1.000000 0.766399 0.265349
0.000000 0.889659 0.254188
0.127317 0.891221 0.254635
0.254981 0.892434 0.254981
0.382841 0.893296 0.255227
0.510744 0.893802 0.255372
0.638476 0.893889 0.255356
0.765534 0.893207 0.254839
0.891699 0.891699 0.253776
1.000000 0.889802 0.257218
0.000000 1.000000 0.255292
0.127700 1.000000 0.255399
0.255232 1.000000 0.255232
0.382162 1.000000 0.254515
0.508332 1.000000 0.253257
0.633572 1.000000 0.251474
0.757691 1.000000 0.249185
0.880456 1.000000 0.246405
1.000000 1.000000 0.243151
0.000000 0.000000 0.283485
0.100461 0.000000 0.301383
0.208647 0.000000 0.312970
0.321773 0.000000 0.321773
0.438611 0.000000 0.328958
0.558436 0.000000 0.335061
0.680755 0.000000 0.340377
0.805199 0.000000 0.345085
0.931475 0.000000 0.349303
0.000000 0.108180 0.324540
0.110429 0.110429 0.331286
0.224718 0.112359 0.337077
0.342155 0.114052 0.342155
0.462230 0.115558 0.346673
0.584556 0.116911 0.350734
0.708819 0.118136 0.354409
0.834757 0.119251 0.357753
0.962143 0.120268 0.360804
0.000000 0.229239 0.343858
0.116067 0.232133 0.348200
0.234742 0.234742 0.352113
0.355663 0.237109 0.355663
0.478528 0.239264 0.358896
0.603080 0.241232 0.361848
0.729095 0.243032 0.364547
0.856372 0.244678 0.367016
0.984726 0.246182 0.369272
0.000000 0.356874 0.356874
0.120000 0.360001 0.360001
0.241906 0.362859 0.362859
0.365472 0.365472 0.365472
0.491002 0.367793 0.367865
0.617624 0.369949 0.370092
0.745178 0.371946 0.372162
0.873514 0.373791 0.374079
1.000000 0.375487 0.375847
0.000000 0.488489 0.366367
0.122893 0.491572 0.368679
0.247193 0.494386 0.370789
0.372709 0.496945 0.372709
0.499265 0.499265 0.374449
0.628533 0.501402 0.379221
0.757207 0.503467 0.381218
0.885566 0.505329 0.382445
1.000000 0.506970 0.383525
0.000000 0.622271 0.373363
0.125013 0.625065 0.375039
0.251030 0.627576 0.376546
0.377889 0.629815 0.377889
0.505432 0.631790 0.379074
0.633507 0.633507 0.380104
0.762291 0.635064 0.387419
0.891104 0.636804 0.392403
1.000000 0.638296 0.394086
0.000000 0.756677 0.378339
0.126489 0.758933 0.379467
0.253627 0.760882 0.380441
0.381264 0.762528 0.381264
0.509250 0.763875 0.381937
0.637434 0.764921 0.382461
0.765668 0.765668 0.382834
0.893705 0.766104 0.390487
1.000000 0.766712 0.397302
0.000000 0.890229 0.381527
0.127382 0.891672 0.382145
0.255076 0.892766 0.382614
0.382932 0.893508 0.382932
0.510796 0.893892 0.383097
0.638347 0.893750 0.382944
0.765138 0.892788 0.382189
0.890998 0.890998 0.380835
1.000000 0.889354 0.386071
0.000000 1.000000 0.383010
0.127697 1.000000 0.383109
0.255050 1.000000 0.382739
0.381764 1.000000 0.381764
0.507682 1.000000 0.380196
0.632631 1.000000 0.378045
0.756408 1.000000 0.375323
0.878765 1.000000 0.372035
0.999346 0.999346 0.368175
0.000000 0.000000 0.387691
0.101919 0.000000 0.407676
0.210795 0.000000 0.421590
0.324360 0.000000 0.432481
0.441512 0.000000 0.441512
0.561574 0.000000 0.449259
0.684075 0.000000 0.456050
0.808659 0.000000 0.462091
0.935038 0.000000 0.467519
0.000000 0.108986 0.435946
0.111115 0.111115 0.444460
0.225915 0.112957 0.451829
0.343746 0.114582 0.458328
0.464132 0.116033 0.464132
0.586704 0.117341 0.469363
0.711160 0.118527 0.474107
0.837247 0.119607 0.478427
0.964744 0.120593 0.482372
0.000000 0.230257 0.460514
0.116524 0.233049 0.466098
0.235571 0.235571 0.471143
0.356794 0.237863 0.475726
0.479904 0.239952 0.479904
0.604653 0.241861 0.483722
0.730822 0.243607 0.487214
0.858213 0.245204 0.490408
0.986647 0.246662 0.493323
0.000000 0.357968 0.477291
0.120334 0.361001 0.481334
0.242515 0.363772 0.485030
0.366308 0.366308 0.488410
0.491500 0.368625 0.491500
0.617900 0.370740 0.494320
0.745328 0.372664 0.496886
0.873619 0.374408 0.499211
1.000000 0.375980 0.501307
0.000000 0.489568 0.489568
0.123139 0.492557 0.492557
0.247641 0.495283 0.495283
0.373320 0.497759 0.497759
0.500000 0.500000 0.500000
0.627688 0.502026 0.502084
0.756046 0.503866 0.504010
0.884811 0.505512 0.505728
1.000000 0.506969 0.507257
0.000000 0.623252 0.498602
0.125190 0.625949 0.500759
0.251347 0.628367 0.502693
0.378309 0.630515 0.504412
0.505921 0.632402 0.505921
0.634032 0.634032 0.507226
0.762847 0.635699 0.513500
0.891422 0.637229 0.514755
1.000000 0.638329 0.515002
0.000000 0.757478 0.504986
0.126605 0.759630 0.506420
0.253825 0.761475 0.507650
0.381510 0.763019 0.508679
0.509509 0.764264 0.509509
0.637674 0.765209 0.510139
0.765852 0.765852 0.510568
0.893759 0.766317 0.518238
1.000000 0.766962 0.522551
0.000000 0.890758 0.509005
0.127440 0.892083 0.509762
0.255159 0.893058 0.510319
0.383005 0.893679 0.510674
0.510816 0.893933 0.510816
0.638136 0.893516 0.510446
0.764653 0.892273 0.509415
0.890202 0.890202 0.507731
1.000000 0.888726 0.512270
0.000000 1.000000 0.510752
0.127639 1.000000 0.510758
0.254804 1.000000 0.510146
0.381298 1.000000 0.508877
0.506958 1.000000 0.506958
0.631607 1.000000 0.504396
0.755033 1.000000 0.501191
0.876962 1.000000 0.497332
0.996987 0.996987 0.492780
0.000000 0.000000 0.494429
0.103215 0.000000 0.516076
0.212775 0.000000 0.531938
0.326790 0.000000 0.544650
0.444267 0.000000 0.555334
0.564576 0.000000 0.564576
0.687267 0.000000 0.572722
0.811995 0.000000 0.579997
0.938482 0.000000 0.586551
0.000000 0.109747 0.548736
0.111769 0.111769 0.558844
0.227062 0.113531 0.567655
0.345277 0.115092 0.575462
0.465968 0.116492 0.582460
0.588781 0.117756 0.588781
0.713428 0.118905 0.594523
0.839661 0.119952 0.599758
0.967266 0.120908 0.604541
0.000000 0.231238 0.578096
0.116967 0.233933 0.584834
0.236374 0.236374 0.590934
0.357891 0.238594 0.596485
0.481239 0.240620 0.601549
0.606179 0.242472 0.606179
0.732497 0.244166 0.610414
0.859999 0.245714 0.614285
0.988508 0.247127 0.617817
0.000000 0.359029 0.598382
0.120657 0.361970 0.603283
0.243106 0.364659 0.607765
0.367118 0.367118 0.611864
0.492487 0.369365 0.615609
0.619024 0.371414 0.619024
0.746553 0.373276 0.622127
0.874909 0.374961 0.624935
1.000000 0.376476 0.627460
0.000000 0.490614 0.613267
0.123378 0.493511 0.616889
0.248075 0.496151 0.620189
0.373910 0.498546 0.623183
0.500709 0.500709 0.625886
0.628311 0.502649 0.628311
0.756559 0.504373 0.630466
0.885302 0.505887 0.632359
1.000000 0.507196 0.633995
0.000000 0.624200 0.624200
0.125360 0.626801 0.626801
0.251650 0.629126 0.629126
0.378711 0.631185 0.631185
0.506387 0.632984 0.632984
0.634528 0.634528 0.634528
0.763002 0.635850 0.635883
0.891637 0.637000 0.637144
1.000000 0.637876 0.638092
0.000000 0.758243 0.631870
0.126715 0.760290 0.633575
0.254011 0.762033 0.635028
0.381738 0.763475 0.636229
0.509745 0.764618 0.637182
0.637884 0.765461 0.637884
0.766001 0.766001 0.638334
0.893763 0.766609 0.644403
1.000000 0.766908 0.644376
0.000000 0.891247 0.636605
0.127493 0.892453 0.637467
0.255231 0.893308 0.638077
0.383061 0.893808 0.638435
0.510765 0.893884 0.638471
0.637841 0.893186 0.637841
0.764080 0.891663 0.636498
0.889310 0.889310 0.634445
1.000000 0.888295 0.638451
0.000000 1.000000 0.638501
0.127523 1.000000 0.638325
0.254496 1.000000 0.637435
0.380763 1.000000 0.635833
0.506160 1.000000 0.633522
0.630501 1.000000 0.630501
0.753562 1.000000 0.626758
0.875042 1.000000 0.622259
0.994452 0.994452 0.616906
0.000000 0.000000 0.603282
0.104385 0.000000 0.626312
0.214614 0.000000 0.643842
0.329082 0.000000 0.658163
0.446891 0.000000 0.670336
0.567452 0.000000 0.680942
0.690338 0.000000 0.690338
0.815216 0.000000 0.698757
0.941814 0.000000 0.706361
0.000000 0.110468 0.662806
0.112393 0.112393 0.674357
0.228163 0.114081 0.684489
0.346753 0.115584 0.693506
0.467742 0.116935 0.701612
0.590792 0.118158 0.708951
0.715626 0.119271 0.715626
0.842003 0.120286 0.721717
0.969713 0.121214 0.727285
0.000000 0.232185 0.696554
0.117394 0.234789 0.704367
0.237151 0.237151 0.711453
0.358954 0.239302 0.717907
0.482535 0.241267 0.723802
0.607660 0.243064 0.729192
0.734122 0.244707 0.734122
0.861730 0.246209 0.738626
0.990310 0.247578 0.742733
0.000000 0.360058 0.720115
0.120970 0.362910 0.725820
0.243679 0.365519 0.731038
0.367904 0.367904 0.735809
0.493444 0.370083 0.740166
0.620112 0.372067 0.744134
0.747736 0.373868 0.747736
0.876153 0.375494 0.750988
1.000000 0.376953 0.753906
0.000000 0.491628 0.737441
0.123609 0.494436 0.741654
0.248496 0.496991 0.745487
0.374480 0.499306 0.748959
0.501392 0.501392 0.752088
0.629072 0.503258 0.754887
0.757365 0.504910 0.757365
0.886120 0.506354 0.759531
1.000000 0.507595 0.761392
0.000000 0.625115 0.750138
0.125524 0.627621 0.753145
0.251942 0.629855 0.755826
0.379095 0.631825 0.758190
0.506829 0.633537 0.760244
0.634995 0.634995 0.761994
0.763444 0.636203 0.763444
0.892026 0.637161 0.764594
1.000000 0.637870 0.765444
0.000000 0.758973 0.758973
0.126819 0.760916 0.760916
0.254186 0.762557 0.762557
0.381948 0.763897 0.763897
0.509959 0.764938 0.764938
0.638066 0.765679 0.765679
0.766115 0.766115 0.766115
0.893887 0.766204 0.766220
1.000000 0.765761 0.765905
0.000000 0.891696 0.764311
0.127540 0.892783 0.765243
0.255291 0.893518 0.765873
0.383098 0.893896 0.766197
0.510637 0.893740 0.766039
0.637465 0.892762 0.765113
0.763419 0.890957 0.763419
0.888321 0.888321 0.760954
1.000000 0.887975 0.763762
0.000000 1.000000 0.766226
0.127350 1.000000 0.765791
0.254125 1.000000 0.764585
0.380161 1.000000 0.762611
0.505288 1.000000 0.759864
0.629312 1.000000 0.756335
0.751993 1.000000 0.751993
0.872995 0.999219 0.746770
0.991707 0.991707 0.740466
0.000000 0.000000 0.713963
0.105454 0.000000 0.738181
0.216333 0.000000 0.757164
0.331251 0.000000 0.772920
0.449395 0.000000 0.786441
0.570213 0.000000 0.798298
0.693297 0.000000 0.808847
0.818328 0.000000 0.818328
0.945039 0.000000 0.826909
0.000000 0.111152 0.778065
0.112990 0.112990 0.790928
0.229221 0.114611 0.802275
0.348177 0.116059 0.812412
0.469456 0.117364 0.821549
0.592740 0.118548 0.829835
0.717756 0.119626 0.837383
0.844275 0.120611 0.844275
0.972088 0.121511 0.850577
0.000000 0.233099 0.815845
0.117808 0.235616 0.824657
0.237904 0.237904 0.832664
0.359984 0.239990 0.839964
0.483791 0.241896 0.846634
0.609097 0.243639 0.852735
0.735697 0.245232 0.858314
0.863408 0.246688 0.863408
0.992055 0.248014 0.868048
0.000000 0.361055 0.842462
0.121274 0.363822 0.848919
0.244236 0.366353 0.854824
0.368667 0.368667 0.860222
0.494370 0.370778 0.865148
0.621164 0.372699 0.869630
0.748879 0.374439 0.873692
0.877352 0.376008 0.877352
1.000000 0.377411 0.880626
0.000000 0.492611 0.862069
0.123833 0.495331 0.866830
0.248902 0.497804 0.871156
0.375030 0.500040 0.875070
0.502050 0.502050 0.878588
0.629803 0.503843 0.881725
0.758135 0.505424 0.884491
0.886897 0.506798 0.886897
1.000000 0.507970 0.888947
0.000000 0.625997 0.876396
0.125682 0.628410 0.879773
0.252221 0.630553 0.882774
0.379461 0.632435 0.885409
0.507248 0.634060 0.887684
0.635433 0.635433 0.889607
0.763868 0.636556 0.891179
0.892402 0.637430 0.892402
1.000000 0.638053 0.893275
0.000000 0.759667 0.886278
0.126918 0.761507 0.888425
0.254348 0.763045 0.890220
0.382142 0.764284 0.891665
0.510149 0.765223 0.892761
0.638218 0.765861 0.893505
0.766192 0.766192 0.893891
0.893753 0.766052 0.893753
1.000000 0.765145 0.892795
0.000000 0.892104 0.892104
0.127582 0.893073 0.893073
0.255339 0.893687 0.893687
0.383109 0.893933 0.893933
0.510432 0.893500 0.893500
0.637006 0.892241 0.892241
0.762668 0.890155 0.890155
0.887235 0.887235 0.887235
1.000000 0.883484 0.883486
0.000000 1.000000 0.893871
0.127119 1.000000 0.893137
0.253693 1.000000 0.891578
0.379491 1.000000 0.889189
0.504341 1.000000 0.885961
0.628039 1.000000 0.881868
0.750324 1.000000 0.876859
0.870810 0.996851 0.870810
0.988671 0.988671 0.863317
0.000000 0.000000 0.826264
0.106440 0.000000 0.851522
0.217947 0.000000 0.871788
0.333312 0.000000 0.888832
0.451791 0.000000 0.903581
0.572866 0.000000 0.916586
0.696151 0.000000 0.928202
0.821336 0.000000 0.938670
0.948162 0.000000 0.948162
0.000000 0.111804 0.894432
0.113562 0.113562 0.908496
0.230240 0.115120 0.920961
0.349551 0.116517 0.932135
0.471115 0.117779 0.942231
0.594626 0.118925 0.951402
0.719823 0.119970 0.959763
0.846478 0.120925 0.967404
0.974391 0.121799 0.974391
0.000000 0.233982 0.935927
0.118209 0.236417 0.945670
0.238634 0.238634 0.954535
0.360984 0.240656 0.962625
0.485010 0.242505 0.970020
0.610490 0.244196 0.976784
0.737225 0.245742 0.982967
0.865033 0.247152 0.988609
0.993744 0.248436 0.993744
0.000000 0.362023 0.965394
0.121569 0.364707 0.972553
0.244775 0.367163 0.979100
0.369406 0.369406 0.985082
0.495268 0.371451 0.990536
0.622183 0.373310 0.995492
0.749982 0.374991 0.999976
0.878506 0.376503 1.000000
1.000000 0.377851 1.000000
0.000000 0.493563 0.987127
0.124050 0.496198 0.992396
0.249295 0.498589 0.997178
0.375561 0.500748 1.000000
0.502683 0.502683 1.000000
0.630504 0.504403 1.000000
0.758870 0.505913 1.000000
0.887633 0.507219 1.000000
1.000000 0.508322 1.000000
0.000000 0.626847 1.000000
0.125833 0.629167 1.000000
0.252488 0.631221 1.000000
0.379809 0.633015 1.000000
0.507644 0.634555 1.000000
0.635843 0.635843 1.000000
0.764257 0.636881 1.000000
0.892738 0.637670 1.000000
1.000000 0.638208 1.000000
0.000000 0.760326 1.000000
0.127011 0.762063 1.000000
0.254500 0.763500 1.000000
0.382318 0.764637 1.000000
0.510316 0.765474 1.000000
0.638340 0.766008 1.000000
0.766227 0.766227 1.000000
0.893521 0.765830 1.000000
1.000000 0.764662 1.000000
0.000000 0.892473 1.000000
0.127617 0.893321 1.000000
0.255376 0.893814 1.000000
0.383053 0.893879 1.000000
0.510152 0.893165 1.000000
0.636466 0.891626 1.000000
0.761829 0.889258 1.000000
0.886050 0.886050 1.000000
1.000000 0.881979 1.000000
0.000000 1.000000 1.000000
0.126832 1.000000 1.000000
0.253199 1.000000 1.000000
0.378755 1.000000 1.000000
0.503321 1.000000 1.000000
0.626681 1.000000 1.000000
0.748549 1.000000 1.000000
0.868469 0.994306 0.994306
1.000000 1.000000 1.000000
