mini_run_pipeline/luts/teal_and_orange_blockbuster.cube
TITLE "Teal and Orange Blockbuster Modern 2-Strip"
LUT_3D_SIZE 9
DOMAIN_MIN 0.0 0.0 0.0
DOMAIN_MAX 1.0 1.0 1.0
0.000000 0.000000 0.000000
0.000000 0.029344 0.136941
0.030001 0.028471 0.132862
0.127319 0.027478 0.128232
0.233536 0.026395 0.123178
0.347169 0.025237 0.117770
0.467219 0.024012 0.112058
0.592924 0.022731 0.106077
0.723662 0.021398 0.099856
0.000000 0.108372 0.126436
0.000000 0.112606 0.121247
0.083270 0.116029 0.115724
0.191728 0.118864 0.109910
0.306958 0.121242 0.103838
0.428112 0.123244 0.097537
0.554495 0.124927 0.091030
0.685513 0.126331 0.084342
0.820634 0.127487 0.077492
0.000000 0.216471 0.107728
0.013186 0.222256 0.101569
0.125394 0.227384 0.095190
0.243483 0.231948 0.088615
0.366777 0.236017 0.081866
0.494686 0.239639 0.074963
0.626673 0.242854 0.067926
0.762244 0.245691 0.060776
0.900930 0.248174 0.053531
0.000000 0.340992 0.086177
0.042158 0.347573 0.079369
0.163267 0.353524 0.072415
0.288892 0.358894 0.065335
0.418508 0.363723 0.058148
0.551626 0.368041 0.050873
0.689573 0.372321 0.041736
0.832540 0.376745 0.030116
0.977679 0.380726 0.018446
0.000000 0.476470 0.062730
0.070240 0.483171 0.055509
0.198121 0.489211 0.048206
0.332721 0.495451 0.037513
0.471158 0.501309 0.025872
0.612097 0.506582 0.014191
0.755093 0.511287 0.002499
0.899713 0.515433 0.000000
1.000000 0.519031 0.000000
0.000000 0.619717 0.033282
0.106376 0.626904 0.021622
0.243408 0.633368 0.009934
0.382815 0.639125 0.000000
0.524155 0.644190 0.000000
0.666995 0.648573 0.000000
0.805530 0.653628 0.000000
0.943876 0.658227 0.000000
1.000000 0.662148 0.000000
0.007882 0.767737 0.000000
0.146222 0.773622 0.000000
0.284974 0.779039 0.000000
0.420230 0.784869 0.000000
0.556500 0.789885 0.000000
0.693377 0.794090 0.000000
0.830452 0.797482 0.000000
0.967319 0.800060 0.000000
1.000000 0.801818 0.000000
0.033274 0.916535 0.000000
0.167741 0.921871 0.000000
0.303113 0.926262 0.000000
0.438981 0.929709 0.000000
0.574936 0.932207 0.000000
0.710567 0.933750 0.000000
0.845454 0.934326 0.000000
0.979166 0.933917 0.000000
1.000000 0.932495 0.000000
0.046824 1.000000 0.000000
0.182139 1.000000 0.000000
0.317426 1.000000 0.000000
0.452268 1.000000 0.000000
0.586237 1.000000 0.000000
0.718885 1.000000 0.000000
0.849732 1.000000 0.000000
0.978244 1.000000 0.000000
1.000000 1.000000 0.000000
0.000000 0.029823 0.188284
0.000000 0.029064 0.201379
0.036596 0.028145 0.205931
0.134928 0.027120 0.207694
0.241975 0.026010 0.207881
0.356314 0.024828 0.206988
0.476972 0.023583 0.205273
0.603199 0.022283 0.202894
0.734377 0.020934 0.199958
0.000000 0.109921 0.207911
0.000000 0.113845 0.207664
0.089946 0.116809 0.204042
0.203586 0.119049 0.197447
0.320232 0.121279 0.194274
0.439961 0.123419 0.193599
0.563956 0.125298 0.193401
0.693891 0.126750 0.191205
0.829423 0.127828 0.186861
0.000000 0.218517 0.203600
0.016157 0.224066 0.200806
0.129374 0.228993 0.197513
0.351265 0.224967 0.078622
0.427918 0.233306 0.127638
0.520808 0.239572 0.162978
0.638294 0.243625 0.174897
0.769269 0.246573 0.175362
0.908244 0.248940 0.170052
0.000000 0.343302 0.192325
0.045033 0.349662 0.188075
0.166916 0.355411 0.183492
0.293194 0.360593 0.178610
0.459241 0.364352 0.133895
0.580487 0.369274 0.142198
0.703568 0.374003 0.151647
0.839828 0.378146 0.149183
0.985111 0.381979 0.138958
0.000000 0.478822 0.176764
0.073022 0.485295 0.171520
0.202025 0.491254 0.165496
0.337986 0.497507 0.155592
0.476798 0.503164 0.145480
0.626001 0.509036 0.126667
0.765304 0.513376 0.120423
0.905868 0.516716 0.114230
1.000000 0.520130 0.103613
0.000000 0.622240 0.151933
0.110474 0.629179 0.141754
0.247904 0.635402 0.131414
0.387605 0.640922 0.120943
0.529138 0.645754 0.110372
0.670836 0.650217 0.101178
0.809686 0.655667 0.096604
0.946753 0.659635 0.094346
1.000000 0.663325 0.090810
0.011481 0.769828 0.117104
0.150135 0.775434 0.106506
0.286968 0.781110 0.099961
0.422358 0.786664 0.096555
0.558670 0.791404 0.093067
0.695495 0.795333 0.089506
0.832425 0.798449 0.085885
0.969052 0.800749 0.082215
1.000000 0.802227 0.078507
0.034675 0.918453 0.095294
0.169301 0.923468 0.091778
0.304738 0.927539 0.088194
0.440578 0.930664 0.084554
0.576411 0.932839 0.080869
0.711823 0.934055 0.077150
0.846393 0.934299 0.073408
0.979684 0.933549 0.069654
1.000000 0.931775 0.065900
0.048144 1.000000 0.083217
0.183453 1.000000 0.079518
0.318640 1.000000 0.075790
0.453284 1.000000 0.072042
0.586952 1.000000 0.068287
0.719189 1.000000 0.064535
0.849503 1.000000 0.060800
0.977335 1.000000 0.057092
1.000000 1.000000 0.053426
0.000000 0.029590 0.251628
0.000000 0.028766 0.272531
0.042747 0.027807 0.283744
0.142180 0.026751 0.290964
0.250109 0.025616 0.295826
0.365187 0.024412 0.299055
0.486472 0.023148 0.301044
0.613234 0.021831 0.302035
0.744860 0.020466 0.302188
0.000000 0.111351 0.292958
0.000000 0.115003 0.297165
0.092270 0.118010 0.299908
0.202851 0.120523 0.301510
0.319842 0.122638 0.302180
0.442470 0.124419 0.302059
0.570085 0.125909 0.301250
0.702117 0.127142 0.299830
0.838051 0.128143 0.297862
0.000000 0.220477 0.301854
0.019116 0.225804 0.302222
0.133315 0.230541 0.301840
0.266896 0.233678 0.285365
0.390813 0.237638 0.284667
0.519092 0.241183 0.283460
0.651219 0.244345 0.281787
0.785708 0.247174 0.280794
0.921883 0.249632 0.280739
0.000000 0.345534 0.300273
0.047899 0.351680 0.298448
0.170536 0.357232 0.296114
0.297448 0.362231 0.293313
0.502974 0.365320 0.207716
0.621434 0.370947 0.221563
0.744508 0.376511 0.233305
0.873679 0.381068 0.240499
1.000000 0.384622 0.244739
0.000000 0.481095 0.292186
0.075793 0.487344 0.288812
0.206784 0.493445 0.283081
0.343206 0.499494 0.274747
0.482374 0.504953 0.266070
0.657050 0.513656 0.221803
0.808320 0.521195 0.204762
0.942508 0.525486 0.206982
1.000000 0.527100 0.212919
0.000000 0.624678 0.271625
0.114558 0.631372 0.262833
0.252366 0.637354 0.253748
0.392343 0.642640 0.244403
0.534052 0.647241 0.234832
0.673693 0.652008 0.228999
0.825694 0.661610 0.211998
0.972571 0.668649 0.200432
1.000000 0.671022 0.200620
0.015075 0.771823 0.240943
0.154024 0.777153 0.231298
0.288925 0.783088 0.228061
0.424435 0.788365 0.225333
0.560771 0.792829 0.222392
0.697528 0.796482 0.219251
0.834297 0.799322 0.215921
0.980451 0.804605 0.202629
1.000000 0.807158 0.194886
0.036069 0.920262 0.224286
0.170838 0.924956 0.221271
0.306325 0.928706 0.218060
0.442120 0.931509 0.214664
0.577813 0.933360 0.211094
0.712989 0.934247 0.207359
0.847222 0.934157 0.203470
0.980072 0.933063 0.199435
1.000000 0.932264 0.191263
0.049454 1.000000 0.213384
0.184741 1.000000 0.209753
0.319809 1.000000 0.205961
0.454236 1.000000 0.202018
0.587583 1.000000 0.197931
0.719387 1.000000 0.193706
0.849140 1.000000 0.189347
0.976254 1.000000 0.184853
1.000000 1.000000 0.180213
0.000000 0.029329 0.322644
0.000000 0.028453 0.349068
0.048556 0.027459 0.365726
0.149135 0.026374 0.377710
0.257976 0.025214 0.386790
0.373812 0.023989 0.393809
0.495740 0.022706 0.399244
0.623043 0.021372 0.403393
0.755121 0.019992 0.406457
0.000000 0.112677 0.381296
0.000000 0.116087 0.389553
0.096657 0.118913 0.395952
0.208265 0.121282 0.400891
0.326113 0.123278 0.404625
0.449459 0.124956 0.407333
0.577672 0.126355 0.409142
0.710195 0.127507 0.410150
0.846520 0.128434 0.410433
0.000000 0.222358 0.402379
0.022064 0.227475 0.405723
0.137219 0.232029 0.408090
0.257800 0.236089 0.409597
0.383195 0.239703 0.410333
0.512852 0.242911 0.410369
0.646263 0.245741 0.409761
0.782951 0.248218 0.408558
0.922800 0.250445 0.406462
0.000000 0.347691 0.409951
0.050757 0.353630 0.410424
0.174126 0.358990 0.410219
0.301653 0.363808 0.409389
0.442785 0.367999 0.397054
0.578178 0.372504 0.394229
0.718654 0.377134 0.388552
0.861438 0.381322 0.382390
1.000000 0.385079 0.375778
0.000000 0.483291 0.408941
0.078553 0.489319 0.407332
0.211516 0.495566 0.401789
0.348380 0.501413 0.394929
0.487886 0.506676 0.387593
0.674910 0.517361 0.331891
0.806528 0.521999 0.336830
0.939324 0.525091 0.341281
1.000000 0.528151 0.342383
0.000000 0.627032 0.392311
0.118626 0.633483 0.384811
0.256794 0.639227 0.376889
0.397029 0.644279 0.368580
0.538895 0.648649 0.359919
0.676469 0.653721 0.357353
0.834877 0.665233 0.334563
0.981862 0.672113 0.323286
1.000000 0.675043 0.321489
0.018663 0.773724 0.365466
0.156379 0.779156 0.358446
0.290848 0.784971 0.356661
0.426459 0.789972 0.354521
0.562804 0.794161 0.352039
0.699476 0.797538 0.349229
0.836066 0.800100 0.346101
0.986516 0.806627 0.328313
1.000000 0.811251 0.313452
0.037457 0.921962 0.353656
0.172352 0.926336 0.351054
0.307871 0.929765 0.348126
0.443605 0.932245 0.344885
0.579141 0.933770 0.341341
0.714063 0.934327 0.337501
0.847941 0.933899 0.333373
0.980327 0.932458 0.328961
1.000000 0.932069 0.317947
0.050752 1.000000 0.343630
0.186000 1.000000 0.339977
0.320933 1.000000 0.336031
0.455125 1.000000 0.331800
0.588131 1.000000 0.327285
0.719477 1.000000 0.322486
0.848638 1.000000 0.317396
0.974992 1.000000 0.311993
1.000000 1.000000 0.306231
0.000000 0.029048 0.399360
0.000000 0.028127 0.430164
0.054093 0.027100 0.451446
0.155837 0.025988 0.467662
0.265606 0.024805 0.480582
0.382214 0.023559 0.491105
0.504790 0.022259 0.499756
0.632639 0.020908 0.506872
0.765170 0.019514 0.512682
0.000000 0.113911 0.472689
0.000000 0.117105 0.484657
0.100977 0.119764 0.494450
0.213590 0.121999 0.502511
0.332278 0.123881 0.509128
0.456329 0.125460 0.514506
0.585128 0.126773 0.518792
0.718131 0.127846 0.522098
0.854835 0.128701 0.524512
0.000000 0.224164 0.505075
0.025001 0.229080 0.511221
0.141087 0.233460 0.516186
0.262458 0.237364 0.520104
0.388517 0.240837 0.523076
0.518724 0.243913 0.525184
0.652579 0.246621 0.526493
0.789609 0.248982 0.527058
0.931133 0.251456 0.525156
0.000000 0.349776 0.521291
0.053606 0.355513 0.523940
0.177686 0.360685 0.525750
0.305810 0.365327 0.526782
0.437485 0.369469 0.527088
0.575548 0.373959 0.523408
0.717174 0.378222 0.518157
0.861012 0.382047 0.512284
1.000000 0.385445 0.505831
0.000000 0.485411 0.526975
0.081926 0.491377 0.526403
0.216221 0.497619 0.521571
0.353508 0.503265 0.516089
0.493333 0.508333 0.510000
0.639975 0.513550 0.498377
0.783871 0.517893 0.490959
0.927819 0.521511 0.484288
1.000000 0.525745 0.482546
0.000000 0.629303 0.513940
0.122678 0.635512 0.507641
0.261186 0.641020 0.500791
0.401661 0.645839 0.493428
0.542311 0.650319 0.487171
0.679162 0.655355 0.486193
0.846456 0.669609 0.455030
0.980183 0.671881 0.457304
1.000000 0.672883 0.460888
0.022244 0.775532 0.490628
0.158085 0.781222 0.486872
0.292733 0.786760 0.485714
0.428430 0.791485 0.484073
0.564768 0.795399 0.481963
0.701339 0.798500 0.479394
0.837734 0.800784 0.476380
0.994316 0.809173 0.452151
1.000000 0.812775 0.439351
0.038838 0.923553 0.483359
0.173843 0.927606 0.481080
0.309378 0.930714 0.478348
0.445033 0.932871 0.475173
0.580395 0.934068 0.471564
0.715045 0.934294 0.467528
0.848547 0.933525 0.463068
0.980448 0.931732 0.458183
1.000000 0.931179 0.445924
0.052039 1.000000 0.473909
0.187231 1.000000 0.470144
0.322011 1.000000 0.465953
0.455948 1.000000 0.461339
0.588591 1.000000 0.456299
0.719455 1.000000 0.450822
0.847992 1.000000 0.444886
0.973535 1.000000 0.438442
1.000000 1.000000 0.431386
0.000000 0.028749 0.480755
0.000000 0.027788 0.515255
0.059408 0.026731 0.540571
0.162320 0.025594 0.560595
0.273026 0.024388 0.577038
0.390411 0.023123 0.590814
0.513639 0.021805 0.602475
0.642035 0.020440 0.612381
0.775017 0.019032 0.620781
0.000000 0.115065 0.566937
0.000000 0.118061 0.582327
0.105237 0.120566 0.595282
0.218831 0.122675 0.606270
0.338343 0.124449 0.615603
0.463084 0.125935 0.623503
0.592457 0.127163 0.630131
0.725927 0.128160 0.635611
0.862998 0.128944 0.640040
0.000000 0.225898 0.609846
0.027929 0.230625 0.618635
0.144922 0.234837 0.626056
0.267062 0.238590 0.632253
0.393767 0.241924 0.637341
0.524508 0.244873 0.641407
0.658791 0.247461 0.644525
0.796148 0.249708 0.646754
0.939334 0.252432 0.644945
0.000000 0.351790 0.634229
0.056445 0.357331 0.638935
0.181218 0.362320 0.642649
0.309919 0.366789 0.645436
0.442587 0.370896 0.646833
0.581932 0.375457 0.643714
0.723833 0.379570 0.639794
0.867846 0.383249 0.635123
1.000000 0.386503 0.629745
0.000000 0.487455 0.646233
0.086092 0.493564 0.645793
0.220897 0.499602 0.642377
0.358589 0.505051 0.638178
0.498716 0.509925 0.633245
0.640834 0.514239 0.627619
0.784511 0.518002 0.621342
0.928116 0.521523 0.615852
1.000000 0.525774 0.615688
0.000000 0.631491 0.636465
0.126712 0.637460 0.631275
0.265543 0.642733 0.625407
0.406238 0.647321 0.618902
0.544878 0.652105 0.615866
0.681772 0.656910 0.615473
0.821217 0.661667 0.612569
0.961182 0.665835 0.608791
1.000000 0.668601 0.606588
0.025816 0.777246 0.616383
0.159772 0.783195 0.615795
0.294583 0.788456 0.615176
0.430349 0.792905 0.613945
0.566663 0.796543 0.612117
0.703116 0.799367 0.609702
0.839298 0.801374 0.606712
1.000000 0.812454 0.573458
1.000000 0.811393 0.573552
0.040211 0.925036 0.613348
0.175309 0.928768 0.611305
0.310843 0.931553 0.608679
0.446403 0.933385 0.605482
0.581574 0.934255 0.601718
0.715932 0.934145 0.597393
0.849040 0.933033 0.592507
0.980432 0.930881 0.587051
1.000000 0.930301 0.573008
0.053313 1.000000 0.604177
0.188432 1.000000 0.600209
0.323041 1.000000 0.595680
0.456704 1.000000 0.590587
0.588964 1.000000 0.584920
0.719318 1.000000 0.578657
0.847194 1.000000 0.571753
0.971869 1.000000 0.564122
1.000000 1.000000 0.555565
0.000000 0.028435 0.566192
0.000000 0.027439 0.603925
0.064538 0.026353 0.632829
0.168612 0.025192 0.656317
0.280255 0.023965 0.676011
0.398418 0.022681 0.692819
0.522299 0.021347 0.707303
0.651240 0.019966 0.719836
0.784670 0.018545 0.730681
0.000000 0.116145 0.663868
0.001441 0.118961 0.682429
0.109440 0.121323 0.698338
0.223994 0.123312 0.712076
0.344312 0.124984 0.723968
0.469728 0.126379 0.734250
0.599662 0.127526 0.743092
0.733586 0.128449 0.750627
0.871013 0.129166 0.756959
0.000000 0.227565 0.716605
0.030847 0.232110 0.727888
0.148723 0.236161 0.737628
0.271612 0.239767 0.745981
0.398945 0.242968 0.753067
0.530203 0.245791 0.758982
0.664898 0.248261 0.763803
0.802988 0.250502 0.767176
0.947405 0.253374 0.765776
0.000000 0.353736 0.748702
0.059276 0.359085 0.755351
0.184720 0.363894 0.760860
0.313981 0.368193 0.765300
0.448532 0.372496 0.766780
0.588236 0.376903 0.765028
0.730395 0.380867 0.762347
0.874565 0.384401 0.758786
1.000000 0.387514 0.754391
0.000000 0.489426 0.766663
0.090248 0.495682 0.766253
0.225545 0.501518 0.764157
0.363623 0.506770 0.761150
0.504032 0.511453 0.757280
0.646333 0.515578 0.752592
0.790092 0.519156 0.747129
0.931549 0.523028 0.744819
1.000000 0.527093 0.745198
0.000000 0.633597 0.759838
0.130728 0.639328 0.755666
0.269863 0.644367 0.750691
0.410761 0.648725 0.744955
0.547378 0.653813 0.745045
0.684300 0.658387 0.745148
0.821786 0.662282 0.744507
0.959428 0.665497 0.743135
1.000000 0.668032 0.741044
0.027752 0.779273 0.744584
0.161438 0.785073 0.745170
0.296395 0.790058 0.745000
0.432214 0.794232 0.744091
0.568487 0.797594 0.742456
0.704806 0.800141 0.740106
0.840758 0.801868 0.737051
0.976856 0.803076 0.732368
1.000000 0.804176 0.724784
0.041576 0.926409 0.743579
0.176751 0.929820 0.741683
0.312268 0.932283 0.739075
0.447715 0.933789 0.735764
0.582677 0.934328 0.731756
0.716725 0.933882 0.727049
0.849416 0.932421 0.721639
0.980275 0.929905 0.715511
1.000000 0.929123 0.700069
0.054576 1.000000 0.734386
0.189604 1.000000 0.730123
0.324024 1.000000 0.725162
0.457393 1.000000 0.719493
0.589245 1.000000 0.713095
0.719061 1.000000 0.705932
0.846236 1.000000 0.697930
0.969971 1.000000 0.688945
1.000000 1.000000 0.678618
0.000000 0.028108 0.655225
0.000000 0.027079 0.695856
0.069512 0.025966 0.727999
0.174735 0.024782 0.754663
0.287311 0.023535 0.777373
0.406249 0.022234 0.797013
0.530780 0.020883 0.814148
0.660262 0.019488 0.829157
0.794135 0.018054 0.842310
0.000000 0.117159 0.763333
0.004472 0.119810 0.784844
0.113592 0.122037 0.803518
0.229083 0.123913 0.819842
0.350189 0.125487 0.834148
0.476266 0.126795 0.846679
0.606746 0.127864 0.857612
0.741112 0.128715 0.867087
0.878880 0.129365 0.875212
0.000000 0.229168 0.825270
0.033755 0.233538 0.838905
0.152492 0.237433 0.850836
0.276110 0.240898 0.861224
0.404053 0.243967 0.870196
0.535812 0.246668 0.877853
0.670904 0.249023 0.884275
0.810719 0.251511 0.887682
0.955345 0.254281 0.887602
0.000000 0.355616 0.864649
0.062098 0.360777 0.873131
0.188194 0.365410 0.880330
0.317996 0.369542 0.886320
0.454415 0.374043 0.887781
0.594462 0.378298 0.887303
0.736860 0.382115 0.885766
0.881171 0.385505 0.883224
1.000000 0.388477 0.879724
0.000000 0.491500 0.887509
0.094394 0.497730 0.887733
0.230163 0.503366 0.886863
0.368608 0.508423 0.884955
0.509282 0.512916 0.882058
0.651747 0.516854 0.878220
0.795572 0.520248 0.873482
0.934870 0.524470 0.874256
1.000000 0.528349 0.875089
0.000000 0.635622 0.884012
0.134725 0.641117 0.880768
0.274145 0.645923 0.876597
0.413754 0.650420 0.873261
0.549811 0.655443 0.874662
0.686745 0.659786 0.875173
0.824150 0.663450 0.874812
0.961617 0.666435 0.873591
1.000000 0.668737 0.871523
0.029173 0.781334 0.873875
0.163083 0.786857 0.874950
0.298170 0.791567 0.875142
0.434026 0.795465 0.874466
0.570242 0.798550 0.872936
0.706409 0.800820 0.870561
0.842114 0.802267 0.867351
0.976938 0.802881 0.863308
1.000000 0.802648 0.858426
0.042933 0.927674 0.874007
0.178168 0.930763 0.872168
0.313650 0.932902 0.869489
0.448968 0.934082 0.865975
0.583702 0.934288 0.861629
0.717422 0.933501 0.856447
0.849675 0.931688 0.850416
0.979974 0.928800 0.843510
1.000000 0.924775 0.835641
0.055825 1.000000 0.864490
0.190746 1.000000 0.859840
0.324957 1.000000 0.854351
0.458013 1.000000 0.848005
0.589432 1.000000 0.840770
0.718680 1.000000 0.832586
0.845106 1.000000 0.823342
0.967814 1.000000 0.812807
1.000000 1.000000 0.800311
0.000000 0.027769 0.747522
0.000000 0.026710 0.790794
0.074353 0.025572 0.825893
0.180708 0.024365 0.855488
0.294208 0.023099 0.881005
0.413917 0.021780 0.903299
0.539092 0.020414 0.922926
0.669110 0.019005 0.940268
0.803420 0.017559 0.955599
0.000000 0.118112 0.865196
0.007486 0.120609 0.889460
0.117696 0.122711 0.910730
0.234102 0.124480 0.929487
0.355978 0.125960 0.946070
0.482700 0.127184 0.960723
0.613713 0.128176 0.973629
0.748507 0.128957 0.984933
0.886604 0.129542 0.994745
0.000000 0.230708 0.935762
0.036655 0.234912 0.951617
0.156230 0.238656 0.965615
0.280556 0.241983 0.977924
0.409093 0.244925 0.988672
0.541335 0.247506 0.997965
0.676807 0.249747 1.000000
0.818337 0.252486 1.000000
0.963155 0.255153 1.000000
0.000000 0.357430 0.982011
0.064909 0.362408 0.992219
0.191638 0.366868 1.000000
0.322564 0.370986 1.000000
0.460236 0.375538 1.000000
0.600607 0.379643 1.000000
0.743228 0.383314 1.000000
0.887662 0.386561 1.000000
1.000000 0.389392 1.000000
0.000000 0.493684 1.000000
0.098529 0.499710 1.000000
0.234751 0.505148 1.000000
0.373545 0.510012 1.000000
0.514465 0.514315 1.000000
0.657076 0.518067 1.000000
0.799629 0.521608 1.000000
0.938077 0.525849 1.000000
1.000000 0.529543 1.000000
0.001012 0.637566 1.000000
0.138702 0.642826 1.000000
0.278388 0.647401 1.000000
0.416031 0.652202 1.000000
0.552177 0.656994 1.000000
0.689107 0.661106 1.000000
0.826414 0.664540 1.000000
0.963691 0.667293 1.000000
1.000000 0.669363 1.000000
0.030589 0.783301 1.000000
0.164707 0.788547 1.000000
0.299907 0.792981 1.000000
0.435783 0.796604 1.000000
0.571925 0.799413 1.000000
0.707924 0.801404 1.000000
0.843365 0.802569 0.997566
0.977825 0.802897 0.993144
1.000000 0.802369 0.987747
0.044281 0.928829 1.000000
0.179559 0.931596 1.000000
0.314991 0.933411 0.999876
0.450162 0.934262 0.996068
0.584650 0.934134 0.991292
0.718021 0.933002 0.985538
0.849813 0.930831 0.978785
0.979526 0.927563 0.970992
1.000000 0.923110 0.962090
0.057060 1.000000 0.994442
0.191856 1.000000 0.989311
0.325841 1.000000 0.983197
0.458560 1.000000 0.976071
0.589523 1.000000 0.967885
0.718167 1.000000 0.958552
0.843791 1.000000 0.947905
0.965353 1.000000 0.935579
1.000000 1.000000 1.000000
