mini_run_pipeline/luts/teal_and_orange_blockbuster.cube
TITLE "Teal and Orange Blockbuster Modern 2-Strip"
LUT_3D_SIZE 33
DOMAIN_MIN 0.0 0.0 0.0
DOMAIN_MAX 1.0 1.0 1.0
0.000000 0.000000 0.000000
0.000000 0.029877 0.139428
0.000000 0.029717 0.138680
0.000000 0.029538 0.137843
0.000000 0.029344 0.136941
0.000000 0.029140 0.135985
0.000000 0.028925 0.134983
0.007329 0.028702 0.133941
0.030001 0.028471 0.132862
0.053383 0.028232 0.131750
0.077423 0.027987 0.130606
0.102080 0.027736 0.129433
0.127319 0.027478 0.128232
0.153109 0.027215 0.127005
0.179424 0.026947 0.125752
0.206240 0.026674 0.124476
0.233536 0.026395 0.123178
0.261294 0.026112 0.121857
0.289496 0.025825 0.120515
0.318126 0.025533 0.119152
0.347169 0.025237 0.117770
0.376613 0.024936 0.116369
0.406444 0.024632 0.114950
0.436649 0.024324 0.113513
0.467219 0.024012 0.112058
0.498141 0.023697 0.110587
0.529406 0.023378 0.109099
0.561004 0.023056 0.107596
0.592924 0.022731 0.106077
0.625159 0.022402 0.104543
0.657699 0.022070 0.102994
0.690536 0.021735 0.101432
0.723662 0.021398 0.099856
0.000000 0.044323 0.137521
0.000000 0.044984 0.136598
0.000000 0.045503 0.135625
0.000000 0.045923 0.134608
0.000000 0.046268 0.133553
0.000000 0.046554 0.132461
0.000000 0.046793 0.131337
0.022089 0.046992 0.130182
0.045553 0.047158 0.128999
0.069665 0.047294 0.127788
0.094387 0.047404 0.126551
0.119684 0.047491 0.125291
0.145528 0.047558 0.124006
0.171892 0.047605 0.122699
0.198754 0.047636 0.121371
0.226092 0.047650 0.120021
0.253888 0.047650 0.118652
0.282125 0.047636 0.117263
0.310786 0.047609 0.115855
0.339858 0.047570 0.114429
0.369326 0.047520 0.112985
0.399177 0.047459 0.111524
0.429400 0.047387 0.110047
0.459983 0.047306 0.108553
0.490916 0.047216 0.107044
0.522187 0.047117 0.105520
0.553787 0.047009 0.103981
0.585706 0.046893 0.102427
0.617935 0.046769 0.100860
0.650465 0.046638 0.099279
0.683287 0.046500 0.097684
0.716394 0.046354 0.096077
0.749776 0.046201 0.094457
0.000000 0.063349 0.134228
0.000000 0.064222 0.133159
0.000000 0.064995 0.132056
0.000000 0.065686 0.130920
0.000000 0.066308 0.129754
0.000000 0.066872 0.128561
0.011148 0.067386 0.127341
0.034844 0.067856 0.126095
0.059162 0.068287 0.124826
0.084066 0.068683 0.123533
0.109528 0.069047 0.122218
0.135520 0.069382 0.120882
0.162019 0.069691 0.119525
0.189003 0.069975 0.118148
0.216453 0.070236 0.116752
0.244351 0.070477 0.115338
0.272681 0.070697 0.113905
0.301427 0.070900 0.112455
0.330576 0.071084 0.110988
0.360114 0.071252 0.109505
0.390029 0.071405 0.108006
0.420309 0.071542 0.106491
0.450942 0.071665 0.104961
0.481918 0.071775 0.103417
0.513227 0.071871 0.101858
0.544859 0.071955 0.100286
0.576804 0.072027 0.098700
0.609053 0.072087 0.097101
0.641597 0.072137 0.095489
0.674428 0.072175 0.093865
0.707537 0.072203 0.092229
0.740917 0.072220 0.090581
0.774558 0.072228 0.088922
0.000000 0.084897 0.130499
0.000000 0.085924 0.129323
0.000000 0.086870 0.128120
0.000000 0.087748 0.126890
0.000000 0.088565 0.125636
0.000000 0.089329 0.124358
0.021872 0.090044 0.123057
0.046458 0.090715 0.121734
0.071606 0.091347 0.120390
0.097288 0.091942 0.119026
0.123482 0.092504 0.117642
0.150164 0.093035 0.116239
0.177317 0.093537 0.114818
0.204922 0.094012 0.113379
0.232963 0.094461 0.111923
0.261424 0.094887 0.110450
0.290291 0.095290 0.108961
0.319550 0.095671 0.107456
0.349190 0.096033 0.105936
0.379197 0.096374 0.104401
0.409561 0.096697 0.102851
0.440270 0.097003 0.101287
0.471315 0.097291 0.099710
0.502684 0.097563 0.098119
0.534369 0.097819 0.096515
0.566360 0.098060 0.094899
0.598649 0.098286 0.093271
0.631225 0.098498 0.091630
0.664082 0.098696 0.089978
0.697210 0.098881 0.088315
0.730602 0.099053 0.086642
0.764249 0.099212 0.084957
0.798143 0.099359 0.083263
0.000000 0.108372 0.126436
0.000000 0.109524 0.125173
0.000000 0.110610 0.123887
0.000000 0.111635 0.122578
0.000000 0.112606 0.121247
0.007025 0.113526 0.119896
0.031913 0.114402 0.118524
0.057335 0.115235 0.117134
0.083270 0.116029 0.115724
0.109694 0.116787 0.114296
0.136591 0.117510 0.112851
0.163941 0.118202 0.111389
0.191728 0.118864 0.109910
0.219937 0.119498 0.108415
0.248554 0.120104 0.106904
0.277565 0.120685 0.105379
0.306958 0.121242 0.103838
0.336720 0.121775 0.102283
0.366841 0.122285 0.100714
0.397308 0.122775 0.099132
0.428112 0.123244 0.097537
0.459242 0.123692 0.095928
0.490689 0.124122 0.094308
0.522443 0.124533 0.092675
0.554495 0.124927 0.091030
0.586837 0.125303 0.089374
0.619460 0.125662 0.087707
0.652354 0.126004 0.086030
0.685513 0.126331 0.084342
0.718929 0.126643 0.082644
0.752592 0.126939 0.080936
0.786496 0.127220 0.079218
0.820634 0.127487 0.077492
0.000000 0.133452 0.122096
0.000000 0.134714 0.120757
0.000000 0.135916 0.119399
0.000000 0.137065 0.118020
0.000000 0.138163 0.116623
0.015779 0.139214 0.115206
0.041492 0.140223 0.113772
0.067695 0.141190 0.112321
0.094369 0.142120 0.110852
0.121496 0.143014 0.109368
0.149061 0.143873 0.107867
0.177048 0.144701 0.106351
0.205442 0.145498 0.104819
0.234231 0.146265 0.103274
0.263403 0.147005 0.101714
0.292944 0.147718 0.100140
0.322844 0.148405 0.098553
0.353091 0.149068 0.096953
0.383675 0.149706 0.095340
0.414587 0.150322 0.093714
0.445815 0.150916 0.092077
0.477351 0.151487 0.090429
0.509186 0.152039 0.088769
0.541311 0.152569 0.087098
0.573716 0.153081 0.085416
0.606395 0.153573 0.083725
0.639337 0.154046 0.082023
0.672536 0.154501 0.080312
0.705984 0.154939 0.078591
0.739672 0.155359 0.076861
0.773593 0.155762 0.075123
0.807740 0.156148 0.073377
0.842105 0.156519 0.071622
0.000000 0.159928 0.117514
0.000000 0.161285 0.116109
0.000000 0.162588 0.114686
0.000000 0.163842 0.113246
0.000000 0.165049 0.111788
0.024256 0.166211 0.110314
0.050737 0.167333 0.108823
0.077669 0.168415 0.107317
0.105037 0.169459 0.105795
0.132827 0.170468 0.104258
0.161023 0.171444 0.102707
0.189614 0.172386 0.101142
0.218586 0.173298 0.099564
0.247928 0.174180 0.097972
0.277628 0.175033 0.096367
0.307675 0.175859 0.094749
0.338059 0.176658 0.093120
0.368770 0.177431 0.091478
0.399798 0.178179 0.089826
0.431134 0.178903 0.088162
0.462768 0.179603 0.086487
0.494692 0.180280 0.084802
0.526896 0.180935 0.083106
0.559374 0.181568 0.081401
0.592115 0.182180 0.079686
0.625112 0.182771 0.077962
0.658358 0.183342 0.076230
0.691844 0.183893 0.074488
0.725563 0.184425 0.072739
0.759507 0.184937 0.070981
0.793669 0.185431 0.069216
0.828042 0.185907 0.067444
0.862617 0.186365 0.065664
0.000000 0.187642 0.112717
0.000000 0.189083 0.111253
0.000000 0.190475 0.109773
0.000000 0.191819 0.108276
0.005768 0.193119 0.106764
0.032530 0.194377 0.105237
0.059725 0.195595 0.103695
0.087340 0.196775 0.102139
0.115360 0.197917 0.100569
0.143773 0.199025 0.098986
0.172566 0.200098 0.097389
0.201727 0.201139 0.095779
0.231246 0.202149 0.094158
0.261112 0.203128 0.092524
0.291313 0.204078 0.090878
0.321841 0.205000 0.089221
0.352685 0.205893 0.087553
0.383836 0.206760 0.085874
0.415285 0.207601 0.084186
0.447023 0.208417 0.082487
0.479041 0.209207 0.080778
0.511331 0.209974 0.079060
0.543885 0.210716 0.077333
0.576695 0.211436 0.075597
0.609752 0.212133 0.073852
0.643049 0.212808 0.072100
0.676578 0.213461 0.070339
0.710332 0.214092 0.068572
0.744303 0.214703 0.066796
0.778484 0.215293 0.065014
0.812868 0.215863 0.063226
0.847447 0.216412 0.061431
0.882214 0.216943 0.059630
0.000000 0.216471 0.107728
0.000000 0.217985 0.106210
0.000000 0.219453 0.104678
0.000000 0.220876 0.103130
0.013186 0.222256 0.101569
0.040646 0.223595 0.099994
0.068509 0.224895 0.098406
0.096762 0.226158 0.096804
0.125394 0.227384 0.095190
0.154393 0.228575 0.093564
0.183748 0.229732 0.091926
0.213448 0.230856 0.090276
0.243483 0.231948 0.088615
0.273843 0.233009 0.086943
0.304518 0.234041 0.085261
0.335499 0.235043 0.083568
0.366777 0.236017 0.081866
0.398344 0.236962 0.080153
0.430189 0.237881 0.078432
0.462306 0.238773 0.076702
0.494686 0.239639 0.074963
0.527320 0.240480 0.073215
0.560202 0.241296 0.071460
0.593322 0.242087 0.069697
0.626673 0.242854 0.067926
0.660249 0.243598 0.066148
0.694041 0.244318 0.064364
0.728041 0.245016 0.062573
0.762244 0.245691 0.060776
0.796641 0.246344 0.058973
0.831226 0.246976 0.057164
0.865991 0.247586 0.055350
0.900930 0.248174 0.053531
0.000000 0.246309 0.102564
0.000000 0.247887 0.100997
0.000000 0.249419 0.099417
0.000000 0.250909 0.097824
0.020522 0.252357 0.096218
0.048633 0.253765 0.094600
0.077121 0.255134 0.092969
0.105973 0.256466 0.091327
0.135179 0.257762 0.089673
0.164729 0.259023 0.088008
0.194612 0.260249 0.086332
0.224819 0.261443 0.084646
0.255339 0.262604 0.082949
0.286164 0.263733 0.081243
0.317285 0.264832 0.079528
0.348693 0.265901 0.077803
0.380379 0.266940 0.076069
0.412335 0.267951 0.074327
0.444553 0.268933 0.072577
0.477025 0.269888 0.070819
0.509742 0.270816 0.069053
0.542697 0.271716 0.067280
0.575882 0.272591 0.065500
0.609291 0.273440 0.063713
0.642914 0.274264 0.061919
0.676746 0.275063 0.060120
0.710778 0.275837 0.058315
0.745004 0.276587 0.056504
0.779417 0.277313 0.054688
0.814008 0.278015 0.052867
0.848773 0.278694 0.051042
0.883703 0.279350 0.049212
0.918791 0.279984 0.047378
0.000000 0.277063 0.097241
0.000000 0.278694 0.095630
0.000000 0.280282 0.094007
0.000000 0.281827 0.092372
0.027791 0.283331 0.090726
0.056511 0.284796 0.089068
0.085583 0.286223 0.087399
0.114997 0.287612 0.085719
0.144742 0.288965 0.084029
0.174809 0.290283 0.082329
0.205188 0.291566 0.080620
0.235870 0.292816 0.078901
0.266846 0.294032 0.077173
0.298108 0.295217 0.075436
0.329646 0.296370 0.073691
0.361454 0.297492 0.071938
0.393521 0.298583 0.070177
0.425841 0.299645 0.068408
0.458406 0.300678 0.066632
0.491207 0.301682 0.064850
0.524237 0.302658 0.063061
0.557489 0.303605 0.061265
0.590955 0.304526 0.059463
0.624628 0.305419 0.057656
0.658500 0.306286 0.055844
0.692565 0.307126 0.054026
0.726815 0.307941 0.052203
0.761244 0.308729 0.050376
0.795843 0.309493 0.048545
0.830607 0.310231 0.046709
0.866555 0.311201 0.043844
0.902680 0.312154 0.040949
0.938951 0.313082 0.038049
0.000000 0.308651 0.091774
0.000000 0.310325 0.090123
0.000000 0.311956 0.088461
0.006050 0.313546 0.086789
0.035002 0.315096 0.085105
0.064292 0.316606 0.083412
0.093912 0.318078 0.081708
0.123851 0.319513 0.079995
0.154101 0.320911 0.078273
0.184652 0.322274 0.076542
0.215495 0.323601 0.074802
0.246623 0.324894 0.073054
0.278025 0.326154 0.071298
0.309695 0.327381 0.069534
0.341623 0.328575 0.067763
0.373803 0.329737 0.065984
0.406226 0.330869 0.064199
0.438883 0.331969 0.062408
0.471769 0.333039 0.060610
0.504875 0.334079 0.058806
0.538194 0.335090 0.056997
0.571718 0.336072 0.055182
0.605440 0.337025 0.053363
0.639354 0.337949 0.051538
0.673451 0.338846 0.049710
0.707725 0.339715 0.047877
0.742528 0.340646 0.045682
0.778187 0.341723 0.042790
0.814004 0.342775 0.039893
0.849972 0.343800 0.036992
0.886084 0.344799 0.034086
0.922334 0.345772 0.031176
0.958714 0.346720 0.028263
0.000000 0.340992 0.086177
0.000000 0.342700 0.084490
0.000000 0.344365 0.082793
0.012652 0.345989 0.081086
0.042158 0.347573 0.079369
0.071982 0.349118 0.077644
0.102114 0.350624 0.075909
0.132545 0.352092 0.074166
0.163267 0.353524 0.072415
0.194271 0.354919 0.070656
0.225549 0.356279 0.068890
0.257092 0.357604 0.067116
0.288892 0.358894 0.065335
0.320942 0.360151 0.063548
0.353233 0.361374 0.061754
0.385757 0.362564 0.059954
0.418508 0.363723 0.058148
0.451478 0.364849 0.056337
0.484659 0.365944 0.054520
0.518044 0.367007 0.052699
0.551626 0.368041 0.050873
0.585398 0.369043 0.049043
0.619352 0.370016 0.047209
0.654222 0.371144 0.044630
0.689573 0.372321 0.041736
0.725087 0.373470 0.038837
0.760758 0.374589 0.035934
0.796578 0.375681 0.033027
0.832540 0.376745 0.030116
0.868638 0.377782 0.027202
0.904865 0.378790 0.024286
0.941214 0.379772 0.021367
0.977679 0.380726 0.018446
0.000000 0.374015 0.080462
0.000000 0.375746 0.078742
0.000000 0.377435 0.077013
0.019236 0.379082 0.075276
0.049262 0.380690 0.073530
0.079584 0.382257 0.071776
0.110196 0.383786 0.070014
0.141087 0.385277 0.068245
0.172250 0.386730 0.066468
0.203676 0.388147 0.064685
0.235358 0.389527 0.062895
0.267288 0.390871 0.061099
0.299457 0.392180 0.059297
0.331859 0.393454 0.057489
0.364485 0.394694 0.055676
0.397328 0.395901 0.053858
0.430381 0.397073 0.052035
0.463637 0.398213 0.050207
0.497087 0.399320 0.048376
0.530799 0.400413 0.046467
0.565670 0.401719 0.043577
0.600717 0.402994 0.040681
0.635933 0.404238 0.037781
0.671310 0.405451 0.034876
0.706843 0.406634 0.031968
0.742523 0.407786 0.029056
0.778344 0.408909 0.026141
0.814299 0.410002 0.023223
0.850381 0.411066 0.020304
0.886584 0.412100 0.017383
0.922900 0.413105 0.014460
0.959323 0.414082 0.011537
0.995845 0.415029 0.008614
0.000000 0.407647 0.074641
0.000000 0.409392 0.072892
0.000000 0.411093 0.071135
0.025801 0.412754 0.069371
0.056312 0.414374 0.067599
0.087101 0.415954 0.065820
0.118159 0.417494 0.064034
0.149479 0.418996 0.062242
0.181052 0.420459 0.060444
0.212871 0.421885 0.058640
0.244929 0.423274 0.056830
0.277216 0.424626 0.055015
0.309727 0.425942 0.053195
0.342453 0.427222 0.051370
0.375387 0.428467 0.049541
0.408522 0.429676 0.047708
0.442306 0.430966 0.045416
0.476873 0.432370 0.042523
0.511621 0.433740 0.039626
0.546543 0.435078 0.036724
0.581633 0.436382 0.033818
0.616882 0.437655 0.030908
0.652285 0.438894 0.027995
0.687834 0.440102 0.025079
0.723521 0.441278 0.022161
0.759341 0.442422 0.019240
0.795287 0.443535 0.016319
0.831351 0.444616 0.013396
0.867526 0.445666 0.010473
0.903807 0.446686 0.007550
0.940186 0.447674 0.004627
0.976657 0.448632 0.001705
1.000000 0.449560 0.000000
0.000000 0.441821 0.068727
0.000000 0.443568 0.066952
0.001647 0.445273 0.065171
0.032343 0.446935 0.063383
0.063306 0.448557 0.061588
0.094529 0.450138 0.059788
0.126003 0.451678 0.057981
0.157722 0.453180 0.056170
0.189676 0.454642 0.054353
0.221859 0.456066 0.052531
0.254263 0.457451 0.050705
0.286881 0.458800 0.048874
0.319705 0.460110 0.047039
0.353566 0.461594 0.044363
0.387834 0.463094 0.041469
0.422288 0.464559 0.038570
0.456922 0.465989 0.035666
0.491728 0.467384 0.032759
0.526700 0.468744 0.029848
0.561829 0.470069 0.026933
0.597110 0.471360 0.024017
0.632535 0.472617 0.021098
0.668097 0.473840 0.018177
0.703790 0.475029 0.015255
0.739606 0.476185 0.012332
0.775540 0.477308 0.009409
0.811583 0.478397 0.006486
0.847729 0.479454 0.003563
0.883972 0.480478 0.000641
0.920305 0.481470 0.000000
0.956721 0.482429 0.000000
0.993213 0.483355 0.000000
1.000000 0.484250 0.000000
0.000000 0.476470 0.062730
0.000000 0.478209 0.060933
0.007721 0.479905 0.059131
0.038856 0.481559 0.057322
0.070240 0.483171 0.055509
0.101867 0.484742 0.053690
0.133727 0.486272 0.051867
0.165814 0.487762 0.050039
0.198121 0.489211 0.048206
0.230808 0.490664 0.046201
0.264582 0.492297 0.043310
0.298556 0.493893 0.040414
0.332721 0.495451 0.037513
0.367071 0.496971 0.034608
0.401599 0.498454 0.031699
0.436297 0.499900 0.028787
0.471158 0.501309 0.025872
0.506176 0.502681 0.022954
0.541343 0.504018 0.020034
0.576652 0.505318 0.017113
0.612097 0.506582 0.014191
0.647670 0.507811 0.011268
0.683365 0.509005 0.008345
0.719175 0.510163 0.005422
0.755093 0.511287 0.002499
0.791113 0.512375 0.000000
0.827227 0.513429 0.000000
0.863430 0.514448 0.000000
0.899713 0.515433 0.000000
0.936071 0.516383 0.000000
0.972498 0.517300 0.000000
1.000000 0.518183 0.000000
1.000000 0.519031 0.000000
0.000000 0.511527 0.056663
0.000000 0.513248 0.054847
0.013791 0.514925 0.053027
0.045334 0.516559 0.051202
0.077110 0.518151 0.049372
0.109110 0.519700 0.047538
0.141879 0.521346 0.045149
0.175358 0.523075 0.042257
0.209042 0.524764 0.039359
0.242923 0.526413 0.036456
0.276994 0.528022 0.033550
0.311248 0.529591 0.030639
0.345677 0.531122 0.027726
0.380275 0.532613 0.024810
0.415034 0.534066 0.021891
0.449947 0.535480 0.018971
0.485008 0.536856 0.016049
0.520209 0.538194 0.013127
0.555544 0.539494 0.010203
0.591006 0.540757 0.007280
0.626587 0.541982 0.004358
0.662282 0.543171 0.001436
0.698082 0.544322 0.000000
0.733983 0.545437 0.000000
0.769976 0.546515 0.000000
0.806055 0.547556 0.000000
0.842214 0.548561 0.000000
0.878445 0.549530 0.000000
0.914743 0.550463 0.000000
0.951100 0.551360 0.000000
0.987510 0.552221 0.000000
1.000000 0.553178 0.000000
1.000000 0.554361 0.000000
0.000000 0.546927 0.050536
0.000000 0.548619 0.048705
0.019851 0.550267 0.046870
0.052706 0.552104 0.044097
0.085896 0.553927 0.041202
0.119295 0.555707 0.038303
0.152896 0.557445 0.035399
0.186693 0.559142 0.032491
0.220677 0.560796 0.029579
0.254843 0.562409 0.026665
0.289181 0.563981 0.023748
0.323687 0.565512 0.020828
0.358351 0.567002 0.017908
0.393168 0.568452 0.014985
0.428130 0.569862 0.012062
0.463231 0.571233 0.009139
0.498464 0.572563 0.006216
0.533821 0.573854 0.003294
0.569296 0.575106 0.000372
0.604882 0.576319 0.000000
0.640573 0.577492 0.000000
0.676361 0.578627 0.000000
0.712241 0.579724 0.000000
0.748204 0.580782 0.000000
0.784245 0.581802 0.000000
0.820357 0.582783 0.000000
0.856533 0.583727 0.000000
0.892767 0.584632 0.000000
0.927951 0.585776 0.000000
0.962710 0.586999 0.000000
0.997509 0.588183 0.000000
1.000000 0.589329 0.000000
1.000000 0.590437 0.000000
0.000000 0.582936 0.043044
0.000000 0.584851 0.040147
0.029317 0.586721 0.037246
0.062644 0.588547 0.034340
0.096171 0.590329 0.031431
0.129891 0.592066 0.028518
0.163797 0.593761 0.025603
0.197881 0.595411 0.022685
0.232137 0.597019 0.019765
0.266557 0.598584 0.016844
0.301135 0.600107 0.013921
0.335862 0.601587 0.010998
0.370734 0.603026 0.008075
0.405742 0.604422 0.005152
0.440879 0.605777 0.002230
0.476140 0.607091 0.000000
0.511516 0.608363 0.000000
0.547001 0.609595 0.000000
0.582589 0.610786 0.000000
0.618273 0.611935 0.000000
0.654046 0.613045 0.000000
0.689901 0.614114 0.000000
0.725831 0.615143 0.000000
0.761831 0.616131 0.000000
0.797793 0.617105 0.000000
0.832337 0.618407 0.000000
0.866934 0.619669 0.000000
0.901578 0.620890 0.000000
0.936261 0.622071 0.000000
0.970977 0.623211 0.000000
1.000000 0.624311 0.000000
1.000000 0.625370 0.000000
1.000000 0.626389 0.000000
0.000000 0.619717 0.033282
0.005430 0.621583 0.030371
0.038891 0.623402 0.027457
0.072542 0.625176 0.024541
0.106376 0.626904 0.021622
0.140387 0.628587 0.018702
0.174568 0.630225 0.015780
0.208910 0.631819 0.012857
0.243408 0.633368 0.009934
0.278055 0.634873 0.007011
0.312842 0.636334 0.004088
0.347765 0.637751 0.001166
0.382815 0.639125 0.000000
0.417985 0.640456 0.000000
0.453270 0.641744 0.000000
0.488662 0.642988 0.000000
0.524155 0.644190 0.000000
0.559741 0.645349 0.000000
0.595414 0.646466 0.000000
0.631168 0.647541 0.000000
0.666995 0.648573 0.000000
0.702216 0.649732 0.000000
0.736599 0.651073 0.000000
0.771039 0.652372 0.000000
0.805530 0.653628 0.000000
0.840066 0.654842 0.000000
0.874639 0.656013 0.000000
0.909245 0.657141 0.000000
0.943876 0.658227 0.000000
0.978526 0.659271 0.000000
1.000000 0.660272 0.000000
1.000000 0.661231 0.000000
1.000000 0.662148 0.000000
0.000000 0.656653 0.023479
0.014670 0.658457 0.020559
0.048440 0.660214 0.017638
0.082386 0.661924 0.014716
0.116498 0.663586 0.011793
0.150771 0.665203 0.008870
0.185196 0.666773 0.005947
0.219768 0.668297 0.003024
0.254480 0.669775 0.000103
0.289324 0.671208 0.000000
0.324293 0.672595 0.000000
0.359382 0.673937 0.000000
0.394582 0.675235 0.000000
0.429888 0.676487 0.000000
0.465292 0.677694 0.000000
0.500788 0.678857 0.000000
0.536368 0.679976 0.000000
0.572028 0.681051 0.000000
0.606513 0.682393 0.000000
0.640738 0.683772 0.000000
0.675026 0.685106 0.000000
0.709369 0.686396 0.000000
0.743761 0.687641 0.000000
0.778196 0.688841 0.000000
0.812668 0.689997 0.000000
0.847170 0.691108 0.000000
0.881696 0.692175 0.000000
0.916239 0.693197 0.000000
0.950794 0.694175 0.000000
0.985353 0.695109 0.000000
1.000000 0.695997 0.000000
1.000000 0.696842 0.000000
1.000000 0.697641 0.000000
0.000000 0.693679 0.013652
0.023900 0.695409 0.010729
0.057952 0.697091 0.007806
0.092162 0.698725 0.004883
0.126522 0.700311 0.001961
0.161027 0.701848 0.000000
0.195670 0.703338 0.000000
0.230443 0.704781 0.000000
0.265339 0.706176 0.000000
0.300352 0.707524 0.000000
0.335475 0.708825 0.000000
0.370701 0.710079 0.000000
0.406024 0.711287 0.000000
0.441436 0.712448 0.000000
0.476687 0.713625 0.000000
0.510686 0.715087 0.000000
0.544758 0.716502 0.000000
0.578897 0.717871 0.000000
0.613097 0.719192 0.000000
0.647350 0.720467 0.000000
0.681651 0.721695 0.000000
0.715994 0.722877 0.000000
0.750371 0.724012 0.000000
0.784776 0.725101 0.000000
0.819204 0.726142 0.000000
0.853648 0.727138 0.000000
0.888101 0.728086 0.000000
0.922558 0.728989 0.000000
0.957011 0.729844 0.000000
0.991455 0.730653 0.000000
1.000000 0.731415 0.000000
1.000000 0.732131 0.000000
1.000000 0.732799 0.000000
0.000000 0.730729 0.003819
0.033107 0.732374 0.000897
0.067410 0.733969 0.000000
0.101855 0.735515 0.000000
0.136435 0.737011 0.000000
0.171144 0.738458 0.000000
0.205974 0.739855 0.000000
0.240919 0.741203 0.000000
0.275972 0.742503 0.000000
0.311126 0.743754 0.000000
0.346374 0.744957 0.000000
0.380892 0.746315 0.000000
0.414738 0.747814 0.000000
0.448661 0.749264 0.000000
0.482656 0.750665 0.000000
0.516716 0.752017 0.000000
0.550835 0.753320 0.000000
0.585006 0.754575 0.000000
0.619223 0.755781 0.000000
0.653480 0.756938 0.000000
0.687770 0.758047 0.000000
0.722086 0.759106 0.000000
0.756424 0.760118 0.000000
0.790775 0.761080 0.000000
0.825134 0.761994 0.000000
0.859495 0.762860 0.000000
0.893851 0.763676 0.000000
0.928195 0.764444 0.000000
0.962522 0.765163 0.000000
0.996824 0.765833 0.000000
1.000000 0.766454 0.000000
1.000000 0.767026 0.000000
1.000000 0.767550 0.000000
0.007882 0.767737 0.000000
0.042274 0.769285 0.000000
0.076800 0.770782 0.000000
0.111451 0.772227 0.000000
0.146222 0.773622 0.000000
0.181106 0.774965 0.000000
0.216095 0.776258 0.000000
0.251184 0.777500 0.000000
0.284974 0.779039 0.000000
0.318671 0.780573 0.000000
0.352450 0.782056 0.000000
0.386305 0.783488 0.000000
0.420230 0.784869 0.000000
0.454218 0.786199 0.000000
0.488264 0.787479 0.000000
0.522360 0.788707 0.000000
0.556500 0.789885 0.000000
0.590678 0.791012 0.000000
0.624888 0.792089 0.000000
0.659123 0.793115 0.000000
0.693377 0.794090 0.000000
0.727643 0.795014 0.000000
0.761915 0.795887 0.000000
0.796187 0.796710 0.000000
0.830452 0.797482 0.000000
0.864705 0.798203 0.000000
0.898938 0.798873 0.000000
0.933145 0.799492 0.000000
0.967319 0.800060 0.000000
1.000000 0.800576 0.000000
1.000000 0.801042 0.000000
1.000000 0.801456 0.000000
1.000000 0.801818 0.000000
0.016786 0.804640 0.000000
0.051387 0.806079 0.000000
0.086106 0.807464 0.000000
0.120935 0.808797 0.000000
0.155478 0.810175 0.000000
0.188936 0.811796 0.000000
0.222487 0.813363 0.000000
0.256126 0.814878 0.000000
0.289846 0.816339 0.000000
0.323640 0.817748 0.000000
0.357502 0.819103 0.000000
0.391426 0.820406 0.000000
0.425406 0.821656 0.000000
0.459434 0.822853 0.000000
0.493505 0.823997 0.000000
0.527612 0.825089 0.000000
0.561749 0.826127 0.000000
0.595909 0.827113 0.000000
0.630086 0.828046 0.000000
0.664274 0.828926 0.000000
0.698467 0.829754 0.000000
0.732657 0.830528 0.000000
0.766839 0.831249 0.000000
0.801007 0.831918 0.000000
0.835153 0.832533 0.000000
0.869271 0.833095 0.000000
0.903355 0.833604 0.000000
0.937399 0.834059 0.000000
0.971395 0.834461 0.000000
1.000000 0.834809 0.000000
1.000000 0.835103 0.000000
1.000000 0.835343 0.000000
1.000000 0.835528 0.000000
0.025648 0.841371 0.000000
0.059467 0.842929 0.000000
0.092779 0.844584 0.000000
0.126190 0.846184 0.000000
0.159693 0.847728 0.000000
0.193281 0.849218 0.000000
0.226949 0.850652 0.000000
0.260690 0.852032 0.000000
0.294496 0.853356 0.000000
0.328363 0.854626 0.000000
0.362284 0.855840 0.000000
0.396251 0.857000 0.000000
0.430260 0.858105 0.000000
0.464303 0.859155 0.000000
0.498374 0.860150 0.000000
0.532467 0.861091 0.000000
0.566575 0.861976 0.000000
0.600692 0.862806 0.000000
0.634812 0.863582 0.000000
0.668928 0.864302 0.000000
0.703034 0.864967 0.000000
0.737123 0.865577 0.000000
0.771189 0.866132 0.000000
0.805226 0.866631 0.000000
0.839227 0.867075 0.000000
0.873185 0.867463 0.000000
