mini_run_pipeline/luts/teal_and_orange_blockbuster.cube
TITLE "Teal and Orange Blockbuster Modern 2-Strip"
LUT_3D_SIZE 5
DOMAIN_MIN 0.0 0.0 0.0
DOMAIN_MAX 1.0 1.0 1.0
0.000000 0.000000 0.000000
0.030001 0.028471 0.132862
0.233536 0.026395 0.123178
0.467219 0.024012 0.112058
0.723662 0.021398 0.099856
0.000000 0.216471 0.107728
0.125394 0.227384 0.095190
0.366777 0.236017 0.081866
0.626673 0.242854 0.067926
0.900930 0.248174 0.053531
0.000000 0.476470 0.062730
0.198121 0.489211 0.048206
0.471158 0.501309 0.025872
0.755093 0.511287 0.002499
1.000000 0.519031 0.000000
0.007882 0.767737 0.000000
0.284974 0.779039 0.000000
0.556500 0.789885 0.000000
0.830452 0.797482 0.000000
1.000000 0.801818 0.000000
0.046824 1.000000 0.000000
0.317426 1.000000 0.000000
0.586237 1.000000 0.000000
0.849732 1.000000 0.000000
1.000000 1.000000 0.000000
0.000000 0.029590 0.251628
0.042747 0.027807 0.283744
0.250109 0.025616 0.295826
0.486472 0.023148 0.301044
0.744860 0.020466 0.302188
0.000000 0.220477 0.301854
0.133315 0.230541 0.301840
0.390813 0.237638 0.284667
0.651219 0.244345 0.281787
0.921883 0.249632 0.280739
0.000000 0.481095 0.292186
0.206784 0.493445 0.283081
0.482374 0.504953 0.266070
0.808320 0.521195 0.204762
1.000000 0.527100 0.212919
0.015075 0.771823 0.240943
0.288925 0.783088 0.228061
0.560771 0.792829 0.222392
0.834297 0.799322 0.215921
1.000000 0.807158 0.194886
0.049454 1.000000 0.213384
0.319809 1.000000 0.205961
0.587583 1.000000 0.197931
0.849140 1.000000 0.189347
1.000000 1.000000 0.180213
0.000000 0.029048 0.399360
0.054093 0.027100 0.451446
0.265606 0.024805 0.480582
0.504790 0.022259 0.499756
0.765170 0.019514 0.512682
0.000000 0.224164 0.505075
0.141087 0.233460 0.516186
0.388517 0.240837 0.523076
0.652579 0.246621 0.526493
0.931133 0.251456 0.525156
0.000000 0.485411 0.526975
0.216221 0.497619 0.521571
0.493333 0.508333 0.510000
0.783871 0.517893 0.490959
1.000000 0.525745 0.482546
0.022244 0.775532 0.490628
0.292733 0.786760 0.485714
0.564768 0.795399 0.481963
0.837734 0.800784 0.476380
1.000000 0.812775 0.439351
0.052039 1.000000 0.473909
0.322011 1.000000 0.465953
0.588591 1.000000 0.456299
0.847992 1.000000 0.444886
1.000000 1.000000 0.431386
0.000000 0.028435 0.566192
0.064538 0.026353 0.632829
0.280255 0.023965 0.676011
0.522299 0.021347 0.707303
0.784670 0.018545 0.730681
0.000000 0.227565 0.716605
0.148723 0.236161 0.737628
0.398945 0.242968 0.753067
0.664898 0.248261 0.763803
0.947405 0.253374 0.765776
0.000000 0.489426 0.766663
0.225545 0.501518 0.764157
0.504032 0.511453 0.757280
0.790092 0.519156 0.747129
1.000000 0.527093 0.745198
0.027752 0.779273 0.744584
0.296395 0.790058 0.745000
0.568487 0.797594 0.742456
0.840758 0.801868 0.737051
1.000000 0.804176 0.724784
0.054576 1.000000 0.734386
0.324024 1.000000 0.725162
0.589245 1.000000 0.713095
0.846236 1.000000 0.697930
1.000000 1.000000 0.678618
0.000000 0.027769 0.747522
0.074353 0.025572 0.825893
0.294208 0.023099 0.881005
0.539092 0.020414 0.922926
0.803420 0.017559 0.955599
0.000000 0.230708 0.935762
0.156230 0.238656 0.965615
0.409093 0.244925 0.988672
0.676807 0.249747 1.000000
0.963155 0.255153 1.000000
0.000000 0.493684 1.000000
0.234751 0.505148 1.000000
0.514465 0.514315 1.000000
0.799629 0.521608 1.000000
1.000000 0.529543 1.000000
0.030589 0.783301 1.000000
0.299907 0.792981 1.000000
0.571925 0.799413 1.000000
0.843365 0.802569 0.997566
1.000000 0.802369 0.987747
0.057060 1.000000 0.994442
0.325841 1.000000 0.983197
0.589523 1.000000 0.967885
0.843791 1.000000 0.947905
1.000000 1.000000 1.000000
