mini_run_pipeline/luts/vintage_film_emulation.cube
TITLE "Vintage 1970s Warm 35mm Stock Emulation"
LUT_3D_SIZE 5
DOMAIN_MIN 0.0 0.0 0.0
DOMAIN_MAX 1.0 1.0 1.0
0.042525 0.035910 0.026460
0.302108 0.039964 0.016219
0.543935 0.043293 0.007810
0.778310 0.046103 0.000713
1.000000 0.048451 0.000000
0.064562 0.285886 0.000000
0.302932 0.284937 0.000000
0.535609 0.284259 0.000000
0.764054 0.283656 0.000000
0.989242 0.283019 0.000000
0.075914 0.514136 0.000000
0.305102 0.511973 0.000000
0.531088 0.509960 0.000000
0.754549 0.508018 0.000000
0.976053 0.506096 0.000000
0.078448 0.733976 0.000000
0.301831 0.731312 0.000000
0.523341 0.728799 0.000000
0.743474 0.726408 0.000000
0.962720 0.724131 0.000000
0.072399 0.950435 0.000000
0.291965 0.948047 0.000000
0.510757 0.945982 0.000000
0.729363 0.944330 0.005126
0.948596 0.943309 0.013040
0.045509 0.037413 0.291263
0.301065 0.041159 0.265738
0.542189 0.044302 0.251063
0.776125 0.046950 0.240023
1.000000 0.049149 0.231276
0.066134 0.285515 0.236609
0.303327 0.284689 0.228549
0.535198 0.284052 0.222146
0.763063 0.283447 0.217188
0.987824 0.282783 0.213548
0.076560 0.513379 0.215715
0.305047 0.511277 0.212533
0.530494 0.509295 0.210567
0.753546 0.507365 0.209776
0.974752 0.505440 0.210138
0.078229 0.733052 0.209775
0.301147 0.730443 0.210554
0.522304 0.727974 0.212481
0.742193 0.725622 0.215570
0.961307 0.723385 0.219854
0.071297 0.949591 0.216989
0.290572 0.947306 0.221721
0.509195 0.945367 0.227732
0.727791 0.943895 0.235142
0.947299 0.943194 0.244185
0.048197 0.038767 0.540358
0.300637 0.042286 0.510000
0.540827 0.045254 0.491148
0.774216 0.047746 0.477095
1.000000 0.049799 0.466074
0.067606 0.285199 0.472783
0.303695 0.284462 0.462653
0.534794 0.283849 0.454633
0.762094 0.283231 0.448403
0.986440 0.282533 0.443768
0.077117 0.512646 0.446539
0.304932 0.510595 0.442451
0.529862 0.508637 0.439803
0.752521 0.506713 0.438529
0.973444 0.504781 0.438592
0.077924 0.732149 0.438398
0.300395 0.729591 0.438944
0.521217 0.727162 0.440814
0.740878 0.724849 0.444028
0.959882 0.722654 0.448630
0.070101 0.948780 0.445539
0.289104 0.946605 0.450665
0.507580 0.944805 0.457309
0.726209 0.943544 0.465668
0.946121 0.943272 0.476197
0.050709 0.040032 0.783421
0.300562 0.043351 0.750448
0.539740 0.046151 0.728647
0.772524 0.048491 0.712251
1.000000 0.050401 0.699383
0.068981 0.284923 0.707216
0.304030 0.284247 0.695390
0.534388 0.283644 0.686027
0.761142 0.283006 0.678737
0.985083 0.282268 0.673283
0.077586 0.511934 0.676549
0.304758 0.509923 0.671721
0.529190 0.507982 0.668534
0.751473 0.506059 0.666906
0.972128 0.504118 0.666792
0.077531 0.731264 0.666691
0.299574 0.728752 0.667123
0.520077 0.726364 0.669056
0.739529 0.724089 0.672516
0.958447 0.721941 0.677571
0.068811 0.948005 0.674167
0.287558 0.945946 0.679829
0.505913 0.944304 0.687281
0.724628 0.943299 0.696840
0.945169 0.943668 0.709420
0.053073 0.041223 1.000000
0.300699 0.044356 0.987935
0.538853 0.046995 0.963982
0.771004 0.049187 0.945747
0.998833 0.050956 0.931380
0.070259 0.284676 0.940128
0.304327 0.284041 0.926917
0.533973 0.283435 0.916445
0.760198 0.282769 0.908287
0.983748 0.281987 0.902173
0.077968 0.511239 0.905835
0.304522 0.509259 0.900418
0.528477 0.507329 0.896828
0.750400 0.505404 0.894971
0.970802 0.503450 0.894799
0.077051 0.730396 0.894715
0.298684 0.727928 0.895151
0.518886 0.725578 0.897266
0.738148 0.723344 0.901101
0.957003 0.721246 0.906752
0.067424 0.947266 0.902941
0.285934 0.945335 0.909293
0.504197 0.943873 0.917752
0.723066 0.943193 0.928837
0.945000 0.945000 0.945000
