mini_run_pipeline/luts/vintage_film_emulation.cube
TITLE "Vintage 1970s Warm 35mm Stock Emulation"
LUT_3D_SIZE 9
DOMAIN_MIN 0.0 0.0 0.0
DOMAIN_MAX 1.0 1.0 1.0
0.042525 0.035910 0.026460
0.176556 0.038065 0.021016
0.302108 0.039964 0.016219
0.424201 0.041699 0.011837
0.543935 0.043293 0.007810
0.661859 0.044758 0.004109
0.778310 0.046103 0.000713
0.893524 0.047332 0.000000
1.000000 0.048451 0.000000
0.055202 0.165911 0.010332
0.179439 0.165897 0.006427
0.300954 0.166072 0.002838
0.420388 0.166339 0.000000
0.538146 0.166645 0.000000
0.654509 0.166957 0.000000
0.769684 0.167254 0.000000
0.883833 0.167523 0.000000
0.997086 0.167754 0.000000
0.064562 0.285886 0.000000
0.184580 0.285360 0.000000
0.302932 0.284937 0.000000
0.419875 0.284580 0.000000
0.535609 0.284259 0.000000
0.650292 0.283956 0.000000
0.764054 0.283656 0.000000
0.877006 0.283346 0.000000
0.989242 0.283019 0.000000
0.071389 0.401466 0.000000
0.188573 0.400600 0.000000
0.304569 0.399802 0.000000
0.419525 0.399050 0.000000
0.533565 0.398328 0.000000
0.646793 0.397623 0.000000
0.759303 0.396926 0.000000
0.871177 0.396227 0.000000
0.982490 0.395520 0.000000
0.075914 0.514136 0.000000
0.190957 0.513030 0.000000
0.305102 0.511973 0.000000
0.418450 0.510953 0.000000
0.531088 0.509960 0.000000
0.643097 0.508984 0.000000
0.754549 0.508018 0.000000
0.865514 0.507057 0.000000
0.976053 0.506096 0.000000
0.078250 0.624760 0.000000
0.191592 0.623492 0.000000
0.304240 0.622266 0.000000
0.416271 0.621074 0.000000
0.527757 0.619909 0.000000
0.638763 0.618765 0.000000
0.749353 0.617637 0.000000
0.859588 0.616522 0.000000
0.969528 0.615417 0.000000
0.078448 0.733976 0.000000
0.190405 0.732623 0.000000
0.301831 0.731312 0.000000
0.412788 0.730039 0.000000
0.523341 0.728799 0.000000
0.633549 0.727589 0.000000
0.743474 0.726408 0.000000
0.853177 0.725255 0.000000
0.962720 0.724131 0.000000
0.076511 0.842343 0.000000
0.187337 0.840992 0.000000
0.297770 0.839693 0.000000
0.407871 0.838443 0.000000
0.517701 0.837243 0.000000
0.627322 0.836094 0.000000
0.736801 0.835000 0.000000
0.846208 0.833967 0.000000
0.955623 0.833005 0.000451
0.072399 0.950435 0.000000
0.182311 0.949204 0.000000
0.291965 0.948047 0.000000
0.401424 0.946970 0.000000
0.510757 0.945982 0.000000
0.620040 0.945095 0.001645
0.729363 0.944330 0.005126
0.838833 0.943717 0.008916
0.948596 0.943309 0.013040
0.044078 0.036692 0.162785
0.176206 0.038731 0.149695
0.301484 0.040570 0.141764
0.423404 0.042256 0.135377
0.543005 0.043805 0.129877
0.660819 0.045228 0.125017
0.777178 0.046533 0.120671
0.892313 0.047724 0.116766
1.000000 0.048806 0.113255
0.056273 0.165876 0.133289
0.179976 0.165941 0.128042
0.301120 0.166155 0.123380
0.420277 0.166440 0.119201
0.537818 0.166751 0.115444
0.654003 0.167060 0.112068
0.769032 0.167350 0.109045
0.883058 0.167606 0.106352
0.996209 0.167822 0.103975
0.065360 0.285693 0.117787
0.185048 0.285207 0.114173
0.303132 0.284810 0.110928
0.419854 0.284468 0.108027
0.535402 0.284155 0.105451
0.649928 0.283854 0.103185
0.763555 0.283552 0.101218
0.876391 0.283237 0.099541
0.988528 0.282902 0.098146
0.071947 0.401163 0.107053
0.188890 0.400322 0.104591
0.304680 0.399542 0.102435
0.419458 0.398802 0.100574
0.533344 0.398087 0.099001
0.646438 0.397386 0.097707
0.758833 0.396689 0.096689
0.870607 0.395988 0.095942
0.981835 0.395277 0.095463
0.076248 0.513754 0.099969
0.191102 0.512666 0.098498
0.305082 0.511623 0.097305
0.418284 0.510613 0.096386
0.530795 0.509627 0.095737
0.642693 0.508655 0.095355
0.754050 0.507692 0.095238
0.864932 0.506731 0.095386
0.975403 0.505768 0.095796
0.078367 0.624324 0.096119
0.191556 0.623072 0.095567
0.304069 0.621858 0.095282
0.415982 0.620676 0.095261
0.527363 0.619518 0.095505
0.638280 0.618380 0.096011
0.748793 0.617257 0.096782
0.858965 0.616146 0.097818
0.968855 0.615044 0.099121
0.078349 0.733511 0.095319
0.190182 0.732173 0.095659
0.301497 0.730876 0.096261
0.412359 0.729614 0.097128
0.522829 0.728384 0.098261
0.632968 0.727184 0.099662
0.742838 0.726013 0.101334
0.852499 0.724870 0.103280
0.962015 0.723756 0.105507
0.076196 0.841878 0.097510
0.186920 0.840546 0.098740
0.297265 0.839263 0.100239
0.407291 0.838030 0.102010
0.517060 0.836847 0.104058
0.626635 0.835716 0.106388
0.736083 0.834642 0.109007
0.845477 0.833632 0.111924
0.954899 0.832697 0.115151
0.071859 0.950009 0.102724
0.181691 0.948802 0.104874
0.291278 0.947672 0.107308
0.400685 0.946624 0.110034
0.509982 0.945668 0.113063
0.619249 0.944820 0.116405
0.728579 0.944103 0.120077
0.838088 0.943552 0.124104
0.947936 0.943232 0.128519
0.045509 0.037413 0.291263
0.176183 0.039374 0.275782
0.301065 0.041159 0.265738
0.422753 0.042796 0.257786
0.542189 0.044302 0.251063
0.659873 0.045684 0.245205
0.776125 0.046950 0.240023
0.891169 0.048104 0.235404
1.000000 0.049149 0.231276
0.057315 0.165874 0.255221
0.180515 0.166002 0.248842
0.301302 0.166247 0.243247
0.420188 0.166545 0.238280
0.537512 0.166857 0.233847
0.653523 0.167161 0.229884
0.768405 0.167441 0.226346
0.882309 0.167684 0.223199
0.995355 0.167884 0.220420
0.066134 0.285515 0.236609
0.185503 0.285064 0.232353
0.303327 0.284689 0.228549
0.419833 0.284359 0.225156
0.535198 0.284052 0.222146
0.649568 0.283752 0.219496
0.763063 0.283447 0.217188
0.875785 0.283126 0.215209
0.987824 0.282783 0.213548
0.072483 0.400869 0.224017
0.189190 0.400052 0.221141
0.304779 0.399287 0.218617
0.419383 0.398557 0.216430
0.533117 0.397848 0.214568
0.646081 0.397149 0.213020
0.758362 0.396452 0.211778
0.870038 0.395748 0.210836
0.981182 0.395032 0.210189
0.076560 0.513379 0.215715
0.191229 0.512308 0.213969
0.305047 0.511277 0.212533
0.418107 0.510276 0.211401
0.530494 0.509295 0.210567
0.642283 0.508327 0.210026
0.753546 0.507365 0.209776
0.864348 0.506404 0.209814
0.974752 0.505440 0.210138
0.078461 0.623894 0.211063
0.191501 0.622655 0.210336
0.303882 0.621453 0.209902
0.415678 0.620280 0.209756
0.526958 0.619130 0.209898
0.637787 0.617997 0.210327
0.748226 0.616879 0.211042
0.858337 0.615771 0.212044
0.968179 0.614672 0.213336
0.078229 0.733052 0.209775
0.189940 0.731728 0.210021
0.301147 0.730443 0.210554
0.411915 0.729193 0.211374
0.522304 0.727974 0.212481
0.632377 0.726784 0.213879
0.742193 0.725622 0.215570
0.851814 0.724488 0.217560
0.961307 0.723385 0.219854
0.075858 0.841420 0.211743
0.186483 0.840104 0.212956
0.296742 0.838839 0.214460
0.406695 0.837623 0.216260
0.516406 0.836457 0.218360
0.625936 0.835345 0.220766
0.735356 0.834292 0.223489
0.844740 0.833305 0.226538
0.954175 0.832399 0.229929
0.071297 0.949591 0.216989
0.181050 0.948410 0.219200
0.290572 0.947306 0.221721
0.399930 0.946288 0.224560
0.509195 0.945367 0.227732
0.618449 0.944561 0.231252
0.727791 0.943895 0.235142
0.837348 0.943413 0.239435
0.947299 0.943194 0.244185
0.046878 0.038103 0.416782
0.176355 0.039998 0.399985
0.300795 0.041730 0.388416
0.422220 0.043322 0.379214
0.541468 0.044785 0.371460
0.659006 0.046127 0.364737
0.775140 0.047354 0.358817
0.890086 0.048471 0.353559
1.000000 0.049480 0.348873
0.058327 0.165899 0.376252
0.181053 0.166076 0.368908
0.301496 0.166344 0.362498
0.420115 0.166650 0.356832
0.537228 0.166963 0.351791
0.653063 0.167260 0.347295
0.767800 0.167528 0.343288
0.881581 0.167757 0.339727
0.994523 0.167941 0.336580
0.066883 0.285351 0.354929
0.185943 0.284930 0.350095
0.303515 0.284573 0.345782
0.419809 0.284253 0.341942
0.534996 0.283950 0.338535
0.649213 0.283650 0.335532
0.762576 0.283340 0.332912
0.875185 0.283012 0.330657
0.987128 0.282660 0.328751
0.072995 0.400584 0.340653
0.189474 0.399787 0.337396
0.304865 0.399036 0.334535
0.419299 0.398314 0.332050
0.532885 0.397610 0.329923
0.645720 0.396913 0.328143
0.757889 0.396214 0.326697
0.869469 0.395506 0.325580
0.980531 0.394785 0.324782
0.076849 0.513010 0.331235
0.191338 0.511954 0.329235
0.304997 0.510934 0.327578
0.417918 0.509941 0.326253
0.530182 0.508965 0.325253
0.641865 0.508000 0.324571
0.753036 0.507039 0.324203
0.863760 0.506077 0.324147
0.974099 0.505111 0.324401
0.078535 0.623469 0.325851
0.191427 0.622244 0.324968
0.303679 0.621052 0.324401
0.415361 0.619887 0.324147
0.526542 0.618743 0.324204
0.637285 0.617616 0.324569
0.747652 0.616501 0.325244
0.857704 0.615397 0.326228
0.967500 0.614300 0.327523
0.078087 0.732598 0.324132
0.189678 0.731288 0.324301
0.300780 0.730015 0.324779
0.411456 0.728775 0.325566
0.521767 0.727566 0.326663
0.631774 0.726386 0.328073
0.741539 0.725233 0.329799
0.851124 0.724110 0.331848
0.960596 0.723018 0.334226
0.075498 0.840968 0.325929
0.186026 0.839669 0.327140
0.296201 0.838420 0.328664
0.406084 0.837221 0.330507
0.515738 0.836073 0.332675
0.625227 0.834980 0.335175
0.734622 0.833949 0.338019
0.844000 0.832988 0.341220
0.953452 0.832112 0.344797
0.070711 0.949181 0.331258
0.180388 0.948026 0.333546
0.289848 0.946950 0.336170
0.399158 0.945964 0.339142
0.508394 0.945079 0.342477
0.617640 0.944317 0.346198
0.727001 0.943708 0.350333
0.836615 0.943304 0.354930
0.946691 0.943204 0.360066
0.048197 0.038767 0.540358
0.176650 0.040603 0.522718
0.300637 0.042286 0.510000
0.421781 0.043833 0.499778
0.540827 0.045254 0.491148
0.658209 0.046556 0.483671
0.774216 0.047746 0.477095
0.889057 0.048826 0.471265
1.000000 0.049799 0.466074
0.059310 0.165944 0.496481
0.181587 0.166160 0.488309
0.301697 0.166446 0.481182
0.420057 0.166757 0.474893
0.536960 0.167066 0.469305
0.652623 0.167355 0.464327
0.767215 0.167611 0.459893
0.880873 0.167825 0.455953
0.993712 0.167991 0.452469
0.067606 0.285199 0.472783
0.186370 0.284803 0.467426
0.303695 0.284462 0.462653
0.419783 0.284149 0.458403
0.534794 0.283849 0.454633
0.648861 0.283546 0.451309
0.762094 0.283231 0.448403
0.874592 0.282896 0.445895
0.986440 0.282533 0.443768
0.073485 0.400307 0.456977
0.189740 0.399528 0.453373
0.304939 0.398788 0.450204
0.419206 0.398074 0.447445
0.532647 0.397373 0.445078
0.645355 0.396676 0.443086
0.757415 0.395975 0.441457
0.868900 0.395263 0.440181
0.979882 0.394536 0.439251
0.077117 0.512646 0.446539
0.191429 0.511604 0.444310
0.304932 0.510595 0.442451
0.417717 0.509608 0.440952
0.529862 0.508637 0.439803
0.641440 0.507673 0.438997
0.752521 0.506713 0.438529
0.863168 0.505750 0.438395
0.973444 0.504781 0.438592
0.078586 0.623048 0.440494
0.191335 0.621835 0.439470
0.303460 0.620654 0.438788
0.415030 0.619497 0.438442
0.526114 0.618359 0.438428
0.636773 0.617236 0.438746
0.747070 0.616125 0.439395
0.857065 0.615023 0.440375
0.966818 0.613929 0.441689
0.077924 0.732149 0.438398
0.189397 0.730852 0.438506
0.300395 0.729591 0.438944
0.410981 0.728362 0.439713
0.521217 0.727162 0.440814
0.631162 0.725991 0.442251
0.740878 0.724849 0.444028
0.850429 0.723735 0.446151
0.959882 0.722654 0.448630
0.075116 0.840521 0.440075
0.185548 0.839239 0.441298
0.295641 0.838007 0.442858
0.405457 0.836825 0.444760
0.515056 0.835696 0.447012
0.624507 0.834623 0.449622
0.733880 0.833614 0.452606
0.843257 0.832680 0.455980
0.952731 0.831838 0.459768
0.070101 0.948780 0.445539
0.179704 0.947651 0.447920
0.289104 0.946605 0.450665
0.398370 0.945651 0.453788
0.507580 0.944805 0.457309
0.616822 0.944091 0.461256
0.726209 0.943544 0.465668
0.835893 0.943229 0.470609
0.946121 0.943272 0.476197
0.049473 0.039410 0.662475
0.177028 0.041191 0.644251
0.300566 0.042826 0.630639
0.421420 0.044329 0.619572
0.540254 0.045709 0.610192
0.657472 0.046973 0.602054
0.773346 0.048125 0.594896
0.888077 0.049168 0.588550
1.000000 0.050106 0.582903
0.060265 0.166006 0.615991
0.182116 0.166252 0.607102
0.301905 0.166550 0.599345
0.420011 0.166863 0.592499
0.536707 0.167167 0.586418
0.652199 0.167446 0.581003
0.766647 0.167689 0.576180
0.880184 0.167887 0.571894
0.992918 0.168036 0.568104
0.068306 0.285057 0.590202
0.186781 0.284683 0.584374
0.303867 0.284353 0.579182
0.419753 0.284047 0.574560
0.534592 0.283747 0.570459
0.648510 0.283441 0.566840
0.761617 0.283120 0.563674
0.874005 0.282776 0.560937
0.985758 0.282403 0.558608
0.073952 0.400037 0.573009
0.189989 0.399273 0.569087
0.305000 0.398543 0.565637
0.419103 0.397835 0.562629
0.532401 0.397136 0.560042
0.644986 0.396439 0.557859
0.756938 0.395735 0.556066
0.868331 0.395018 0.554650
0.979233 0.394284 0.553604
0.077362 0.512288 0.561640
0.191501 0.511258 0.559202
0.304853 0.510257 0.557162
0.417503 0.509277 0.555507
0.529531 0.508309 0.554227
0.641007 0.507347 0.553314
0.752000 0.506386 0.552761
0.862573 0.505422 0.552564
0.972787 0.504450 0.552720
0.078616 0.622633 0.554998
0.191224 0.621431 0.553853
0.303224 0.620258 0.553071
0.414686 0.619108 0.552648
0.525674 0.617976 0.552580
0.636252 0.616858 0.552865
0.746481 0.615750 0.553502
0.856421 0.614651 0.554493
0.966133 0.613559 0.555841
0.077738 0.731704 0.552582
0.189096 0.730420 0.552643
0.299993 0.729170 0.553056
0.410492 0.727951 0.553822
0.520654 0.726761 0.554943
0.630538 0.725600 0.556421
0.740208 0.724467 0.558264
0.849727 0.723364 0.560478
0.959165 0.722295 0.563075
0.074712 0.840080 0.554189
0.185051 0.838815 0.555439
0.295064 0.837600 0.557050
0.404813 0.836436 0.559027
0.514361 0.835325 0.561379
0.623776 0.834272 0.564118
0.733132 0.833288 0.567261
0.842511 0.832382 0.570829
0.952014 0.831577 0.574853
0.069468 0.948388 0.559839
0.178998 0.947286 0.562330
0.288341 0.946270 0.565215
0.397566 0.945351 0.568509
0.506753 0.944547 0.572239
0.615996 0.943884 0.576440
0.725417 0.943407 0.581163
0.835187 0.943193 0.586498
0.945605 0.943417 0.592625
0.050709 0.040032 0.783421
0.177463 0.041762 0.764772
0.300562 0.043351 0.750448
0.421122 0.044811 0.738675
0.539740 0.046151 0.728647
0.656788 0.047376 0.719928
0.772524 0.048491 0.712251
0.887141 0.049498 0.705443
1.000000 0.050401 0.699383
0.061193 0.166081 0.734850
0.182638 0.166350 0.725338
0.302115 0.166656 0.717023
0.419973 0.166968 0.709680
0.536467 0.167265 0.703156
0.651789 0.167533 0.697345
0.766095 0.167761 0.692168
0.879510 0.167943 0.687568
0.992142 0.168074 0.683498
0.068981 0.284923 0.707216
0.187177 0.284567 0.700962
0.304030 0.284247 0.695390
0.419718 0.283945 0.690430
0.534388 0.283644 0.686027
0.648161 0.283334 0.682140
0.761142 0.283006 0.678737
0.873422 0.282653 0.675792
0.985083 0.282268 0.673283
0.074396 0.399773 0.688764
0.190221 0.399022 0.684554
0.305047 0.398301 0.680847
0.418990 0.397597 0.677613
0.532149 0.396900 0.674829
0.644612 0.396201 0.672474
0.756458 0.395493 0.670534
0.867760 0.394771 0.668996
0.978585 0.394030 0.667850
0.077586 0.511934 0.676549
0.191556 0.510915 0.673923
0.304758 0.509923 0.671721
0.417277 0.508947 0.669928
0.529190 0.507982 0.668534
0.640566 0.507021 0.667529
0.751473 0.506059 0.666906
0.861973 0.505093 0.666662
0.972128 0.504118 0.666792
0.078624 0.622221 0.669375
0.191094 0.621030 0.668123
0.302973 0.619865 0.667258
0.414327 0.618722 0.666774
0.525222 0.617595 0.666666
0.635721 0.616480 0.666933
0.745883 0.615376 0.667574
0.855771 0.614279 0.668591
0.965444 0.613190 0.669988
0.077531 0.731264 0.666691
0.188776 0.729991 0.666720
0.299574 0.728752 0.667123
0.409988 0.727544 0.667901
0.520077 0.726364 0.669056
0.629904 0.725212 0.670592
0.739529 0.724089 0.672516
0.849020 0.722997 0.674838
0.958447 0.721941 0.677571
0.074285 0.839645 0.668277
0.184533 0.838397 0.669570
0.294468 0.837199 0.671247
0.404154 0.836052 0.673315
0.513653 0.834960 0.675785
0.623035 0.833930 0.678671
0.732376 0.832970 0.681994
0.841762 0.832096 0.685780
0.951301 0.831331 0.690069
0.068811 0.948005 0.674167
0.178271 0.946931 0.676786
0.287558 0.945946 0.679829
0.396744 0.945064 0.683317
0.505913 0.944304 0.687281
0.615164 0.943698 0.691765
0.724628 0.943299 0.696840
0.834501 0.943206 0.702629
0.945169 0.943668 0.709420
0.051909 0.040636 0.903389
0.177938 0.042316 0.884422
0.300610 0.043860 0.869522
0.420877 0.045279 0.857152
0.539275 0.046580 0.846563
0.656150 0.047767 0.837332
0.771745 0.048845 0.829193
0.886245 0.049817 0.821969
0.999794 0.050685 0.815536
0.062094 0.166165 0.853118
0.183151 0.166452 0.843062
0.302326 0.166763 0.834253
0.419943 0.167072 0.826464
0.536237 0.167360 0.819541
0.651392 0.167615 0.813371
0.765556 0.167829 0.807875
0.878851 0.167994 0.802988
0.991380 0.168105 0.798664
0.069632 0.284797 0.823850
0.187558 0.284456 0.817212
0.304183 0.284144 0.811296
0.419678 0.283843 0.806028
0.534182 0.283540 0.801351
0.647812 0.283225 0.797221
0.760669 0.282889 0.793604
0.872843 0.282526 0.790472
0.984413 0.282130 0.787801
0.074817 0.399513 0.804259
0.190435 0.398775 0.799786
0.305082 0.398061 0.795847
0.418868 0.397360 0.792409
0.531889 0.396663 0.789447
0.644233 0.395962 0.786940
0.755975 0.395250 0.784871
0.867188 0.394522 0.783226
0.977937 0.393774 0.781997
0.077788 0.511585 0.791277
0.191592 0.510576 0.788482
0.304648 0.509590 0.786136
0.417039 0.508619 0.784223
0.528838 0.507655 0.782731
0.640117 0.506695 0.781650
0.750940 0.505732 0.780974
0.861369 0.504763 0.780697
0.971466 0.503785 0.780816
0.078610 0.621813 0.783632
0.190946 0.620632 0.782291
0.302704 0.619475 0.781358
0.413954 0.618338 0.780827
0.524758 0.617215 0.780694
0.635180 0.616104 0.780958
0.745278 0.615003 0.781618
0.855115 0.613909 0.782676
0.964751 0.612821 0.784137
0.077302 0.730828 0.780733
0.188436 0.729567 0.780744
0.299138 0.728339 0.781152
0.409468 0.727140 0.781957
0.519488 0.725970 0.783161
0.629259 0.724827 0.784770
0.738843 0.723715 0.786792
0.848308 0.722634 0.789239
0.957726 0.721591 0.792127
0.073835 0.839216 0.782348
0.183994 0.837985 0.783699
0.293854 0.836803 0.785458
0.403478 0.835675 0.787633
0.512931 0.834603 0.790238
0.622283 0.833596 0.793291
0.731613 0.832663 0.796816
0.841012 0.831823 0.800845
0.950594 0.831101 0.805429
0.068130 0.947631 0.788531
0.177522 0.946586 0.791297
0.286756 0.945634 0.794518
0.395907 0.944791 0.798222
0.505061 0.944079 0.802447
0.614325 0.943536 0.807249
0.723843 0.943225 0.812722
0.833845 0.943278 0.819041
0.944872 0.944089 0.826710
0.053073 0.041223 1.000000
0.178439 0.042855 1.000000
0.300699 0.044356 0.987935
0.420676 0.045734 0.975058
0.538853 0.046995 0.963982
0.655552 0.048145 0.954298
0.771004 0.049187 0.945747
0.885385 0.050123 0.938149
0.998833 0.050956 0.931380
0.062968 0.166257 0.970843
0.183654 0.166556 0.960311
0.302537 0.166869 0.951065
0.419917 0.167172 0.942878
0.536015 0.167451 0.935594
0.651005 0.167693 0.929101
0.765030 0.167890 0.923315
0.878205 0.168038 0.918169
0.990633 0.168130 0.913616
0.070259 0.284676 0.940128
0.187923 0.284347 0.933144
0.304327 0.284041 0.926917
0.419632 0.283741 0.921370
0.533973 0.283435 0.916445
0.647463 0.283114 0.912096
0.760198 0.282769 0.908287
0.872268 0.282395 0.904987
0.983748 0.281987 0.902173
0.075216 0.399259 0.919508
0.190632 0.398530 0.914797
0.305102 0.397822 0.910649
0.418734 0.397123 0.907028
0.531621 0.396425 0.903907
0.643848 0.395721 0.901265
0.755488 0.395005 0.899084
0.866614 0.394270 0.897350
0.977290 0.393514 0.896052
0.077968 0.511239 0.905835
0.191609 0.510239 0.902891
0.304522 0.509259 0.900418
0.416787 0.508291 0.898402
0.528477 0.507329 0.896828
0.639659 0.506368 0.895687
0.750400 0.505404 0.894971
0.860761 0.504432 0.894676
0.970802 0.503450 0.894799
0.078575 0.621409 0.897778
0.190778 0.620236 0.896363
0.302420 0.619087 0.895377
0.413567 0.617955 0.894815
0.524282 0.616837 0.894672
0.634628 0.615729 0.894947
0.744665 0.614630 0.895640
0.854454 0.613539 0.896755
0.964055 0.612454 0.898295
0.077051 0.730396 0.894715
0.188077 0.729146 0.894724
0.298684 0.727928 0.895151
0.408933 0.726739 0.895997
0.518886 0.725578 0.897266
0.628603 0.724446 0.898964
0.738148 0.723344 0.901101
0.847590 0.722276 0.903690
0.957003 0.721246 0.906752
0.073362 0.838792 0.896410
0.183435 0.837578 0.897834
0.293222 0.836414 0.899690
0.402787 0.835304 0.901990
0.512196 0.834253 0.904749
0.621521 0.833270 0.907989
0.730844 0.832366 0.911738
0.840261 0.831563 0.916038
0.949896 0.830890 0.920952
0.067424 0.947266 0.902941
0.176750 0.946252 0.905872
0.285934 0.945335 0.909293
0.395053 0.944533 0.913237
0.504197 0.943873 0.917752
0.613481 0.943400 0.922911
0.723066 0.943193 0.928837
0.833232 0.943428 0.935790
0.945000 0.945000 0.945000
