mini_run_pipeline/luts/vintage_film_emulation.cube
TITLE "Vintage 1970s Warm 35mm Stock Emulation"
LUT_3D_SIZE 33
DOMAIN_MIN 0.0 0.0 0.0
DOMAIN_MAX 1.0 1.0 1.0
0.042525 0.035910 0.026460
0.078092 0.036495 0.024983
0.111607 0.037037 0.023613
0.144340 0.037559 0.022294
0.176556 0.038065 0.021016
0.208377 0.038557 0.019773
0.239880 0.039037 0.018560
0.271112 0.039506 0.017376
0.302108 0.039964 0.016219
0.332897 0.040412 0.015088
0.363498 0.040850 0.013981
0.393928 0.041279 0.012897
0.424201 0.041699 0.011837
0.454329 0.042110 0.010798
0.484321 0.042513 0.009781
0.514188 0.042907 0.008786
0.543935 0.043293 0.007810
0.573570 0.043671 0.006856
0.603099 0.044041 0.005921
0.632527 0.044404 0.005005
0.661859 0.044758 0.004109
0.691099 0.045106 0.003232
0.720252 0.045445 0.002374
0.749321 0.045778 0.001534
0.778310 0.046103 0.000713
0.807222 0.046421 0.000000
0.836060 0.046732 0.000000
0.864827 0.047035 0.000000
0.893524 0.047332 0.000000
0.922156 0.047622 0.000000
0.950724 0.047905 0.000000
0.979230 0.048181 0.000000
1.000000 0.048451 0.000000
0.046168 0.070669 0.021825
0.079476 0.070796 0.020560
0.112168 0.070987 0.019328
0.144394 0.071215 0.018126
0.176246 0.071467 0.016952
0.207786 0.071735 0.015805
0.239057 0.072014 0.014682
0.270094 0.072299 0.013584
0.300920 0.072589 0.012509
0.331557 0.072880 0.011456
0.362022 0.073172 0.010426
0.392328 0.073464 0.009416
0.422486 0.073754 0.008428
0.452508 0.074043 0.007460
0.482402 0.074329 0.006513
0.512175 0.074612 0.005585
0.541834 0.074891 0.004677
0.571386 0.075167 0.003788
0.600837 0.075439 0.002918
0.630190 0.075707 0.002066
0.659451 0.075971 0.001233
0.688623 0.076230 0.000419
0.717711 0.076484 0.000000
0.746718 0.076734 0.000000
0.775647 0.076979 0.000000
0.804502 0.077219 0.000000
0.833285 0.077454 0.000000
0.861999 0.077684 0.000000
0.890646 0.077909 0.000000
0.919229 0.078129 0.000000
0.947750 0.078343 0.000000
0.976211 0.078553 0.000000
1.000000 0.078757 0.000000
0.049414 0.103229 0.017696
0.081821 0.103286 0.016531
0.113854 0.103380 0.015393
0.145569 0.103502 0.014280
0.177009 0.103645 0.013190
0.208205 0.103803 0.012123
0.239184 0.103973 0.011078
0.269966 0.104153 0.010056
0.300568 0.104339 0.009054
0.331004 0.104530 0.008073
0.361287 0.104725 0.007113
0.391428 0.104923 0.006173
0.421435 0.105122 0.005252
0.451317 0.105322 0.004351
0.481081 0.105521 0.003469
0.510734 0.105721 0.002606
0.540280 0.105919 0.001761
0.569726 0.106116 0.000935
0.599076 0.106311 0.000127
0.628334 0.106503 0.000000
0.657505 0.106694 0.000000
0.686593 0.106881 0.000000
0.715600 0.107066 0.000000
0.744530 0.107247 0.000000
0.773386 0.107426 0.000000
0.802170 0.107600 0.000000
0.830886 0.107772 0.000000
0.859536 0.107939 0.000000
0.888122 0.108103 0.000000
0.916646 0.108263 0.000000
0.945111 0.108419 0.000000
0.973518 0.108570 0.000000
1.000000 0.108718 0.000000
0.052413 0.134883 0.013880
0.084227 0.134892 0.012799
0.115769 0.134927 0.011740
0.147069 0.134983 0.010704
0.178150 0.135055 0.009689
0.209033 0.135141 0.008695
0.239734 0.135237 0.007722
0.270267 0.135343 0.006768
0.300644 0.135455 0.005835
0.330875 0.135574 0.004922
0.360971 0.135696 0.004028
0.390939 0.135823 0.003152
0.420786 0.135951 0.002296
0.450519 0.136082 0.001458
0.480143 0.136214 0.000638
0.509665 0.136347 0.000000
0.539089 0.136479 0.000000
0.568419 0.136612 0.000000
0.597660 0.136744 0.000000
0.626815 0.136874 0.000000
0.655889 0.137004 0.000000
0.684883 0.137131 0.000000
0.713801 0.137257 0.000000
0.742647 0.137381 0.000000
0.771423 0.137502 0.000000
0.800130 0.137621 0.000000
0.828773 0.137738 0.000000
0.857353 0.137851 0.000000
0.885871 0.137962 0.000000
0.914331 0.138069 0.000000
0.942734 0.138174 0.000000
0.971083 0.138275 0.000000
0.999377 0.138373 0.000000
0.055202 0.165911 0.010332
0.086567 0.165882 0.009324
0.117716 0.165871 0.008338
0.148668 0.165877 0.007372
0.179439 0.165897 0.006427
0.210042 0.165928 0.005501
0.240489 0.165968 0.004594
0.270790 0.166017 0.003707
0.300954 0.166072 0.002838
0.330989 0.166133 0.001989
0.360902 0.166198 0.001157
0.390700 0.166267 0.000345
0.420388 0.166339 0.000000
0.449972 0.166413 0.000000
0.479457 0.166489 0.000000
0.508847 0.166567 0.000000
0.538146 0.166645 0.000000
0.567359 0.166723 0.000000
0.596488 0.166801 0.000000
0.625537 0.166879 0.000000
0.654509 0.166957 0.000000
0.683407 0.167033 0.000000
0.712234 0.167108 0.000000
0.740992 0.167182 0.000000
0.769684 0.167254 0.000000
0.798311 0.167325 0.000000
0.826878 0.167393 0.000000
0.855384 0.167459 0.000000
0.883833 0.167523 0.000000
0.912225 0.167585 0.000000
0.940564 0.167644 0.000000
0.968851 0.167700 0.000000
0.997086 0.167754 0.000000
0.057801 0.196453 0.007026
0.088799 0.196390 0.006087
0.119619 0.196342 0.005168
0.150273 0.196307 0.004269
0.180771 0.196284 0.003388
0.211124 0.196270 0.002527
0.241341 0.196265 0.001684
0.271428 0.196267 0.000859
0.301393 0.196275 0.000053
0.331242 0.196288 0.000000
0.360982 0.196306 0.000000
0.390616 0.196327 0.000000
0.420151 0.196351 0.000000
0.449590 0.196378 0.000000
0.478938 0.196406 0.000000
0.508198 0.196437 0.000000
0.537374 0.196468 0.000000
0.566470 0.196500 0.000000
0.595487 0.196532 0.000000
0.624430 0.196564 0.000000
0.653301 0.196597 0.000000
0.682103 0.196628 0.000000
0.710837 0.196659 0.000000
0.739507 0.196689 0.000000
0.768114 0.196718 0.000000
0.796661 0.196746 0.000000
0.825150 0.196772 0.000000
0.853582 0.196796 0.000000
0.881959 0.196818 0.000000
0.910284 0.196839 0.000000
0.938557 0.196857 0.000000
0.966781 0.196873 0.000000
0.994956 0.196887 0.000000
0.060221 0.226593 0.003946
0.090910 0.226500 0.003073
0.121445 0.226420 0.002218
0.151836 0.226350 0.001382
0.182092 0.226291 0.000564
0.212219 0.226239 0.000000
0.242224 0.226195 0.000000
0.272115 0.226157 0.000000
0.301895 0.226125 0.000000
0.331570 0.226098 0.000000
0.361145 0.226074 0.000000
0.390625 0.226054 0.000000
0.420013 0.226037 0.000000
0.449313 0.226023 0.000000
0.478528 0.226011 0.000000
0.507663 0.226000 0.000000
0.536719 0.225990 0.000000
0.565700 0.225982 0.000000
0.594609 0.225974 0.000000
0.623447 0.225966 0.000000
0.652219 0.225958 0.000000
0.680925 0.225950 0.000000
0.709568 0.225942 0.000000
0.738150 0.225933 0.000000
0.766674 0.225923 0.000000
0.795140 0.225913 0.000000
0.823551 0.225901 0.000000
0.851909 0.225887 0.000000
0.880216 0.225873 0.000000
0.908472 0.225856 0.000000
0.936680 0.225838 0.000000
0.964840 0.225818 0.000000
0.992955 0.225796 0.000000
0.062472 0.256389 0.001082
0.092891 0.256270 0.000270
0.123175 0.256161 0.000000
0.153332 0.256061 0.000000
0.183368 0.255969 0.000000
0.213289 0.255885 0.000000
0.243102 0.255807 0.000000
0.272809 0.255735 0.000000
0.302417 0.255667 0.000000
0.331929 0.255605 0.000000
0.361350 0.255545 0.000000
0.390683 0.255490 0.000000
0.419931 0.255437 0.000000
0.449098 0.255386 0.000000
0.478187 0.255337 0.000000
0.507200 0.255291 0.000000
0.536140 0.255245 0.000000
0.565011 0.255200 0.000000
0.593813 0.255156 0.000000
0.622551 0.255113 0.000000
0.651225 0.255070 0.000000
0.679838 0.255027 0.000000
0.708391 0.254983 0.000000
0.736888 0.254940 0.000000
0.765329 0.254895 0.000000
0.793716 0.254850 0.000000
0.822051 0.254804 0.000000
0.850336 0.254757 0.000000
0.878572 0.254709 0.000000
0.906761 0.254659 0.000000
0.934904 0.254608 0.000000
0.963002 0.254555 0.000000
0.991058 0.254501 0.000000
0.064562 0.285886 0.000000
0.094740 0.285742 0.000000
0.124798 0.285607 0.000000
0.154743 0.285480 0.000000
0.184580 0.285360 0.000000
0.214313 0.285246 0.000000
0.243946 0.285139 0.000000
0.273485 0.285036 0.000000
0.302932 0.284937 0.000000
0.332291 0.284843 0.000000
0.361566 0.284752 0.000000
0.390759 0.284665 0.000000
0.419875 0.284580 0.000000
0.448915 0.284497 0.000000
0.477882 0.284416 0.000000
0.506780 0.284337 0.000000
0.535609 0.284259 0.000000
0.564373 0.284182 0.000000
0.593073 0.284106 0.000000
0.621712 0.284031 0.000000
0.650292 0.283956 0.000000
0.678814 0.283881 0.000000
0.707281 0.283806 0.000000
0.735694 0.283731 0.000000
0.764054 0.283656 0.000000
0.792364 0.283579 0.000000
0.820625 0.283503 0.000000
0.848839 0.283425 0.000000
0.877006 0.283346 0.000000
0.905129 0.283266 0.000000
0.933208 0.283185 0.000000
0.961246 0.283103 0.000000
0.989242 0.283019 0.000000
0.066494 0.315117 0.000000
0.096456 0.314951 0.000000
0.126310 0.314792 0.000000
0.156061 0.314640 0.000000
0.185714 0.314494 0.000000
0.215273 0.314355 0.000000
0.244741 0.314220 0.000000
0.274121 0.314090 0.000000
0.303417 0.313964 0.000000
0.332633 0.313841 0.000000
0.361770 0.313722 0.000000
0.390832 0.313606 0.000000
0.419822 0.313492 0.000000
0.448741 0.313380 0.000000
0.477593 0.313271 0.000000
0.506379 0.313163 0.000000
0.535102 0.313056 0.000000
0.563763 0.312950 0.000000
0.592365 0.312845 0.000000
0.620910 0.312741 0.000000
0.649399 0.312637 0.000000
0.677833 0.312534 0.000000
0.706216 0.312430 0.000000
0.734548 0.312327 0.000000
0.762830 0.312223 0.000000
0.791065 0.312119 0.000000
0.819254 0.312014 0.000000
0.847398 0.311908 0.000000
0.875498 0.311802 0.000000
0.903556 0.311695 0.000000
0.931574 0.311586 0.000000
0.959552 0.311477 0.000000
0.987491 0.311366 0.000000
0.068273 0.344109 0.000000
0.098038 0.343922 0.000000
0.127705 0.343742 0.000000
0.157279 0.343567 0.000000
0.186762 0.343399 0.000000
0.216159 0.343235 0.000000
0.245472 0.343076 0.000000
0.274704 0.342921 0.000000
0.303859 0.342770 0.000000
0.332939 0.342622 0.000000
0.361947 0.342478 0.000000
0.390885 0.342335 0.000000
0.419755 0.342196 0.000000
0.448559 0.342058 0.000000
0.477301 0.341922 0.000000
0.505981 0.341788 0.000000
0.534601 0.341655 0.000000
0.563164 0.341523 0.000000
0.591672 0.341392 0.000000
0.620125 0.341262 0.000000
0.648527 0.341132 0.000000
0.676877 0.341002 0.000000
0.705178 0.340873 0.000000
0.733432 0.340743 0.000000
0.761639 0.340614 0.000000
0.789801 0.340484 0.000000
0.817920 0.340354 0.000000
0.845997 0.340223 0.000000
0.874032 0.340091 0.000000
0.902028 0.339959 0.000000
0.929986 0.339826 0.000000
0.957906 0.339692 0.000000
0.985790 0.339556 0.000000
0.069904 0.372886 0.000000
0.099488 0.372679 0.000000
0.128982 0.372479 0.000000
0.158391 0.372284 0.000000
0.187716 0.372094 0.000000
0.216962 0.371909 0.000000
0.246130 0.371728 0.000000
0.275224 0.371551 0.000000
0.304246 0.371377 0.000000
0.333198 0.371206 0.000000
0.362083 0.371038 0.000000
0.390903 0.370873 0.000000
0.419659 0.370709 0.000000
0.448355 0.370548 0.000000
0.476991 0.370389 0.000000
0.505570 0.370231 0.000000
0.534093 0.370074 0.000000
0.562562 0.369918 0.000000
0.590979 0.369763 0.000000
0.619345 0.369609 0.000000
0.647662 0.369456 0.000000
0.675931 0.369302 0.000000
0.704154 0.369149 0.000000
0.732332 0.368997 0.000000
0.760467 0.368844 0.000000
0.788559 0.368691 0.000000
0.816611 0.368537 0.000000
0.844623 0.368383 0.000000
0.872596 0.368229 0.000000
0.900532 0.368074 0.000000
0.928431 0.367918 0.000000
0.956296 0.367761 0.000000
0.984127 0.367604 0.000000
0.071389 0.401466 0.000000
0.100805 0.401242 0.000000
0.130139 0.401023 0.000000
0.159394 0.400809 0.000000
0.188573 0.400600 0.000000
0.217677 0.400395 0.000000
0.246709 0.400194 0.000000
0.275673 0.399996 0.000000
0.304569 0.399802 0.000000
0.333401 0.399610 0.000000
0.362169 0.399421 0.000000
0.390877 0.399234 0.000000
0.419525 0.399050 0.000000
0.448117 0.398867 0.000000
0.476653 0.398686 0.000000
0.505135 0.398506 0.000000
0.533565 0.398328 0.000000
0.561944 0.398151 0.000000
0.590274 0.397974 0.000000
0.618557 0.397798 0.000000
0.646793 0.397623 0.000000
0.674984 0.397449 0.000000
0.703132 0.397274 0.000000
0.731238 0.397100 0.000000
0.759303 0.396926 0.000000
0.787328 0.396752 0.000000
0.815315 0.396577 0.000000
0.843264 0.396402 0.000000
0.871177 0.396227 0.000000
0.899055 0.396051 0.000000
0.926899 0.395875 0.000000
0.954711 0.395698 0.000000
0.982490 0.395520 0.000000
0.072730 0.429867 0.000000
0.101991 0.429626 0.000000
0.131176 0.429390 0.000000
0.160287 0.429159 0.000000
0.189327 0.428932 0.000000
0.218299 0.428709 0.000000
0.247203 0.428490 0.000000
0.276044 0.428274 0.000000
0.304821 0.428060 0.000000
0.333538 0.427849 0.000000
0.362197 0.427641 0.000000
0.390798 0.427435 0.000000
0.419344 0.427231 0.000000
0.447836 0.427029 0.000000
0.476277 0.426828 0.000000
0.504666 0.426629 0.000000
0.533007 0.426431 0.000000
0.561301 0.426234 0.000000
0.589548 0.426038 0.000000
0.617750 0.425843 0.000000
0.645909 0.425648 0.000000
0.674026 0.425454 0.000000
0.702102 0.425260 0.000000
0.730139 0.425067 0.000000
0.758137 0.424873 0.000000
0.786097 0.424680 0.000000
0.814022 0.424486 0.000000
0.841911 0.424292 0.000000
0.869767 0.424098 0.000000
0.897590 0.423903 0.000000
0.925381 0.423708 0.000000
0.953141 0.423513 0.000000
0.980872 0.423316 0.000000
0.073930 0.458103 0.000000
0.103046 0.457848 0.000000
0.132091 0.457596 0.000000
0.161067 0.457349 0.000000
0.189978 0.457106 0.000000
0.218824 0.456867 0.000000
0.247608 0.456630 0.000000
0.276332 0.456397 0.000000
0.304997 0.456167 0.000000
0.333606 0.455939 0.000000
0.362159 0.455713 0.000000
0.390660 0.455489 0.000000
0.419108 0.455268 0.000000
0.447506 0.455048 0.000000
0.475855 0.454829 0.000000
0.504157 0.454612 0.000000
0.532413 0.454396 0.000000
0.560624 0.454182 0.000000
0.588792 0.453968 0.000000
0.616918 0.453755 0.000000
0.645004 0.453542 0.000000
0.673049 0.453331 0.000000
0.701056 0.453119 0.000000
0.729026 0.452908 0.000000
0.756960 0.452697 0.000000
0.784859 0.452486 0.000000
0.812724 0.452275 0.000000
0.840557 0.452064 0.000000
0.868358 0.451853 0.000000
0.896128 0.451641 0.000000
0.923868 0.451430 0.000000
0.951580 0.451217 0.000000
0.979264 0.451004 0.000000
0.074991 0.486189 0.000000
0.103970 0.485920 0.000000
0.132884 0.485654 0.000000
0.161733 0.485393 0.000000
0.190521 0.485135 0.000000
0.219250 0.484880 0.000000
0.247920 0.484629 0.000000
0.276533 0.484380 0.000000
0.305092 0.484134 0.000000
0.333598 0.483890 0.000000
0.362052 0.483648 0.000000
0.390456 0.483409 0.000000
0.418812 0.483171 0.000000
0.447120 0.482935 0.000000
0.475382 0.482701 0.000000
0.503600 0.482468 0.000000
0.531775 0.482236 0.000000
0.559908 0.482005 0.000000
0.588001 0.481775 0.000000
0.616053 0.481546 0.000000
0.644068 0.481317 0.000000
0.672045 0.481089 0.000000
0.699987 0.480862 0.000000
0.727894 0.480635 0.000000
0.755767 0.480408 0.000000
0.783607 0.480182 0.000000
0.811415 0.479955 0.000000
0.839193 0.479729 0.000000
0.866942 0.479503 0.000000
0.894662 0.479276 0.000000
0.922354 0.479049 0.000000
0.950019 0.478822 0.000000
0.977659 0.478594 0.000000
0.075914 0.514136 0.000000
0.104765 0.513854 0.000000
0.133555 0.513576 0.000000
0.162285 0.513301 0.000000
0.190957 0.513030 0.000000
0.219573 0.512762 0.000000
0.248135 0.512496 0.000000
0.276645 0.512233 0.000000
0.305102 0.511973 0.000000
0.333510 0.511715 0.000000
0.361870 0.511459 0.000000
0.390183 0.511205 0.000000
0.418450 0.510953 0.000000
0.446673 0.510703 0.000000
0.474852 0.510454 0.000000
0.502990 0.510206 0.000000
0.531088 0.509960 0.000000
0.559146 0.509714 0.000000
0.587166 0.509470 0.000000
0.615150 0.509226 0.000000
0.643097 0.508984 0.000000
0.671009 0.508742 0.000000
0.698888 0.508500 0.000000
0.726735 0.508259 0.000000
0.754549 0.508018 0.000000
0.782334 0.507778 0.000000
0.810088 0.507537 0.000000
0.837815 0.507297 0.000000
0.865514 0.507057 0.000000
0.893186 0.506817 0.000000
0.920833 0.506577 0.000000
0.948455 0.506336 0.000000
0.976053 0.506096 0.000000
0.076700 0.541957 0.000000
0.105430 0.541663 0.000000
0.134103 0.541373 0.000000
0.162720 0.541087 0.000000
0.191283 0.540803 0.000000
0.219794 0.540522 0.000000
0.248253 0.540244 0.000000
0.276663 0.539969 0.000000
0.305025 0.539696 0.000000
0.333340 0.539425 0.000000
0.361610 0.539156 0.000000
0.389835 0.538890 0.000000
0.418018 0.538625 0.000000
0.446160 0.538361 0.000000
0.474261 0.538099 0.000000
0.502323 0.537839 0.000000
0.530346 0.537579 0.000000
0.558334 0.537321 0.000000
0.586285 0.537064 0.000000
0.614202 0.536807 0.000000
0.642085 0.536552 0.000000
0.669936 0.536297 0.000000
0.697755 0.536043 0.000000
0.725544 0.535789 0.000000
0.753304 0.535536 0.000000
0.781035 0.535283 0.000000
0.808739 0.535031 0.000000
0.836416 0.534779 0.000000
0.864068 0.534527 0.000000
0.891696 0.534275 0.000000
0.919300 0.534023 0.000000
0.946881 0.533771 0.000000
0.974441 0.533519 0.000000
0.077351 0.569661 0.000000
0.105967 0.569357 0.000000
0.134529 0.569056 0.000000
0.163039 0.568759 0.000000
0.191498 0.568464 0.000000
0.219908 0.568173 0.000000
0.248271 0.567884 0.000000
0.276586 0.567597 0.000000
0.304857 0.567313 0.000000
0.333084 0.567030 0.000000
0.361268 0.566750 0.000000
0.389411 0.566472 0.000000
0.417514 0.566195 0.000000
0.445577 0.565920 0.000000
0.473603 0.565647 0.000000
0.501593 0.565375 0.000000
0.529547 0.565104 0.000000
0.557466 0.564835 0.000000
0.585352 0.564566 0.000000
0.613206 0.564298 0.000000
0.641028 0.564032 0.000000
0.668820 0.563766 0.000000
0.696583 0.563501 0.000000
0.724318 0.563236 0.000000
0.752025 0.562972 0.000000
0.779706 0.562709 0.000000
0.807362 0.562446 0.000000
0.834993 0.562183 0.000000
0.862601 0.561921 0.000000
0.890187 0.561659 0.000000
0.917751 0.561397 0.000000
0.945294 0.561135 0.000000
0.972818 0.560874 0.000000
0.077868 0.597259 0.000000
0.106375 0.596946 0.000000
0.134832 0.596636 0.000000
0.163241 0.596329 0.000000
0.191601 0.596024 0.000000
0.219916 0.595723 0.000000
0.248186 0.595424 0.000000
0.276412 0.595127 0.000000
0.304596 0.594833 0.000000
0.332739 0.594541 0.000000
0.360842 0.594250 0.000000
0.388906 0.593962 0.000000
0.416932 0.593675 0.000000
0.444922 0.593390 0.000000
0.472877 0.593107 0.000000
0.500797 0.592825 0.000000
0.528684 0.592544 0.000000
0.556539 0.592265 0.000000
0.584363 0.591986 0.000000
0.612157 0.591709 0.000000
0.639922 0.591433 0.000000
0.667658 0.591157 0.000000
0.695368 0.590883 0.000000
0.723051 0.590609 0.000000
0.750709 0.590336 0.000000
0.778343 0.590064 0.000000
0.805954 0.589792 0.000000
0.833542 0.589520 0.000000
0.861109 0.589250 0.000000
0.888655 0.588979 0.000000
0.916182 0.588709 0.000000
0.943691 0.588439 0.000000
0.971181 0.588170 0.000000
0.078250 0.624760 0.000000
0.106655 0.624439 0.000000
0.135013 0.624120 0.000000
0.163324 0.623805 0.000000
0.191592 0.623492 0.000000
0.219816 0.623182 0.000000
0.247998 0.622874 0.000000
0.276139 0.622569 0.000000
0.304240 0.622266 0.000000
0.332303 0.621965 0.000000
0.360328 0.621666 0.000000
0.388317 0.621369 0.000000
0.416271 0.621074 0.000000
0.444191 0.620781 0.000000
0.472078 0.620488 0.000000
0.499933 0.620198 0.000000
0.527757 0.619909 0.000000
0.555551 0.619621 0.000000
0.583316 0.619334 0.000000
0.611053 0.619049 0.000000
0.638763 0.618765 0.000000
0.666447 0.618481 0.000000
0.694106 0.618199 0.000000
0.721741 0.617918 0.000000
0.749353 0.617637 0.000000
0.776943 0.617357 0.000000
0.804511 0.617078 0.000000
0.832059 0.616800 0.000000
0.859588 0.616522 0.000000
0.887098 0.616245 0.000000
0.914591 0.615969 0.000000
0.942067 0.615693 0.000000
0.969528 0.615417 0.000000
0.078499 0.652174 0.000000
0.106806 0.651845 0.000000
0.135070 0.651520 0.000000
0.163290 0.651197 0.000000
0.191468 0.650877 0.000000
0.219606 0.650560 0.000000
0.247704 0.650245 0.000000
0.275764 0.649932 0.000000
0.303787 0.649622 0.000000
0.331774 0.649314 0.000000
0.359726 0.649007 0.000000
0.387644 0.648703 0.000000
0.415529 0.648401 0.000000
0.443382 0.648100 0.000000
0.471205 0.647801 0.000000
0.498997 0.647503 0.000000
0.526761 0.647207 0.000000
0.554497 0.646913 0.000000
0.582207 0.646619 0.000000
0.609890 0.646327 0.000000
0.637549 0.646037 0.000000
0.665183 0.645747 0.000000
0.692795 0.645459 0.000000
0.720385 0.645171 0.000000
0.747954 0.644885 0.000000
0.775502 0.644599 0.000000
0.803031 0.644315 0.000000
0.830542 0.644031 0.000000
0.858036 0.643749 0.000000
0.885513 0.643467 0.000000
0.912975 0.643186 0.000000
0.940423 0.642906 0.000000
0.967856 0.642626 0.000000
0.078615 0.679508 0.000000
0.106830 0.679174 0.000000
0.135003 0.678843 0.000000
0.163136 0.678514 0.000000
0.191230 0.678188 0.000000
0.219286 0.677865 0.000000
0.247305 0.677544 0.000000
0.275288 0.677225 0.000000
0.303236 0.676909 0.000000
0.331150 0.676595 0.000000
0.359032 0.676283 0.000000
0.386883 0.675972 0.000000
0.414702 0.675664 0.000000
0.442492 0.675358 0.000000
0.470254 0.675053 0.000000
0.497988 0.674750 0.000000
0.525695 0.674449 0.000000
0.553376 0.674149 0.000000
0.581033 0.673851 0.000000
0.608666 0.673554 0.000000
0.636277 0.673258 0.000000
0.663865 0.672964 0.000000
0.691433 0.672671 0.000000
0.718980 0.672380 0.000000
0.746509 0.672089 0.000000
0.774019 0.671800 0.000000
0.801512 0.671512 0.000000
0.828989 0.671225 0.000000
0.856451 0.670939 0.000000
0.883899 0.670655 0.000000
0.911333 0.670371 0.000000
0.938755 0.670089 0.000000
0.966165 0.669807 0.000000
0.078598 0.706773 0.000000
0.106725 0.706434 0.000000
0.134812 0.706098 0.000000
0.162863 0.705764 0.000000
0.190876 0.705434 0.000000
0.218854 0.705106 0.000000
0.246797 0.704780 0.000000
0.274707 0.704457 0.000000
0.302584 0.704136 0.000000
0.330430 0.703817 0.000000
0.358246 0.703501 0.000000
0.386032 0.703186 0.000000
0.413789 0.702874 0.000000
0.441520 0.702563 0.000000
0.469223 0.702255 0.000000
0.496902 0.701948 0.000000
0.524555 0.701643 0.000000
0.552186 0.701339 0.000000
0.579793 0.701038 0.000000
0.607379 0.700737 0.000000
0.634944 0.700439 0.000000
0.662489 0.700142 0.000000
0.690016 0.699846 0.000000
0.717524 0.699553 0.000000
0.745016 0.699260 0.000000
0.772492 0.698969 0.000000
0.799952 0.698679 0.000000
0.827398 0.698391 0.000000
0.854832 0.698104 0.000000
0.882253 0.697819 0.000000
0.909663 0.697535 0.000000
0.937062 0.697253 0.000000
0.964453 0.696972 0.000000
0.078448 0.733976 0.000000
0.106491 0.733633 0.000000
0.134497 0.733294 0.000000
0.162469 0.732957 0.000000
0.190405 0.732623 0.000000
0.218309 0.732292 0.000000
0.246181 0.731963 0.000000
0.274021 0.731636 0.000000
0.301831 0.731312 0.000000
0.329612 0.730991 0.000000
0.357364 0.730671 0.000000
0.385089 0.730354 0.000000
0.412788 0.730039 0.000000
0.440462 0.729726 0.000000
0.468112 0.729415 0.000000
0.495738 0.729106 0.000000
0.523341 0.728799 0.000000
0.550923 0.728493 0.000000
0.578484 0.728190 0.000000
0.606026 0.727888 0.000000
0.633549 0.727589 0.000000
0.661055 0.727291 0.000000
0.688544 0.726995 0.000000
0.716016 0.726700 0.000000
0.743474 0.726408 0.000000
0.770918 0.726117 0.000000
0.798350 0.725828 0.000000
0.825769 0.725540 0.000000
0.853177 0.725255 0.000000
0.880575 0.724971 0.000000
0.907964 0.724689 0.000000
0.935346 0.724409 0.000000
0.962720 0.724131 0.000000
0.078164 0.761126 0.000000
0.106128 0.760781 0.000000
0.134057 0.760439 0.000000
0.161953 0.760101 0.000000
0.189817 0.759765 0.000000
0.217651 0.759431 0.000000
0.245454 0.759100 0.000000
0.273228 0.758772 0.000000
0.300974 0.758447 0.000000
0.328693 0.758124 0.000000
0.356386 0.757803 0.000000
0.384054 0.757484 0.000000
0.411698 0.757168 0.000000
0.439318 0.756854 0.000000
0.466916 0.756543 0.000000
0.494493 0.756233 0.000000
0.522050 0.755926 0.000000
0.549587 0.755621 0.000000
0.577106 0.755318 0.000000
0.604607 0.755017 0.000000
0.632091 0.754718 0.000000
0.659560 0.754421 0.000000
0.687014 0.754126 0.000000
0.714455 0.753834 0.000000
0.741882 0.753543 0.000000
0.769298 0.753255 0.000000
0.796704 0.752969 0.000000
0.824099 0.752685 0.000000
0.851486 0.752403 0.000000
0.878866 0.752123 0.000000
0.906238 0.751846 0.000000
0.933606 0.751571 0.000000
0.960968 0.751298 0.000000
0.077748 0.788231 0.000000
0.105635 0.787886 0.000000
0.133491 0.787543 0.000000
0.161316 0.787204 0.000000
0.189111 0.786867 0.000000
0.216877 0.786533 0.000000
0.244615 0.786202 0.000000
0.272327 0.785874 0.000000
0.300013 0.785549 0.000000
0.327674 0.785226 0.000000
0.355310 0.784905 0.000000
0.382924 0.784587 0.000000
0.410516 0.784272 0.000000
0.438086 0.783959 0.000000
0.465637 0.783649 0.000000
0.493168 0.783341 0.000000
0.520680 0.783035 0.000000
0.548176 0.782732 0.000000
0.575655 0.782431 0.000000
0.603118 0.782133 0.000000
0.630568 0.781837 0.000000
0.658003 0.781544 0.000000
0.685427 0.781253 0.000000
0.712838 0.780964 0.000000
0.740239 0.780679 0.000000
0.767631 0.780395 0.000000
